color-grading/luts/01_technical/BNC_Base_FLog2-FGamut_to_Rec709-G24.cube
TITLE "BNC Base FLog2-FGamut to Rec709-G24"
# BNC Grade v1.0 - Fujifilm F-Log2/F-Gamut (X-T5) to Rec.709 Gamma 2.4, filmic highlight roll-off
# Input: F-Log2 / F-Gamut | Output: Rec.709 Gamma 2.4
LUT_3D_SIZE 33
DOMAIN_MIN 0.0 0.0 0.0
DOMAIN_MAX 1.0 1.0 1.0
0.000000 0.000000 0.000000
0.000000 0.000000 0.000000
0.004669 0.000000 0.000000
0.039236 0.000466 0.000486
0.071861 0.001379 0.001447
0.109221 0.004071 0.004653
0.150258 0.009401 0.010750
0.194947 0.017176 0.019666
0.244376 0.027792 0.031926
0.299047 0.041600 0.047391
0.361126 0.058396 0.066494
0.428189 0.078480 0.089183
0.503187 0.102825 0.116501
0.578583 0.130996 0.147394
0.650291 0.163461 0.183091
0.719293 0.200079 0.222413
0.782960 0.240534 0.266316
0.842750 0.285530 0.315012
0.876657 0.334542 0.368744
0.902091 0.388845 0.426343
0.923340 0.446240 0.488785
0.940702 0.509407 0.552888
0.955180 0.570283 0.610282
0.966864 0.625173 0.663341
0.976644 0.675186 0.708931
0.984023 0.717237 0.747913
0.989756 0.753719 0.781391
0.994031 0.784742 0.810066
0.997089 0.811695 0.834682
0.999354 0.834256 0.854650
1.000000 0.852592 0.871279
1.000000 0.867880 0.884726
1.000000 0.880143 0.895840
0.000000 0.000000 0.000000
0.000000 0.000000 0.000000
0.000000 0.000000 0.000000
0.027766 0.000289 0.000249
0.062242 0.001253 0.001130
0.101441 0.004374 0.003695
0.143818 0.010285 0.009525
0.189858 0.018611 0.018299
0.240205 0.029694 0.030472
0.295571 0.043651 0.046032
0.358242 0.060604 0.065217
0.425849 0.080646 0.087989
0.501272 0.104955 0.115445
0.577263 0.132885 0.146472
0.649321 0.165181 0.182304
0.718619 0.201543 0.221756
0.782489 0.241795 0.265760
0.842415 0.286606 0.314541
0.876535 0.335474 0.368345
0.902013 0.389620 0.426024
0.923293 0.446885 0.488513
0.940673 0.509925 0.552693
0.955162 0.570634 0.610145
0.966853 0.625428 0.663246
0.976637 0.675358 0.708869
0.984019 0.717352 0.747871
0.989754 0.753797 0.781363
0.994030 0.784794 0.810047
0.997089 0.811730 0.834669
0.999354 0.834279 0.854641
1.000000 0.852608 0.871273
1.000000 0.867891 0.884722
1.000000 0.880151 0.895837
0.000000 0.000000 0.000000
0.000000 0.000000 0.000000
0.000000 0.000000 0.000000
0.015075 0.000109 0.000068
0.052385 0.001173 0.000839
0.093261 0.005185 0.002786
0.137244 0.011819 0.008328
0.184727 0.020674 0.016961
0.236016 0.032184 0.029041
0.292096 0.046156 0.044691
0.355350 0.063134 0.063942
0.423513 0.083064 0.086798
0.499348 0.107242 0.114387
0.575934 0.134883 0.145550
0.648349 0.166968 0.181516
0.717944 0.203047 0.221099
0.782017 0.243081 0.265204
0.842078 0.287698 0.314068
0.876413 0.336417 0.367945
0.901934 0.390401 0.425704
0.923246 0.447533 0.488242
0.940643 0.510444 0.552497
0.955144 0.570985 0.610009
0.966842 0.625683 0.663152
0.976630 0.675530 0.708807
0.984016 0.717466 0.747829
0.989752 0.753874 0.781335
0.994028 0.784846 0.810027
0.997088 0.811766 0.834656
0.999354 0.834303 0.854633
1.000000 0.852624 0.871267
1.000000 0.867902 0.884718
1.000000 0.880158 0.895834
0.000068 0.007295 0.000081
0.000036 0.004248 0.000035
0.000007 0.001354 0.000005
0.002528 0.000000 0.000000
0.041998 0.002369 0.000613
0.084845 0.007761 0.002087
0.130627 0.014868 0.007202
0.179591 0.023853 0.015672
0.231832 0.035500 0.027646
0.288635 0.049267 0.043375
0.352455 0.066051 0.062672
0.421183 0.085773 0.085613
0.497418 0.109700 0.113327
0.574598 0.136998 0.144628
0.647374 0.168824 0.180726
0.717267 0.204591 0.220441
0.781545 0.244395 0.264647
0.841741 0.288806 0.313596
0.876291 0.337371 0.367545
0.901856 0.391189 0.425384
0.923199 0.448187 0.487970
0.940614 0.510965 0.552301
0.955126 0.571337 0.609872
0.966831 0.625939 0.663057
0.976624 0.675702 0.708745
0.984012 0.717581 0.747787
0.989749 0.753951 0.781306
0.994027 0.784898 0.810008
0.997087 0.811802 0.834643
0.999353 0.834326 0.854624
1.000000 0.852641 0.871261
1.000000 0.867913 0.884714
1.000000 0.880166 0.895832
0.000726 0.037277 0.000893
0.000762 0.034611 0.000794
0.000864 0.031893 0.000698
0.001294 0.029103 0.000609
0.032322 0.026831 0.000748
0.076484 0.023699 0.002044
0.123494 0.023345 0.006149
0.173872 0.030336 0.014318
0.227164 0.040702 0.026138
0.284766 0.053754 0.041921
0.349190 0.069910 0.061248
0.418566 0.089231 0.084283
0.495233 0.112701 0.112129
0.573082 0.139536 0.143588
0.646272 0.171008 0.179833
0.716500 0.206387 0.219698
0.781011 0.245912 0.264018
0.841360 0.290078 0.313062
0.876153 0.338461 0.367093
0.901767 0.392084 0.425023
0.923146 0.448929 0.487663
0.940580 0.511556 0.552079
0.955106 0.571736 0.609718
0.966818 0.626229 0.662950
0.976616 0.675897 0.708675
0.984008 0.717710 0.747739
0.989747 0.754039 0.781275
0.994026 0.784957 0.809986
0.997087 0.811842 0.834629
0.999353 0.834353 0.854614
1.000000 0.852659 0.871254
1.000000 0.867925 0.884710
1.000000 0.880174 0.895829
0.001815 0.070579 0.002291
0.001965 0.068365 0.002180
0.002223 0.066153 0.002071
0.002809 0.063940 0.001965
0.014718 0.061625 0.001886
0.065474 0.059372 0.002142
0.115586 0.055926 0.005418
0.167050 0.050741 0.012892
0.221184 0.052425 0.024298
0.279697 0.062138 0.040008
0.344835 0.076306 0.059359
0.415081 0.094664 0.082515
0.492290 0.117151 0.110520
0.571032 0.143220 0.142192
0.644789 0.174096 0.178633
0.715468 0.208893 0.218699
0.780293 0.248005 0.263173
0.840846 0.291820 0.312346
0.875968 0.339947 0.366485
0.901647 0.393299 0.424536
0.923075 0.449934 0.487251
0.940535 0.512352 0.551781
0.955078 0.572274 0.609511
0.966801 0.626618 0.662806
0.976606 0.676158 0.708581
0.984002 0.717884 0.747676
0.989744 0.754156 0.781232
0.994024 0.785037 0.809957
0.997086 0.811896 0.834609
0.999353 0.834388 0.854601
1.000000 0.852683 0.871245
1.000000 0.867941 0.884704
1.000000 0.880185 0.895824
0.003261 0.108415 0.004843
0.003502 0.106561 0.004621
0.004114 0.104689 0.004405
0.005581 0.102805 0.004199
0.009892 0.100695 0.003984
0.046231 0.098407 0.003838
0.102874 0.095697 0.004296
0.158384 0.091689 0.011409
0.214326 0.085666 0.022361
0.273340 0.080780 0.037591
0.339113 0.088539 0.056891
0.410447 0.103742 0.080186
0.488336 0.124001 0.108362
0.568262 0.148718 0.140323
0.642794 0.178541 0.177020
0.714077 0.212435 0.217358
0.779329 0.250922 0.262039
0.840156 0.294221 0.311384
0.875718 0.341981 0.365668
0.901486 0.394952 0.423883
0.922979 0.451297 0.486697
0.940475 0.513427 0.551381
0.955042 0.572998 0.609232
0.966779 0.627142 0.662613
0.976592 0.676510 0.708455
0.983995 0.718118 0.747590
0.989739 0.754314 0.781175
0.994022 0.785143 0.809917
0.997084 0.811969 0.834583
0.999352 0.834436 0.854583
1.000000 0.852715 0.871233
1.000000 0.867963 0.884696
1.000000 0.880200 0.895819
0.005804 0.149638 0.010059
0.006564 0.148126 0.009792
0.007585 0.146606 0.009528
0.009227 0.145081 0.009267
0.012459 0.143360 0.008980
0.023723 0.141117 0.008620
0.080705 0.138752 0.008308
0.143558 0.135609 0.008989
0.204312 0.131127 0.019702
0.265846 0.124610 0.034712
0.331936 0.116050 0.053793
0.404329 0.120324 0.077171
0.483042 0.135261 0.105478
0.564513 0.157271 0.137824
0.640112 0.185115 0.174852
0.712202 0.217544 0.215555
0.778033 0.255042 0.260514
0.839226 0.297564 0.310093
0.875381 0.344785 0.364570
0.901270 0.397209 0.423005
0.922850 0.453155 0.485952
0.940393 0.514881 0.550843
0.954993 0.573976 0.608858
0.966748 0.627847 0.662354
0.976574 0.676982 0.708286
0.983985 0.718432 0.747475
0.989733 0.754526 0.781098
0.994019 0.785286 0.809864
0.997083 0.812066 0.834547
0.999351 0.834500 0.854560
1.000000 0.852759 0.871217
1.000000 0.867993 0.884685
1.000000 0.880220 0.895811
0.009879 0.194584 0.017519
0.010899 0.193382 0.017236
0.012198 0.192176 0.016954
0.013869 0.190967 0.016675
0.016528 0.189600 0.016363
0.022734 0.187773 0.015955
0.046049 0.185457 0.015455
0.119373 0.182981 0.014969
0.188159 0.179474 0.015865
0.254208 0.174379 0.030579
0.322759 0.166859 0.049898
0.396586 0.155850 0.073366
0.476045 0.156257 0.101660
0.559450 0.171394 0.134500
0.636510 0.195211 0.171939
0.709672 0.225120 0.213132
0.776291 0.260980 0.258465
0.837971 0.302283 0.308359
0.874928 0.348691 0.363093
0.900978 0.400315 0.421822
0.922677 0.455699 0.484950
0.940284 0.516854 0.550118
0.954927 0.575299 0.608356
0.966708 0.628799 0.662005
0.976550 0.677617 0.708058
0.983972 0.718854 0.747320
0.989725 0.754811 0.780995
0.994015 0.785477 0.809793
0.997080 0.812197 0.834500
0.999350 0.834586 0.854528
1.000000 0.852818 0.871196
1.000000 0.868032 0.884670
1.000000 0.880248 0.895801
0.015342 0.242923 0.027369
0.016473 0.241946 0.027088
0.017852 0.240966 0.026810
0.019545 0.239984 0.026533
0.021951 0.238874 0.026224
0.026356 0.237385 0.025815
0.036965 0.235406 0.025276
0.076473 0.232947 0.024612
0.161016 0.230098 0.023852
0.235642 0.226084 0.024964
0.308798 0.220393 0.044462
0.386195 0.212187 0.068319
0.467133 0.200186 0.096730
0.552693 0.196814 0.130127
0.631694 0.211644 0.168031
0.706254 0.236829 0.209873
0.773948 0.269775 0.255709
0.836274 0.309099 0.306029
0.874315 0.354204 0.361103
0.900584 0.404625 0.420228
0.922442 0.459209 0.483602
0.940137 0.519540 0.549141
0.954838 0.577095 0.607679
0.966653 0.630085 0.661537
0.976517 0.678473 0.707752
0.983954 0.719423 0.747112
0.989715 0.755194 0.780856
0.994010 0.785735 0.809698
0.997077 0.812373 0.834436
0.999349 0.834701 0.854486
1.000000 0.852896 0.871167
1.000000 0.868085 0.884651
1.000000 0.880284 0.895788
0.022272 0.295852 0.040190
0.023508 0.295048 0.039910
0.024907 0.294244 0.039630
0.026496 0.293439 0.039350
0.028612 0.292530 0.039035
0.032272 0.291311 0.038613
0.039224 0.289678 0.038049
0.054972 0.287513 0.037304
0.113922 0.284859 0.036383
0.205987 0.281606 0.035249
0.287665 0.277042 0.036670
0.370285 0.270601 0.061106
0.454914 0.261381 0.090124
0.543993 0.248065 0.124461
0.625350 0.241429 0.162823
0.701642 0.256071 0.205493
0.770801 0.283346 0.252000
0.833973 0.319281 0.302898
0.873483 0.362133 0.358417
0.900052 0.410681 0.418075
0.922125 0.464097 0.481784
0.939939 0.523217 0.547821
0.954719 0.579544 0.606767
0.966579 0.631827 0.660905
0.976473 0.679628 0.707340
0.983930 0.720190 0.746833
0.989701 0.755709 0.780670
0.994003 0.786082 0.809570
0.997073 0.812609 0.834351
0.999347 0.834856 0.854428
1.000000 0.853002 0.871128
1.000000 0.868156 0.884625
1.000000 0.880333 0.895769
0.030848 0.355424 0.055610
0.032141 0.354746 0.055349
0.033574 0.354067 0.055089
0.035165 0.353388 0.054830
0.037177 0.352620 0.054537
0.040297 0.351588 0.054145
0.045412 0.350204 0.053621
0.054860 0.348349 0.052923
0.077117 0.345891 0.052002
0.154447 0.342868 0.050860
0.254567 0.339041 0.049418
0.345932 0.333742 0.051091
0.437076 0.326344 0.081099
0.531465 0.315838 0.116601
0.617197 0.300752 0.155954
0.695480 0.290807 0.199611
0.766591 0.305600 0.247012
0.830835 0.335121 0.298673
0.872353 0.373834 0.354783
0.899328 0.419334 0.415161
0.921696 0.470992 0.479328
0.939672 0.528284 0.546033
0.954557 0.582901 0.605537
0.966480 0.634197 0.660053
0.976413 0.681189 0.706786
0.983897 0.721225 0.746457
0.989681 0.756404 0.780419
0.993993 0.786548 0.809398
0.997067 0.812927 0.834236
0.999344 0.835064 0.854352
1.000000 0.853144 0.871076
1.000000 0.868252 0.884589
1.000000 0.880398 0.895745
0.041856 0.421008 0.074436
0.043126 0.420465 0.074199
0.044479 0.419922 0.073961
0.045922 0.419378 0.073724
0.047669 0.418764 0.073456
0.050256 0.417937 0.073096
0.054331 0.416827 0.072614
0.061193 0.415337 0.071968
0.073989 0.413340 0.071104
0.104003 0.410696 0.069961
0.198835 0.407463 0.068528
0.308209 0.403261 0.066661
0.410671 0.397360 0.068663
0.511844 0.389000 0.105274
0.605187 0.376964 0.146418
0.687589 0.359680 0.191775
0.761009 0.346495 0.240308
0.826516 0.361214 0.292938
0.870807 0.391739 0.349850
0.898342 0.432000 0.411199
0.921111 0.480884 0.476001
0.939310 0.535329 0.543605
0.954340 0.587539 0.603872
0.966346 0.637435 0.658901
0.976333 0.683307 0.706037
0.983854 0.722628 0.745950
0.989656 0.757342 0.780082
0.993980 0.787178 0.809166
0.997059 0.813355 0.834081
0.999340 0.835344 0.854248
1.000000 0.853334 0.871006
1.000000 0.868380 0.884542
1.000000 0.880486 0.895712
0.054846 0.493369 0.096749
0.056051 0.492914 0.096529
0.057321 0.492458 0.096309
0.058661 0.492002 0.096089
0.060266 0.491486 0.095840
0.062584 0.490793 0.095507
0.066028 0.489862 0.095060
0.071356 0.488611 0.094461
0.080114 0.486930 0.093659
0.096710 0.484675 0.092588
0.135227 0.481677 0.091167
0.246245 0.477900 0.089352
0.368389 0.472876 0.086959
0.481110 0.466006 0.089295
0.587069 0.456536 0.133202
0.676043 0.443238 0.180822
0.753449 0.424315 0.231232
0.820406 0.407621 0.285082
0.868679 0.420562 0.343114
0.896990 0.451760 0.405782
0.920312 0.495384 0.471478
0.938819 0.545231 0.540290
0.954045 0.594013 0.601613
0.966166 0.641887 0.657339
0.976225 0.686187 0.705025
0.983796 0.724534 0.745265
0.989621 0.758612 0.779627
0.993962 0.788028 0.808854
0.997049 0.813931 0.833874
0.999336 0.835720 0.854110
1.000000 0.853591 0.870912
1.000000 0.868552 0.884479
1.000000 0.880604 0.895668
0.070632 0.569532 0.123398
0.071758 0.569200 0.123206
0.072925 0.568868 0.123014
0.074134 0.568535 0.122822
0.075554 0.568159 0.122605
0.077555 0.567654 0.122313
0.080426 0.566974 0.121922
0.084681 0.566059 0.121396
0.091421 0.564828 0.120691
0.102803 0.563168 0.119743
0.123810 0.560934 0.118472
0.170769 0.557958 0.116778
0.298191 0.554210 0.114589
0.433988 0.549133 0.111653
0.557337 0.541902 0.114368
0.657429 0.531448 0.164980
0.741347 0.516076 0.218309
0.811019 0.493312 0.274043
0.865714 0.472005 0.333814
0.895122 0.484515 0.398307
0.919211 0.517212 0.465294
0.938149 0.559324 0.535735
0.953643 0.603177 0.598534
0.965922 0.648062 0.655213
0.976079 0.690125 0.703651
0.983717 0.727136 0.744338
0.989574 0.760336 0.779012
0.993939 0.789181 0.808434
0.997035 0.814710 0.833594
0.999329 0.836226 0.853923
1.000000 0.853936 0.870786
1.000000 0.868784 0.884394
1.000000 0.880763 0.895609
0.089043 0.639956 0.153221
0.090088 0.639728 0.153056
0.091165 0.639500 0.152891
0.092275 0.639272 0.152726
0.093570 0.639014 0.152540
0.095378 0.638667 0.152290
0.097940 0.638201 0.151955
0.101639 0.637574 0.151505
0.107123 0.636730 0.150901
0.115565 0.635593 0.150090
0.129276 0.634059 0.149001
0.154205 0.631985 0.147538
0.210062 0.629181 0.145573
0.355729 0.625379 0.142935
0.505615 0.620046 0.139346
0.626832 0.612467 0.142111
0.721571 0.601790 0.199774
0.797115 0.586642 0.258637
0.861489 0.564098 0.320706
0.892513 0.540950 0.387801
0.917681 0.550957 0.456765
0.937230 0.579617 0.529416
0.953095 0.616386 0.594308
0.965591 0.656719 0.652301
0.975881 0.695540 0.701780
0.983610 0.730709 0.743080
0.989511 0.762688 0.778179
0.993907 0.790747 0.807865
0.997016 0.815764 0.833216
0.999320 0.836910 0.853672
1.000000 0.854401 0.870615
1.000000 0.869096 0.884279
1.000000 0.880976 0.895530
0.110689 0.704500 0.186354
0.111641 0.704347 0.186217
0.112612 0.704194 0.186080
0.113601 0.704040 0.185942
0.114740 0.703866 0.185787
0.116308 0.703633 0.185579
0.118482 0.703319 0.185300
0.121537 0.702897 0.184924
0.125898 0.702329 0.184420
0.132271 0.701562 0.183743
0.142061 0.700526 0.182831
0.158327 0.699120 0.181602
0.187926 0.697197 0.179941
0.251914 0.694513 0.177678
0.416997 0.690486 0.174507
0.576744 0.684780 0.170157
0.690660 0.676859 0.173163
0.776732 0.665717 0.237145
0.846394 0.649925 0.302646
0.888814 0.627186 0.372601
0.915527 0.603638 0.444800
0.935960 0.610584 0.520520
0.952341 0.635887 0.588449
0.965140 0.669026 0.648282
0.975612 0.703116 0.699215
0.983466 0.735659 0.741362
0.989426 0.765913 0.777046
0.993863 0.792887 0.807095
0.996991 0.817194 0.832704
0.999309 0.837836 0.853332
1.000000 0.855029 0.870386
1.000000 0.869516 0.884125
1.000000 0.881264 0.895423
0.134971 0.760529 0.222029
0.135783 0.760431 0.221917
0.136608 0.760333 0.221804
0.137445 0.760235 0.221692
0.138406 0.760124 0.221566
0.139724 0.759974 0.221395
0.141541 0.759774 0.221167
0.144071 0.759504 0.220861
0.147645 0.759141 0.220450
0.152784 0.758652 0.219897
0.160373 0.757990 0.219154
0.171998 0.757094 0.218154
0.190804 0.755871 0.216805
0.224159 0.754181 0.214979
0.297347 0.751743 0.212472
0.482390 0.747707 0.208863
0.640305 0.741899 0.203894
0.746253 0.733903 0.206949
0.824524 0.722679 0.277887
0.883462 0.706980 0.351498
0.912444 0.684674 0.427699
0.934184 0.660880 0.507681
0.951295 0.665481 0.580193
0.964522 0.686807 0.642664
0.975243 0.713928 0.695666
0.983271 0.742593 0.739001
0.989310 0.770373 0.775496
0.993805 0.795829 0.806047
0.996956 0.819145 0.832010
0.999293 0.839094 0.852873
1.000000 0.855880 0.870076
1.000000 0.870083 0.883917
1.000000 0.881652 0.895279
0.162270 0.808562 0.260788
0.162983 0.808498 0.260695
0.163703 0.808434 0.260602
0.164431 0.808371 0.260509
0.165261 0.808298 0.260405
0.166390 0.808201 0.260264
0.167933 0.808071 0.260075
0.170052 0.807896 0.259822
0.172992 0.807660 0.259482
0.177116 0.807342 0.259025
0.183002 0.806912 0.258412
0.191599 0.806330 0.257586
0.204591 0.805538 0.256474
0.225619 0.804448 0.254972
0.263521 0.802915 0.252931
0.347384 0.800599 0.250105
0.550249 0.796319 0.245932
0.697987 0.790136 0.240181
0.793353 0.781809 0.243426
0.865119 0.770469 0.322695
0.907923 0.755071 0.404639
0.931663 0.733824 0.488653
0.949826 0.711051 0.568217
0.963669 0.712918 0.634657
0.974735 0.729707 0.690677
0.983005 0.752457 0.735723
0.989153 0.776604 0.773360
0.993725 0.799909 0.804612
0.996910 0.821821 0.831064
0.999271 0.840812 0.852249
1.000000 0.857036 0.869656
1.000000 0.870851 0.883636
1.000000 0.882176 0.895085
0.192655 0.849654 0.303224
0.193246 0.849613 0.303147
0.193841 0.849572 0.303069
0.194440 0.849531 0.302992
0.195121 0.849485 0.302904
0.196043 0.849422 0.302787
0.197295 0.849339 0.302629
0.199002 0.849226 0.302418
0.201347 0.849075 0.302134
0.204601 0.848871 0.301753
0.209175 0.848595 0.301242
0.215720 0.848223 0.300555
0.225333 0.847716 0.299632
0.240007 0.847024 0.298390
0.263797 0.846062 0.296714
0.306574 0.844686 0.294440
0.401774 0.842514 0.291285
0.610864 0.838135 0.286572
0.746854 0.831776 0.280072
0.833949 0.823297 0.283568
0.900322 0.811865 0.372869
0.928004 0.796563 0.462298
0.947726 0.775845 0.550001
0.962481 0.753502 0.622854
0.974030 0.753416 0.683451
0.982639 0.766781 0.731101
0.988937 0.785433 0.770382
0.993616 0.805632 0.802635
0.996847 0.825518 0.829765
0.999242 0.843174 0.851398
1.000000 0.858612 0.869085
1.000000 0.871893 0.883256
1.000000 0.882885 0.894822
0.225762 0.885022 0.351075
0.226257 0.884995 0.351010
0.226754 0.884968 0.350945
0.227253 0.884941 0.350880
0.227821 0.884910 0.350806
0.228588 0.884869 0.350707
0.229627 0.884813 0.350575
0.231039 0.884739 0.350397
0.232967 0.884639 0.350158
0.235618 0.884504 0.349838
0.239293 0.884322 0.349408
0.244455 0.884077 0.348830
0.251834 0.883744 0.348054
0.262653 0.883291 0.347008
0.279132 0.882667 0.345598
0.305949 0.881795 0.343692
0.355073 0.880524 0.341094
0.460316 0.878431 0.337472
0.666384 0.873878 0.332035
0.788867 0.867268 0.324553
0.868612 0.858583 0.328512
0.922513 0.847062 0.426592
0.944654 0.831953 0.523951
0.960800 0.811913 0.604894
0.973037 0.790157 0.672549
0.982133 0.788127 0.724418
0.988641 0.798319 0.766158
0.993465 0.813786 0.799875
0.996762 0.830679 0.827968
0.999202 0.846447 0.850230
1.000000 0.860777 0.868305
1.000000 0.873313 0.882738
1.000000 0.883850 0.894466
0.262627 0.915267 0.403082
0.263039 0.915250 0.403030
0.263454 0.915233 0.402978
0.263870 0.915215 0.402927
0.264341 0.915196 0.402868
0.264978 0.915170 0.402790
0.265837 0.915134 0.402684
0.267001 0.915087 0.402543
0.268583 0.915023 0.402354
0.270742 0.914937 0.402099
0.273709 0.914821 0.401758
0.277821 0.914665 0.401299
0.283591 0.914454 0.400683
0.291868 0.914166 0.399853
0.304141 0.913773 0.398736
0.323032 0.913228 0.397227
0.353697 0.912458 0.395182
0.407523 0.911313 0.392388
0.523062 0.909338 0.388473
0.714123 0.904731 0.382550
0.824782 0.898025 0.374362
0.898578 0.889251 0.378633
0.939999 0.877660 0.486655
0.958360 0.862564 0.579945
0.971615 0.842712 0.655520
0.981410 0.821224 0.714324
0.988228 0.817805 0.759998
0.993255 0.825641 0.795954
0.996645 0.837977 0.825447
0.999146 0.851038 0.848612
1.000000 0.863772 0.867233
1.000000 0.875260 0.882031
1.000000 0.885167 0.893982
0.303889 0.935740 0.460430
0.304241 0.935733 0.460386
0.304593 0.935726 0.460342
0.304947 0.935718 0.460298
0.305347 0.935710 0.460249
0.305887 0.935699 0.460182
0.306615 0.935685 0.460093
0.307599 0.935665 0.459973
0.308932 0.935639 0.459812
0.310745 0.935603 0.459597
0.313222 0.935555 0.459307
0.316628 0.935492 0.458918
0.321356 0.935406 0.458397
0.327996 0.935290 0.457695
0.337479 0.935134 0.456751
0.351340 0.934925 0.455481
0.372269 0.934642 0.453766
0.405386 0.934259 0.451444
0.465608 0.933740 0.448275
0.580120 0.933032 0.443846
0.754796 0.930123 0.437176
0.855734 0.923292 0.428013
0.923022 0.914425 0.432780
0.954606 0.902868 0.545326
0.969534 0.888106 0.631676
0.980351 0.868983 0.698541
0.987647 0.848107 0.750571
0.992960 0.843291 0.790215
0.996485 0.848460 0.821839
0.999070 0.857581 0.846338
1.000000 0.867964 0.865741
1.000000 0.877948 0.881058
1.000000 0.886977 0.893318
0.350839 0.951114 0.520558
0.351130 0.951110 0.520527
0.351422 0.951105 0.520495
0.351715 0.951101 0.520463
0.352046 0.951096 0.520428
0.352492 0.951089 0.520380
0.353091 0.951080 0.520316
0.353900 0.951068 0.520230
0.354991 0.951052 0.520114
0.356467 0.951030 0.519959
0.358471 0.951000 0.519751
0.361202 0.950961 0.519472
0.364947 0.950908 0.519096
0.370119 0.950837 0.518591
0.377342 0.950742 0.517911
0.387574 0.950613 0.516994
0.402400 0.950439 0.515755
0.425421 0.950205 0.514075
0.463000 0.949888 0.511786
0.525702 0.949457 0.508635
0.632577 0.948868 0.504171
0.789549 0.948058 0.497311
0.881794 0.944247 0.487736
0.943405 0.935301 0.492649
0.966386 0.923708 0.598098
0.978756 0.909015 0.676848
0.986814 0.890311 0.735621
0.992537 0.870059 0.781383
0.996262 0.864057 0.816504
0.998962 0.867107 0.843072
1.000000 0.873916 0.863637
1.000000 0.881707 0.879704
1.000000 0.889486 0.892403
0.401694 0.963522 0.574677
0.401930 0.963520 0.574656
0.402167 0.963517 0.574634
0.402404 0.963514 0.574613
0.402672 0.963511 0.574588
0.403033 0.963507 0.574556
0.403519 0.963502 0.574512
0.404174 0.963494 0.574453
0.405058 0.963485 0.574375
0.406253 0.963471 0.574269
0.407874 0.963454 0.574128
0.410083 0.963430 0.573937
0.413106 0.963398 0.573682
0.417272 0.963355 0.573339
0.423065 0.963297 0.572878
0.431212 0.963220 0.572258
0.442836 0.963116 0.571422
0.459717 0.962976 0.570294
0.484711 0.962786 0.568767
0.522214 0.962530 0.566688
0.579578 0.962183 0.563829
0.678367 0.961711 0.559765
0.819242 0.961064 0.553428
0.903037 0.960173 0.544608
0.960032 0.952479 0.548756
0.976258 0.940905 0.646442
0.985593 0.926387 0.715196
0.991919 0.908135 0.767322
0.995949 0.888346 0.808172
0.998809 0.881361 0.838215
1.000000 0.882535 0.860598
1.000000 0.887088 0.877788
1.000000 0.893004 0.891125
0.459052 0.973908 0.624916
0.459247 0.973906 0.624902
0.459442 0.973904 0.624887
0.459637 0.973903 0.624872
0.459858 0.973901 0.624856
0.460155 0.973898 0.624833
0.460553 0.973895 0.624804
0.461089 0.973890 0.624763
0.461809 0.973884 0.624710
0.462779 0.973876 0.624638
0.464086 0.973865 0.624541
0.465852 0.973850 0.624411
0.468243 0.973830 0.624237
0.471490 0.973804 0.624002
0.475917 0.973768 0.623688
0.481986 0.973720 0.623264
0.490356 0.973656 0.622694
0.501981 0.973569 0.621924
0.518233 0.973451 0.620883
0.541033 0.973293 0.619470
0.575270 0.973078 0.617540
0.629558 0.972787 0.614870
0.717123 0.972388 0.611035
0.844666 0.971840 0.604936
0.920739 0.971081 0.596383
0.972129 0.966496 0.600193
0.983740 0.954901 0.687225
0.990988 0.940482 0.748372
0.995503 0.922574 0.794699
0.998587 0.903241 0.830541
1.000000 0.895328 0.856040
1.000000 0.894976 0.875000
1.000000 0.898012 0.889310
0.516847 0.982045 0.668275
0.516982 0.982044 0.668266
0.517116 0.982043 0.668256
0.517251 0.982043 0.668247
0.517404 0.982042 0.668237
0.517608 0.982040 0.668223
0.517882 0.982038 0.668204
0.518250 0.982036 0.668178
0.518744 0.982033 0.668144
0.519407 0.982028 0.668099
0.520297 0.982022 0.668037
0.521494 0.982014 0.667955
0.523104 0.982004 0.667845
0.525270 0.981989 0.667697
0.528188 0.981970 0.667498
0.532148 0.981944 0.667230
0.537590 0.981909 0.666871
0.545132 0.981863 0.666386
0.555700 0.981799 0.665732
0.570723 0.981714 0.664848
0.592471 0.981598 0.663647
