color-grading/luts/01_technical/BNC_Base_FLog2-FGamut_to_Rec709-G24.cube
TITLE "BNC Base FLog2-FGamut to Rec709-G24"
# BNC Grade v1.0 - Fujifilm F-Log2/F-Gamut (X-T5) to Rec.709 Gamma 2.4, filmic highlight roll-off
# Input: F-Log2 / F-Gamut | Output: Rec.709 Gamma 2.4
LUT_3D_SIZE 9
DOMAIN_MIN 0.0 0.0 0.0
DOMAIN_MAX 1.0 1.0 1.0
0.000000 0.000000 0.000000
0.071861 0.001379 0.001447
0.244376 0.027792 0.031926
0.503187 0.102825 0.116501
0.782960 0.240534 0.266316
0.923340 0.446240 0.488785
0.976644 0.675186 0.708931
0.997089 0.811695 0.834682
1.000000 0.880143 0.895840
0.000726 0.037277 0.000893
0.032322 0.026831 0.000748
0.227164 0.040702 0.026138
0.495233 0.112701 0.112129
0.781011 0.245912 0.264018
0.923146 0.448929 0.487663
0.976616 0.675897 0.708675
0.997087 0.811842 0.834629
1.000000 0.880174 0.895829
0.009879 0.194584 0.017519
0.016528 0.189600 0.016363
0.188159 0.179474 0.015865
0.476045 0.156257 0.101660
0.776291 0.260980 0.258465
0.922677 0.455699 0.484950
0.976550 0.677617 0.708058
0.997080 0.812197 0.834500
1.000000 0.880248 0.895801
0.041856 0.421008 0.074436
0.047669 0.418764 0.073456
0.073989 0.413340 0.071104
0.410671 0.397360 0.068663
0.761009 0.346495 0.240308
0.921111 0.480884 0.476001
0.976333 0.683307 0.706037
0.997059 0.813355 0.834081
1.000000 0.880486 0.895712
0.110689 0.704500 0.186354
0.114740 0.703866 0.185787
0.125898 0.702329 0.184420
0.187926 0.697197 0.179941
0.690660 0.676859 0.173163
0.915527 0.603638 0.444800
0.975612 0.703116 0.699215
0.996991 0.817194 0.832704
1.000000 0.881264 0.895423
0.225762 0.885022 0.351075
0.227821 0.884910 0.350806
0.232967 0.884639 0.350158
0.251834 0.883744 0.348054
0.355073 0.880524 0.341094
0.868612 0.858583 0.328512
0.973037 0.790157 0.672549
0.996762 0.830679 0.827968
1.000000 0.883850 0.894466
0.401694 0.963522 0.574677
0.402672 0.963511 0.574588
0.405058 0.963485 0.574375
0.413106 0.963398 0.573682
0.442836 0.963116 0.571422
0.579578 0.962183 0.563829
0.960032 0.952479 0.548756
0.995949 0.888346 0.808172
1.000000 0.893004 0.891125
0.616802 0.992909 0.737256
0.617066 0.992907 0.737240
0.617699 0.992904 0.737200
0.619757 0.992895 0.737073
0.626500 0.992865 0.736658
0.649167 0.992765 0.735297
0.740741 0.992430 0.730604
0.992144 0.991206 0.718754
1.000000 0.932523 0.876114
0.749457 1.000000 0.823195
0.749507 1.000000 0.823192
0.749626 1.000000 0.823185
0.750013 1.000000 0.823163
0.751268 1.000000 0.823091
0.755395 1.000000 0.822857
0.769486 1.000000 0.822086
0.825687 1.000000 0.819351
1.000000 1.000000 0.809930
0.000045 0.000047 0.030222
0.067513 0.001327 0.033638
0.242339 0.027180 0.054461
0.502220 0.102348 0.132113
0.782721 0.240281 0.274720
0.923316 0.446115 0.492931
0.976640 0.675153 0.709885
0.997089 0.811688 0.834883
1.000000 0.880142 0.895883
0.000718 0.036832 0.028059
0.026072 0.026072 0.026072
0.224925 0.039931 0.046991
0.494231 0.112207 0.127679
0.780769 0.245656 0.272416
0.923122 0.448803 0.491813
0.976613 0.675864 0.709630
0.997086 0.811835 0.834830
1.000000 0.880173 0.895872
0.009654 0.194303 0.035294
0.015920 0.189306 0.033500
0.185286 0.179094 0.031446
0.474961 0.155778 0.117022
0.776041 0.260721 0.266843
0.922652 0.455573 0.489107
0.976546 0.677584 0.709014
0.997080 0.812191 0.834701
1.000000 0.880246 0.895845
0.041569 0.420873 0.088216
0.047311 0.418627 0.087139
0.073143 0.413198 0.084568
0.409346 0.397193 0.081210
0.760733 0.346271 0.248604
0.921086 0.480757 0.480173
0.976330 0.683275 0.706999
0.997059 0.813348 0.834283
1.000000 0.880485 0.895756
0.110472 0.704453 0.194637
0.114509 0.703819 0.194070
0.125626 0.702281 0.192701
0.187336 0.697149 0.188208
0.690250 0.676812 0.180942
0.915498 0.603561 0.448918
0.975608 0.703087 0.700198
0.996990 0.817188 0.832908
1.000000 0.881263 0.895466
0.225649 0.885008 0.355180
0.227706 0.884896 0.354911
0.232847 0.884624 0.354263
0.251692 0.883730 0.352158
0.354770 0.880511 0.345193
0.868523 0.858576 0.332355
0.973032 0.790141 0.673628
0.996762 0.830673 0.828176
1.000000 0.883848 0.894510
0.401640 0.963522 0.576057
0.402618 0.963511 0.575969
0.405002 0.963484 0.575756
0.413047 0.963397 0.575066
0.442767 0.963115 0.572813
0.579476 0.962182 0.565241
0.960012 0.952478 0.550107
0.995949 0.888343 0.808394
1.000000 0.893003 0.891169
0.616788 0.992908 0.737527
0.617051 0.992907 0.737511
0.617685 0.992904 0.737472
0.619743 0.992895 0.737344
0.626486 0.992864 0.736930
0.649151 0.992765 0.735572
0.740721 0.992430 0.730887
0.992143 0.991206 0.719028
1.000000 0.932522 0.876159
0.749455 1.000000 0.823247
0.749504 1.000000 0.823244
0.749624 1.000000 0.823237
0.750010 1.000000 0.823215
0.751265 1.000000 0.823143
0.755392 1.000000 0.822910
0.769483 1.000000 0.822139
0.825683 1.000000 0.819405
1.000000 1.000000 0.809982
0.012702 0.014549 0.173035
0.060077 0.014035 0.175005
0.238749 0.026111 0.185239
0.500033 0.101248 0.193628
0.782154 0.239673 0.297545
0.923258 0.445813 0.503186
0.976632 0.675074 0.712189
0.997088 0.811671 0.835368
1.000000 0.880139 0.895988
0.009772 0.040800 0.173612
0.029563 0.035073 0.172815
0.220873 0.038557 0.181174
0.491961 0.111066 0.189565
0.780194 0.245044 0.295243
0.923064 0.448500 0.502080
0.976604 0.675785 0.711936
0.997086 0.811819 0.835314
1.000000 0.880169 0.895976
0.009270 0.194261 0.180309
0.014784 0.189261 0.179255
0.178702 0.178702 0.178702
0.472480 0.154681 0.179824
0.775448 0.260102 0.289672
0.922593 0.455268 0.499400
0.976538 0.677506 0.711325
0.997079 0.812174 0.835186
1.000000 0.880243 0.895949
0.040904 0.420611 0.155593
0.046479 0.418362 0.154593
0.071190 0.412922 0.152188
0.406179 0.396834 0.146281
0.760075 0.345734 0.271401
0.921024 0.480452 0.490533
0.976321 0.683198 0.709325
0.997058 0.813332 0.834769
1.000000 0.880481 0.895860
0.109953 0.704337 0.217642
0.113954 0.703702 0.217075
0.124975 0.702164 0.215709
0.185927 0.697030 0.211231
0.689257 0.676695 0.202802
0.915426 0.603376 0.459247
0.975599 0.703016 0.702572
0.996989 0.817172 0.833397
1.000000 0.881259 0.895571
0.225378 0.884972 0.365467
0.227429 0.884860 0.365199
0.232557 0.884589 0.364552
0.251351 0.883694 0.362451
0.354043 0.880478 0.355489
0.868307 0.858557 0.342037
0.973022 0.790103 0.676229
0.996761 0.830658 0.828678
1.000000 0.883845 0.894615
0.401510 0.963520 0.579401
0.402487 0.963509 0.579313
0.404869 0.963482 0.579102
0.412907 0.963395 0.578417
0.442602 0.963113 0.576181
0.579230 0.962181 0.568663
0.959964 0.952476 0.553388
0.995948 0.888335 0.808929
1.000000 0.893000 0.891276
0.616753 0.992908 0.738179
0.617016 0.992907 0.738163
0.617650 0.992904 0.738124
0.619707 0.992895 0.737997
0.626450 0.992864 0.737585
0.649114 0.992764 0.736232
0.740673 0.992429 0.731567
0.992141 0.991206 0.719688
1.000000 0.932521 0.876269
0.749448 1.000000 0.823373
0.749498 1.000000 0.823370
0.749617 1.000000 0.823363
0.750003 1.000000 0.823341
0.751258 1.000000 0.823269
0.755386 1.000000 0.823036
0.769476 1.000000 0.822266
0.825673 1.000000 0.819536
1.000000 1.000000 0.810107
0.069229 0.077854 0.393864
0.093273 0.076297 0.394183
0.227900 0.074203 0.399180
0.493687 0.097940 0.408894
0.780468 0.237753 0.412042
0.923072 0.444825 0.539018
0.976605 0.674815 0.719765
0.997086 0.811618 0.836940
1.000000 0.880128 0.896326
0.063395 0.097156 0.394102
0.083027 0.094626 0.394085
0.208727 0.090300 0.397741
0.485357 0.107628 0.407078
0.778484 0.243110 0.410173
0.922876 0.447509 0.537987
0.976578 0.675526 0.719518
0.997083 0.811766 0.836888
1.000000 0.880158 0.896315
0.053664 0.194083 0.399552
0.067022 0.189158 0.398973
0.155258 0.177341 0.398676
0.465149 0.151446 0.403361
0.773677 0.258148 0.405654
0.922403 0.454270 0.535486
0.976511 0.677249 0.718922
0.997076 0.812121 0.836761
1.000000 0.880232 0.896287
0.038950 0.420168 0.398752
0.044024 0.417916 0.398326
0.065555 0.412457 0.397323
0.395996 0.395996 0.395996
0.758051 0.344050 0.390964
0.920825 0.479452 0.527144
0.976294 0.682947 0.716972
0.997055 0.813279 0.836348
1.000000 0.880470 0.896199
0.108281 0.703881 0.350593
0.112172 0.703245 0.350195
0.122883 0.701706 0.349236
0.181463 0.696570 0.346088
0.685924 0.676232 0.334352
0.915194 0.602764 0.496878
0.975571 0.702787 0.710382
0.996987 0.817120 0.834987
1.000000 0.881248 0.895910
0.224501 0.884840 0.403262
0.226535 0.884728 0.403003
0.231620 0.884457 0.402378
0.250249 0.883564 0.400345
0.351705 0.880355 0.393579
0.867595 0.858484 0.378232
0.972989 0.789977 0.684723
0.996758 0.830610 0.830306
1.000000 0.883834 0.894956
0.401091 0.963514 0.590466
0.402065 0.963503 0.590381
0.404440 0.963476 0.590176
0.412453 0.963390 0.589510
0.442066 0.963107 0.587337
0.578436 0.962175 0.580014
0.959805 0.952466 0.564308
0.995944 0.888309 0.810667
1.000000 0.892990 0.891621
0.616639 0.992908 0.740296
0.616902 0.992906 0.740280
0.617536 0.992904 0.740241
0.619593 0.992894 0.740116
0.626335 0.992864 0.739710
0.648995 0.992764 0.738377
0.740517 0.992429 0.733774
0.992135 0.991205 0.721833
1.000000 0.932515 0.876624
0.749427 1.000000 0.823780
0.749476 1.000000 0.823777
0.749595 1.000000 0.823770
0.749982 1.000000 0.823748
0.751237 1.000000 0.823677
0.755364 1.000000 0.823444
0.769453 1.000000 0.822678
0.825643 1.000000 0.819958
1.000000 1.000000 0.810511
0.186572 0.205917 0.685204
0.199919 0.204789 0.685266
0.241269 0.202211 0.685665
0.473012 0.195547 0.690772
0.775387 0.231639 0.699088
0.922460 0.441433 0.678891
0.976519 0.673954 0.745629
0.997077 0.811444 0.842095
1.000000 0.880092 0.897427
0.182055 0.216645 0.685253
0.194846 0.215383 0.685280
0.234034 0.212486 0.685567
0.463984 0.204941 0.690325
0.773329 0.236953 0.698520
0.922261 0.444103 0.678327
0.976492 0.674668 0.745406
0.997075 0.811591 0.842044
1.000000 0.880123 0.897416
0.172000 0.248199 0.685785
0.183560 0.246524 0.685735
0.218293 0.242650 0.685788
0.441619 0.232207 0.689524
0.768319 0.251925 0.697180
0.921779 0.450835 0.676956
0.976425 0.676396 0.744866
0.997068 0.811947 0.841921
1.000000 0.880196 0.897388
0.146140 0.418446 0.691281
0.154556 0.416206 0.691118
0.179424 0.410764 0.690754
0.359637 0.392995 0.690619
0.751688 0.338710 0.693325
0.920171 0.475993 0.672357
0.976206 0.682114 0.743099
0.997047 0.813106 0.841520
1.000000 0.880435 0.897300
0.103048 0.702023 0.680012
0.106599 0.701387 0.679933
0.116361 0.699845 0.679740
0.168043 0.694708 0.679073
0.674308 0.674308 0.674308
0.914435 0.600515 0.654742
0.975479 0.702021 0.737104
0.996978 0.816950 0.840200
1.000000 0.881213 0.897013
0.221617 0.884036 0.598638
0.223598 0.883924 0.598521
0.228548 0.883653 0.598238
0.246651 0.882759 0.597315
0.344212 0.879570 0.594170
0.864954 0.857938 0.577970
0.972882 0.789543 0.713386
0.996749 0.830453 0.835647
1.000000 0.883799 0.896064
0.399738 0.963495 0.628840
0.400702 0.963484 0.628766
0.403053 0.963457 0.628588
0.410988 0.963371 0.628010
0.440338 0.963088 0.626117
0.575870 0.962155 0.619687
0.959275 0.952420 0.602990
0.995934 0.888222 0.816381
1.000000 0.892957 0.892746
0.616272 0.992906 0.747251
0.616535 0.992904 0.747236
0.617168 0.992901 0.747199
0.619224 0.992892 0.747078
0.625961 0.992862 0.746688
0.648609 0.992762 0.745410
0.740012 0.992427 0.741011
0.992115 0.991202 0.728883
1.000000 0.932497 0.877782
0.749357 1.000000 0.825102
0.749407 1.000000 0.825100
0.749526 1.000000 0.825093
0.749912 1.000000 0.825071
0.751167 1.000000 0.825001
0.755292 1.000000 0.824772
0.769378 1.000000 0.824016
0.825544 1.000000 0.821331
1.000000 1.000000 0.811824
0.377053 0.410750 0.893734
0.383925 0.410127 0.893723
0.401545 0.408638 0.893694
0.472800 0.403911 0.893603
0.753390 0.388307 0.893308
0.920404 0.429727 0.892341
0.976238 0.670761 0.844973
0.997050 0.810853 0.859590
1.000000 0.879974 0.901058
0.374523 0.416177 0.893669
0.381306 0.415537 0.893658
0.398698 0.414008 0.893629
0.468749 0.409150 0.893538
0.751059 0.393148 0.893242
0.920194 0.432336 0.892275
0.976209 0.671481 0.844854
0.997047 0.811001 0.859544
1.000000 0.880005 0.901047
0.368559 0.429850 0.893513
0.375132 0.429168 0.893501
0.391985 0.427539 0.893473
0.459292 0.422354 0.893382
0.745319 0.405342 0.893085
0.919682 0.438938 0.892115
0.976141 0.673226 0.844566
0.997041 0.811357 0.859432
1.000000 0.880079 0.901021
0.350280 0.483466 0.893005
0.356217 0.482553 0.892993
0.371434 0.480372 0.892964
0.431432 0.473430 0.892872
0.724963 0.451309 0.892573
0.917975 0.463890 0.891594
0.975919 0.679000 0.843617
0.997020 0.812519 0.859069
1.000000 0.880317 0.900934
0.298397 0.695191 0.891329
0.302631 0.694539 0.891317
0.313476 0.692957 0.891288
0.356178 0.687685 0.891193
0.631856 0.667931 0.890884
0.911880 0.592177 0.889876
0.975178 0.699112 0.840320
0.996950 0.816373 0.857873
1.000000 0.881096 0.900653
0.212394 0.880094 0.863891
0.214213 0.879981 0.863905
0.218752 0.879706 0.863936
0.235270 0.878805 0.864029
0.321460 0.875649 0.864169
0.854940 0.854940 0.854940
0.972532 0.787649 0.825473
0.996720 0.829917 0.853742
1.000000 0.883684 0.899723
0.395316 0.963435 0.774648
0.396248 0.963424 0.774629
0.398522 0.963397 0.774584
0.406202 0.963310 0.774437
0.434690 0.963027 0.773950
0.567506 0.962091 0.772165
0.957094 0.951825 0.757915
0.995900 0.887912 0.835861
1.000000 0.892848 0.896462
0.615078 0.992899 0.771372
0.615340 0.992898 0.771359
0.615972 0.992895 0.771327
0.618024 0.992885 0.771224
0.624748 0.992855 0.770888
0.647357 0.992755 0.769786
0.738372 0.992419 0.765959
0.992049 0.991193 0.753139
1.000000 0.932435 0.881611
0.749132 1.000000 0.829452
0.749182 1.000000 0.829450
0.749301 1.000000 0.829443
0.749687 1.000000 0.829423
0.750940 1.000000 0.829356
0.755062 1.000000 0.829138
0.769136 1.000000 0.828419
0.825226 1.000000 0.825852
1.000000 1.000000 0.816158
0.628431 0.665224 0.963037
0.630776 0.664999 0.963036
0.636479 0.664456 0.963032
0.655575 0.662680 0.963019
0.723479 0.656602 0.962977
0.912848 0.632096 0.962843
0.975290 0.658884 0.962403
0.996961 0.808440 0.929577
1.000000 0.879564 0.913597
0.627462 0.666885 0.963028
0.629801 0.666660 0.963027
0.635491 0.666116 0.963023
0.654545 0.664337 0.963010
0.722352 0.658250 0.962968
0.912591 0.633691 0.962834
0.975260 0.659622 0.962394
0.996958 0.808588 0.929551
1.000000 0.879595 0.913587
0.625137 0.670906 0.963006
0.627463 0.670680 0.963005
0.633121 0.670134 0.963001
0.652074 0.668346 0.962988
0.719640 0.662239 0.962946
0.911969 0.637556 0.962811
0.975188 0.661412 0.962371
0.996951 0.808947 0.929489
1.000000 0.879669 0.913563
0.617651 0.684167 0.962935
0.619933 0.683937 0.962933
0.625487 0.683384 0.962929
0.644108 0.681573 0.962917
0.710840 0.675409 0.962875
0.909890 0.650358 0.962740
0.974952 0.667346 0.962298
0.996930 0.810115 0.929286
1.000000 0.879908 0.913483
0.593684 0.729141 0.962704
0.595824 0.728907 0.962702
0.601036 0.728344 0.962698
0.618550 0.726507 0.962685
0.682142 0.720319 0.962643
0.902172 0.694675 0.962507
0.974165 0.688125 0.962061
0.996859 0.813994 0.928609
1.000000 0.880688 0.913225
0.516602 0.867050 0.961941
0.518477 0.866920 0.961939
0.523020 0.866608 0.961935
0.538049 0.865583 0.961922
0.590082 0.862074 0.961879
0.820484 0.845828 0.961739
0.971355 0.779802 0.961280
0.996625 0.827643 0.926157
1.000000 0.883280 0.912367
0.381270 0.963238 0.959011
0.382132 0.963226 0.959022
0.384223 0.963199 0.959048
0.391180 0.963112 0.959133
0.416863 0.962827 0.959251
0.541168 0.961884 0.959095
0.948231 0.948231 0.948231
0.995790 0.886298 0.913226
1.000000 0.892466 0.909331
0.611074 0.992878 0.866355
0.611335 0.992876 0.866353
0.611962 0.992874 0.866347
0.613998 0.992864 0.866328
0.620675 0.992833 0.866266
0.643162 0.992733 0.866054
0.732884 0.992396 0.865141
0.991831 0.991166 0.852532
1.000000 0.932202 0.894971
0.748399 1.000000 0.844334
0.748449 1.000000 0.844332
0.748567 1.000000 0.844326
0.748952 1.000000 0.844310
0.750202 1.000000 0.844255
0.754311 1.000000 0.844077
0.768345 1.000000 0.843489
0.824189 1.000000 0.841356
1.000000 1.000000 0.831124
0.803314 0.828798 0.992737
0.803808 0.828744 0.992737
0.804997 0.828612 0.992736
0.808886 0.828183 0.992735
0.821913 0.826753 0.992730
0.869109 0.821528 0.992716
0.971807 0.797075 0.992668
0.996661 0.798953 0.992509
1.000000 0.877690 0.965715
0.803084 0.829131 0.992736
0.803577 0.829077 0.992736
0.804766 0.828945 0.992735
0.808651 0.828515 0.992734
0.821669 0.827085 0.992729
0.868833 0.821863 0.992715
0.971771 0.797403 0.992667
0.996658 0.799103 0.992508
1.000000 0.877721 0.965709
0.802531 0.829932 0.992734
0.803023 0.829878 0.992733
0.804209 0.829746 0.992733
0.808088 0.829317 0.992732
0.821083 0.827887 0.992727
0.868169 0.822669 0.992712
0.971683 0.798194 0.992664
0.996651 0.799466 0.992506
1.000000 0.877795 0.965694
0.800741 0.832539 0.992726
0.801230 0.832484 0.992726
0.802410 0.832353 0.992725
0.806266 0.831923 0.992724
0.819186 0.830494 0.992719
0.866021 0.825291 0.992704
0.971396 0.800771 0.992656
0.996628 0.800648 0.992498
1.000000 0.878034 0.965646
0.794920 0.841131 0.992700
0.795404 0.841076 0.992700
0.796569 0.840944 0.992700
0.800363 0.840515 0.992698
0.813044 0.839088 0.992694
0.859059 0.833931 0.992679
0.970439 0.809295 0.992631
0.996553 0.804578 0.992471
1.000000 0.878816 0.965488
0.775652 0.870474 0.992618
0.776116 0.870420 0.992617
0.777235 0.870289 0.992617
0.780879 0.869864 0.992615
0.792949 0.868457 0.992611
0.836274 0.863472 0.992596
0.967013 0.838889 0.992547
0.996304 0.818479 0.992385
1.000000 0.881415 0.964955
0.711044 0.954809 0.992342
0.711443 0.954783 0.992341
0.712402 0.954721 0.992341
0.715523 0.954519 0.992339
0.725844 0.953850 0.992334
0.761813 0.951471 0.992319
0.918956 0.937601 0.992267
0.995422 0.879054 0.992098
1.000000 0.890638 0.962949
0.597761 0.992808 0.991357
0.598014 0.992807 0.991357
0.598623 0.992804 0.991356
0.600602 0.992794 0.991354
0.607099 0.992763 0.991349
0.629115 0.992662 0.991330
0.714860 0.992321 0.991271
0.988843 0.988843 0.988843
1.000000 0.930776 0.951090
0.745875 1.000000 0.907117
0.745924 1.000000 0.907117
0.746041 1.000000 0.907116
0.746422 1.000000 0.907115
0.747658 1.000000 0.907112
0.751725 1.000000 0.907101
0.765618 1.000000 0.907054
0.820628 1.000000 0.906667
1.000000 1.000000 0.895147
0.895170 0.913249 1.000000
0.895277 0.913235 1.000000
0.895534 0.913203 1.000000
0.896367 0.913096 1.000000
0.899087 0.912747 1.000000
0.908162 0.911567 1.000000
0.941363 0.907000 1.000000
0.995564 0.883101 1.000000
1.000000 0.869893 1.000000
0.895113 0.913315 1.000000
0.895220 0.913302 1.000000
0.895477 0.913269 1.000000
0.896310 0.913162 1.000000
0.899030 0.912813 1.000000
0.908102 0.911634 1.000000
0.941295 0.907069 1.000000
0.995560 0.883170 1.000000
1.000000 0.869923 1.000000
0.894977 0.913474 1.000000
0.895084 0.913461 1.000000
0.895340 0.913428 1.000000
0.896173 0.913321 1.000000
0.898891 0.912973 1.000000
0.907959 0.911794 1.000000
0.941129 0.907233 1.000000
0.995552 0.883335 1.000000
1.000000 0.869997 1.000000
0.894535 0.913989 1.000000
0.894641 0.913976 1.000000
0.894898 0.913943 1.000000
0.895729 0.913837 1.000000
0.898443 0.913489 1.000000
0.907496 0.912312 1.000000
0.940594 0.907764 1.000000
0.995524 0.883871 1.000000
1.000000 0.870235 1.000000
0.893101 0.915659 1.000000
0.893207 0.915646 1.000000
0.893462 0.915613 1.000000
0.894289 0.915508 1.000000
0.896989 0.915162 1.000000
0.905994 0.913993 1.000000
0.938862 0.909486 1.000000
0.995435 0.885612 1.000000
1.000000 0.871012 1.000000
0.888425 0.921156 1.000000
0.888529 0.921143 1.000000
0.888780 0.921111 1.000000
0.889593 0.921006 1.000000
0.892247 0.920664 1.000000
0.901098 0.919512 1.000000
0.933238 0.915115 1.000000
0.995136 0.891339 1.000000
1.000000 0.873601 1.000000
0.872734 0.940037 1.000000
0.872832 0.940024 1.000000
0.873069 0.939993 1.000000
0.873838 0.939892 1.000000
0.876346 0.939564 1.000000
0.884704 0.938464 1.000000
0.914693 0.934374 1.000000
0.994077 0.911097 1.000000
1.000000 0.882842 1.000000
0.819583 0.992520 1.000000
0.819662 0.992515 1.000000
0.819852 0.992501 1.000000
0.820468 0.992458 1.000000
0.822474 0.992316 1.000000
0.829137 0.991839 1.000000
0.852751 0.990067 1.000000
0.962766 0.977510 1.000000
1.000000 0.923993 1.000000
0.737316 1.000000 1.000000
0.737363 1.000000 1.000000
0.737476 1.000000 1.000000
0.737843 1.000000 1.000000
0.739034 1.000000 1.000000
0.742954 1.000000 1.000000
0.756355 1.000000 1.000000
0.808757 1.000000 1.000000
1.000000 1.000000 1.000000
