color-grading/luts/01_technical/BNC_Base_SLog3-SGamut3Cine_to_Rec709-G24.cube
TITLE "BNC Base SLog3-SGamut3Cine to Rec709-G24"
# BNC Grade v1.0 — Sony S-Log3/S-Gamut3.Cine (FX30) to Rec.709 Gamma 2.4, filmic highlight roll-off
# Input: S-Log3 / S-Gamut3.Cine | Output: Rec.709 Gamma 2.4
LUT_3D_SIZE 5
DOMAIN_MIN 0.0 0.0 0.0
DOMAIN_MAX 1.0 1.0 1.0
0.000000 0.000000 0.000000
0.228971 0.020707 0.024246
0.730986 0.194839 0.221709
0.965098 0.597414 0.645099
1.000000 0.852701 0.874663
0.013378 0.218256 0.018508
0.178128 0.197873 0.013975
0.723080 0.222576 0.211083
0.964947 0.602030 0.643283
1.000000 0.852923 0.874574
0.126645 0.705314 0.171625
0.145127 0.702282 0.168592
0.644206 0.674312 0.144016
0.963735 0.643153 0.628475
1.000000 0.854670 0.873878
0.426229 0.959749 0.531618
0.430638 0.959688 0.531030
0.469903 0.959206 0.526365
0.932603 0.949275 0.472274
1.000000 0.873198 0.866697
0.755604 1.000000 0.802158
0.755835 1.000000 0.802135
0.757649 1.000000 0.801951
0.776048 1.000000 0.800173
0.996852 1.000000 0.775795
0.011087 0.008717 0.174727
0.221548 0.014919 0.183440
0.729646 0.189146 0.258752
0.965074 0.596308 0.650710
1.000000 0.852650 0.874936
0.008379 0.188332 0.170395
0.164227 0.164227 0.164227
0.721618 0.215110 0.246938
0.964923 0.600906 0.648908
1.000000 0.852871 0.874848
0.123008 0.701254 0.197947
0.141027 0.698138 0.194702
0.642317 0.669504 0.167847
0.963710 0.641884 0.634200
1.000000 0.854619 0.874152
0.425298 0.959667 0.536420
0.429698 0.959606 0.535841
0.468916 0.959122 0.531244
0.932608 0.949113 0.477481
1.000000 0.873141 0.866976
0.755558 1.000000 0.802376
0.755789 1.000000 0.802353
0.757604 1.000000 0.802169
0.776006 1.000000 0.800392
0.996860 1.000000 0.776034
0.167269 0.138407 0.653931
0.221461 0.135064 0.654140
0.720496 0.151273 0.664675
0.964884 0.587702 0.697309
1.000000 0.852250 0.877087
0.152280 0.167197 0.651357
0.198281 0.162202 0.651022
0.711603 0.167021 0.660210
0.964732 0.592158 0.695682
1.000000 0.852471 0.876999
0.094558 0.664788 0.636847
0.109184 0.660916 0.635831
0.626121 0.626121 0.626121
0.963510 0.631977 0.682249
1.000000 0.854215 0.876307
0.418032 0.959017 0.577545
0.422350 0.958954 0.576995
0.461140 0.958454 0.572654
0.932630 0.947815 0.522754
1.000000 0.872698 0.869171
0.755199 1.000000 0.804090
0.755430 1.000000 0.804067
0.757247 1.000000 0.803885
0.775675 1.000000 0.802122
0.996920 1.000000 0.777913
0.585140 0.514597 0.954042
0.594740 0.513486 0.954023
0.682165 0.504587 0.953870
0.963005 0.505430 0.952373
1.000000 0.848402 0.899343
0.581318 0.521161 0.953956
0.590872 0.520031 0.953937
0.677526 0.510987 0.953784
0.962841 0.508942 0.952281
1.000000 0.848619 0.899258
0.551045 0.578262 0.953275
0.560416 0.577023 0.953255
0.641609 0.567109 0.953098
0.961526 0.539780 0.951554
1.000000 0.850326 0.898596
0.347982 0.951689 0.940120
0.351638 0.951603 0.940155
0.384201 0.950924 0.940415
0.929383 0.929383 0.929383
1.000000 0.868438 0.891782
0.751719 1.000000 0.821920
0.751952 1.000000 0.821899
0.753789 1.000000 0.821735
0.772460 1.000000 0.820135
0.997482 1.000000 0.797135
0.884574 0.847711 1.000000
0.885099 0.847634 1.000000
0.889250 0.847025 1.000000
0.933874 0.840397 1.000000
1.000000 0.808321 0.999990
0.884332 0.848049 1.000000
0.884857 0.847972 1.000000
0.889004 0.847363 1.000000
0.933595 0.840740 1.000000
1.000000 0.808493 0.999989
0.882440 0.850704 1.000000
0.882961 0.850627 1.000000
0.887084 0.850020 1.000000
0.931410 0.843431 1.000000
1.000000 0.809850 0.999984
0.863934 0.877654 1.000000
0.864427 0.877577 1.000000
0.868319 0.876974 1.000000
0.910112 0.870600 1.000000
1.000000 0.824066 0.999926
0.711335 0.999937 0.999357
0.711589 0.999936 0.999356
0.713591 0.999930 0.999354
0.734040 0.999874 0.999331
0.998864 0.998864 0.998864
