color-grading/luts/01_technical/BNC_Base_FLog2-FGamut_to_Rec709-G24.cube
TITLE "BNC Base FLog2-FGamut to Rec709-G24"
# BNC Grade v1.0 - Fujifilm F-Log2/F-Gamut (X-T5) to Rec.709 Gamma 2.4, filmic highlight roll-off
# Input: F-Log2 / F-Gamut | Output: Rec.709 Gamma 2.4
LUT_3D_SIZE 5
DOMAIN_MIN 0.0 0.0 0.0
DOMAIN_MAX 1.0 1.0 1.0
0.000000 0.000000 0.000000
0.244376 0.027792 0.031926
0.782960 0.240534 0.266316
0.976644 0.675186 0.708931
1.000000 0.880143 0.895840
0.009879 0.194584 0.017519
0.188159 0.179474 0.015865
0.776291 0.260980 0.258465
0.976550 0.677617 0.708058
1.000000 0.880248 0.895801
0.110689 0.704500 0.186354
0.125898 0.702329 0.184420
0.690660 0.676859 0.173163
0.975612 0.703116 0.699215
1.000000 0.881264 0.895423
0.401694 0.963522 0.574677
0.405058 0.963485 0.574375
0.442836 0.963116 0.571422
0.960032 0.952479 0.548756
1.000000 0.893004 0.891125
0.749457 1.000000 0.823195
0.749626 1.000000 0.823185
0.751268 1.000000 0.823091
0.769486 1.000000 0.822086
1.000000 1.000000 0.809930
0.012702 0.014549 0.173035
0.238749 0.026111 0.185239
0.782154 0.239673 0.297545
0.976632 0.675074 0.712189
1.000000 0.880139 0.895988
0.009270 0.194261 0.180309
0.178702 0.178702 0.178702
0.775448 0.260102 0.289672
0.976538 0.677506 0.711325
1.000000 0.880243 0.895949
0.109953 0.704337 0.217642
0.124975 0.702164 0.215709
0.689257 0.676695 0.202802
0.975599 0.703016 0.702572
1.000000 0.881259 0.895571
0.401510 0.963520 0.579401
0.404869 0.963482 0.579102
0.442602 0.963113 0.576181
0.959964 0.952476 0.553388
1.000000 0.893000 0.891276
0.749448 1.000000 0.823373
0.749617 1.000000 0.823363
0.751258 1.000000 0.823269
0.769476 1.000000 0.822266
1.000000 1.000000 0.810107
0.186572 0.205917 0.685204
0.241269 0.202211 0.685665
0.775387 0.231639 0.699088
0.976519 0.673954 0.745629
1.000000 0.880092 0.897427
0.172000 0.248199 0.685785
0.218293 0.242650 0.685788
0.768319 0.251925 0.697180
0.976425 0.676396 0.744866
1.000000 0.880196 0.897388
0.103048 0.702023 0.680012
0.116361 0.699845 0.679740
0.674308 0.674308 0.674308
0.975479 0.702021 0.737104
1.000000 0.881213 0.897013
0.399738 0.963495 0.628840
0.403053 0.963457 0.628588
0.440338 0.963088 0.626117
0.959275 0.952420 0.602990
1.000000 0.892957 0.892746
0.749357 1.000000 0.825102
0.749526 1.000000 0.825093
0.751167 1.000000 0.825001
0.769378 1.000000 0.824016
1.000000 1.000000 0.811824
0.628431 0.665224 0.963037
0.636479 0.664456 0.963032
0.723479 0.656602 0.962977
0.975290 0.658884 0.962403
1.000000 0.879564 0.913597
0.625137 0.670906 0.963006
0.633121 0.670134 0.963001
0.719640 0.662239 0.962946
0.975188 0.661412 0.962371
1.000000 0.879669 0.913563
0.593684 0.729141 0.962704
0.601036 0.728344 0.962698
0.682142 0.720319 0.962643
0.974165 0.688125 0.962061
1.000000 0.880688 0.913225
0.381270 0.963238 0.959011
0.384223 0.963199 0.959048
0.416863 0.962827 0.959251
0.948231 0.948231 0.948231
1.000000 0.892466 0.909331
0.748399 1.000000 0.844334
0.748567 1.000000 0.844326
0.750202 1.000000 0.844255
0.768345 1.000000 0.843489
1.000000 1.000000 0.831124
0.895170 0.913249 1.000000
0.895534 0.913203 1.000000
0.899087 0.912747 1.000000
0.941363 0.907000 1.000000
1.000000 0.869893 1.000000
0.894977 0.913474 1.000000
0.895340 0.913428 1.000000
0.898891 0.912973 1.000000
0.941129 0.907233 1.000000
1.000000 0.869997 1.000000
0.893101 0.915659 1.000000
0.893462 0.915613 1.000000
0.896989 0.915162 1.000000
0.938862 0.909486 1.000000
1.000000 0.871012 1.000000
0.872734 0.940037 1.000000
0.873069 0.939993 1.000000
0.876346 0.939564 1.000000
0.914693 0.934374 1.000000
1.000000 0.882842 1.000000
0.737316 1.000000 1.000000
0.737476 1.000000 1.000000
0.739034 1.000000 1.000000
0.756355 1.000000 1.000000
1.000000 1.000000 1.000000
