color-grading/luts/01_technical/BNC_Base_FLog-FGamut_to_Rec709-G24.cube
TITLE "BNC Base FLog-FGamut to Rec709-G24"
# BNC Grade v1.0 - Fujifilm F-Log/F-Gamut (X-T5) to Rec.709 Gamma 2.4, filmic highlight roll-off
# Input: F-Log / F-Gamut | Output: Rec.709 Gamma 2.4
LUT_3D_SIZE 9
DOMAIN_MIN 0.0 0.0 0.0
DOMAIN_MAX 1.0 1.0 1.0
0.000000 0.000000 0.000000
0.071824 0.001374 0.001442
0.216214 0.021452 0.024510
0.395484 0.068424 0.077636
0.611672 0.145300 0.163278
0.804475 0.255747 0.282770
0.906994 0.400801 0.438924
0.956036 0.573997 0.613961
0.983488 0.713945 0.744860
0.000719 0.037098 0.000884
0.032112 0.026593 0.000738
0.196895 0.034524 0.019073
0.384855 0.079378 0.072683
0.606905 0.153453 0.159697
0.802734 0.260838 0.280601
0.906701 0.403899 0.437636
0.955965 0.575426 0.613408
0.983473 0.714435 0.744680
0.007426 0.169142 0.013048
0.014039 0.163412 0.011950
0.162892 0.154538 0.011775
0.365543 0.132404 0.063788
0.597905 0.174059 0.152969
0.799447 0.271542 0.276516
0.906145 0.409961 0.435215
0.955830 0.578150 0.612366
0.983443 0.715358 0.744341
0.026469 0.325897 0.047762
0.032787 0.322820 0.046678
0.063698 0.317071 0.044662
0.316911 0.305477 0.043823
0.578021 0.275800 0.137904
0.791776 0.303918 0.267001
0.904838 0.425339 0.429610
0.955516 0.584657 0.609940
0.983375 0.717512 0.743555
0.061725 0.528660 0.108515
0.066954 0.526992 0.107648
0.079983 0.523845 0.106021
0.155032 0.516569 0.102292
0.516353 0.500774 0.100320
0.773286 0.458056 0.244450
0.901685 0.472195 0.416308
0.954777 0.600961 0.604206
0.983217 0.722624 0.741716
0.118904 0.725164 0.198483
0.122738 0.724619 0.197956
0.130665 0.723592 0.196964
0.154437 0.721179 0.194660
0.280053 0.715232 0.189206
0.711236 0.697857 0.184675
0.893580 0.651543 0.381521
0.952985 0.646559 0.590112
0.982845 0.735238 0.737320
0.199400 0.857570 0.312902
0.201768 0.857414 0.312590
0.206403 0.857120 0.312006
0.218172 0.856432 0.310657
0.252961 0.854789 0.307522
0.435508 0.850138 0.300006
0.841712 0.831260 0.292574
0.948321 0.787441 0.550580
0.981947 0.769382 0.726190
0.306846 0.936855 0.464459
0.308293 0.936826 0.464280
0.311055 0.936771 0.463944
0.317687 0.936645 0.463169
0.334516 0.936354 0.461373
0.383493 0.935673 0.457182
0.607478 0.934054 0.446991
0.924491 0.915925 0.436654
0.979513 0.873755 0.692328
0.454085 0.973116 0.620923
0.454913 0.973109 0.620860
0.456473 0.973095 0.620741
0.460116 0.973064 0.620469
0.468767 0.972991 0.619837
0.490030 0.972824 0.618369
0.545269 0.972431 0.614906
0.732244 0.971495 0.606173
0.971303 0.965407 0.596032
0.000044 0.000045 0.030063
0.067458 0.001321 0.033467
0.213946 0.020877 0.047937
0.394200 0.067890 0.096442
0.611090 0.144911 0.176240
0.804261 0.255506 0.290711
0.906958 0.400656 0.443710
0.956027 0.573930 0.616013
0.983486 0.713922 0.745534
0.000711 0.036649 0.027833
0.025827 0.025827 0.025827
0.194356 0.033671 0.040041
0.383507 0.078793 0.090795
0.606308 0.153054 0.172623
0.802518 0.260597 0.288537
0.906664 0.403754 0.442413
0.955956 0.575360 0.615462
0.983471 0.714412 0.745354
0.007243 0.168822 0.030936
0.013379 0.163073 0.029004
0.159604 0.154102 0.027363
0.364071 0.131908 0.080759
0.597280 0.173653 0.165798
0.799226 0.271298 0.284441
0.906108 0.409817 0.439974
0.955821 0.578084 0.614425
0.983441 0.715335 0.745016
0.026194 0.325713 0.063437
0.032346 0.322633 0.062152
0.062189 0.316875 0.059761
0.315125 0.305253 0.057883
0.577313 0.275560 0.150349
0.791544 0.303676 0.274896
0.904800 0.425196 0.434320
0.955507 0.584591 0.612009
0.983373 0.717489 0.744232
0.061458 0.528558 0.120688
0.066642 0.526889 0.119799
0.079549 0.523740 0.118129
0.153486 0.516456 0.114280
0.515349 0.500647 0.111601
0.773028 0.457919 0.252241
0.901644 0.472051 0.421019
0.954768 0.600898 0.606297
0.983215 0.722602 0.742397
0.118698 0.725122 0.206222
0.122520 0.724577 0.205695
0.130422 0.723549 0.204704
0.154094 0.721137 0.202403
0.278983 0.715191 0.196947
0.710878 0.697816 0.191979
0.893532 0.651490 0.386267
0.952975 0.646504 0.592250
0.982843 0.735217 0.738013
0.199270 0.857552 0.317643
0.201636 0.857396 0.317330
0.206264 0.857102 0.316743
0.218016 0.856414 0.315387
0.252748 0.854771 0.312235
0.434837 0.850125 0.304669
0.841594 0.831249 0.296927
0.948309 0.787425 0.552869
0.981945 0.769365 0.726906
0.306766 0.936853 0.467197
0.308212 0.936824 0.467018
0.310973 0.936769 0.466683
0.317601 0.936643 0.465910
0.334420 0.936352 0.464117
0.383366 0.935671 0.459932
0.607195 0.934052 0.449746
0.924450 0.915922 0.439245
0.979511 0.873750 0.693095
0.454039 0.973115 0.621911
0.454867 0.973108 0.621848
0.456427 0.973095 0.621730
0.460070 0.973063 0.621458
0.468718 0.972991 0.620829
0.489979 0.972823 0.619367
0.545211 0.972431 0.615916
0.732154 0.971494 0.607212
0.971299 0.965407 0.597026
0.008677 0.009927 0.149155
0.061838 0.009791 0.151719
0.210936 0.020151 0.160253
0.392067 0.066976 0.166137
0.610030 0.144193 0.206522
0.803863 0.255057 0.307036
0.906890 0.400383 0.453102
0.956011 0.573805 0.619896
0.983483 0.713880 0.746801
0.006447 0.037873 0.149748
0.025495 0.030674 0.148604
0.190843 0.032544 0.155560
0.381256 0.077798 0.161527
0.605221 0.152316 0.203005
0.802115 0.260145 0.304852
0.906595 0.403481 0.451792
0.955939 0.575235 0.619350
0.983467 0.714369 0.746622
0.007027 0.168827 0.155373
0.012422 0.163066 0.154151
0.153805 0.153805 0.153805
0.361533 0.131094 0.153524
0.596139 0.172903 0.196359
0.798815 0.270842 0.300749
0.906038 0.409545 0.449328
0.955804 0.577959 0.618321
0.983438 0.715292 0.746285
0.025712 0.325481 0.141395
0.031575 0.322399 0.140362
0.059557 0.316625 0.138455
0.311842 0.304921 0.135101
0.576002 0.275122 0.181138
0.791111 0.303225 0.291191
0.904729 0.424927 0.443602
0.955490 0.584468 0.615925
0.983370 0.717447 0.745505
0.060965 0.528375 0.151558
0.066066 0.526705 0.150642
0.078750 0.523552 0.148920
0.150663 0.516255 0.144964
0.513465 0.500418 0.140786
0.772542 0.457662 0.268444
0.901568 0.471780 0.430154
0.954750 0.600778 0.610257
0.983211 0.722561 0.743679
0.118312 0.725041 0.222493
0.122113 0.724496 0.221961
0.129969 0.723468 0.220961
0.153455 0.721055 0.218640
0.276997 0.715112 0.213155
0.710203 0.697737 0.207318
0.893444 0.651389 0.395511
0.952956 0.646400 0.596303
0.982840 0.735178 0.739314
0.199027 0.857518 0.326997
0.201387 0.857361 0.326682
0.206003 0.857067 0.326091
0.217723 0.856379 0.324725
0.252350 0.854737 0.321548
0.433586 0.850098 0.313908
0.841372 0.831228 0.305571
0.948287 0.787393 0.557179
0.981940 0.769332 0.728253
0.306617 0.936849 0.472411
0.308061 0.936820 0.472233
0.310819 0.936766 0.471900
0.317440 0.936640 0.471130
0.334239 0.936348 0.469346
0.383128 0.935667 0.465177
0.606666 0.934048 0.455011
0.924374 0.915917 0.444204
0.979505 0.873740 0.694538
0.453954 0.973114 0.623769
0.454781 0.973107 0.623706
0.456340 0.973094 0.623590
0.459982 0.973062 0.623320
0.468628 0.972990 0.622695
0.489882 0.972822 0.621243
0.545103 0.972430 0.617817
0.731985 0.971493 0.609166
0.971290 0.965406 0.598896
0.042056 0.047600 0.299529
0.070681 0.046190 0.300189
0.204727 0.045323 0.306452
0.387607 0.065019 0.314854
0.607900 0.142641 0.319238
0.802969 0.254029 0.354776
0.906732 0.399751 0.476881
0.955972 0.573515 0.629035
0.983474 0.713781 0.749741
0.036751 0.069219 0.300075
0.057589 0.066125 0.299950
0.183861 0.062539 0.304323
0.376527 0.075699 0.312365
0.603030 0.150722 0.316756
0.801211 0.259109 0.352605
0.906437 0.402849 0.475568
0.955901 0.574946 0.628500
0.983459 0.714271 0.749564
0.030785 0.168920 0.306839
0.043765 0.163236 0.306026
0.139523 0.153104 0.306078
0.356071 0.129455 0.309075
0.593821 0.171287 0.312174
0.797890 0.269799 0.348512
0.905878 0.408914 0.473093
0.955765 0.577671 0.627494
0.983429 0.715194 0.749232
0.024704 0.325185 0.306635
0.029984 0.322101 0.306056
0.054265 0.316305 0.305018
0.304376 0.304376 0.304376
0.573189 0.274247 0.302773
0.790134 0.302192 0.338966
0.904564 0.424302 0.467315
0.955451 0.584182 0.625147
0.983361 0.717350 0.748460
0.059883 0.528080 0.287176
0.064797 0.526406 0.286642
0.076987 0.523245 0.285643
0.144544 0.515918 0.283391
0.509169 0.499986 0.279219
0.771417 0.457068 0.316328
0.901392 0.471150 0.453585
0.954710 0.600499 0.619591
0.983203 0.722465 0.746654
0.117426 0.724837 0.272424
0.121176 0.724292 0.271910
0.128928 0.723263 0.270943
0.151995 0.720849 0.268696
0.272506 0.714912 0.263361
0.708619 0.697539 0.255148
0.893239 0.651151 0.418689
0.952913 0.646159 0.605877
0.982831 0.735087 0.742336
0.198467 0.857430 0.351104
0.200813 0.857274 0.350789
0.205402 0.856979 0.350198
0.217050 0.856292 0.348829
0.251435 0.854651 0.345641
0.430733 0.850030 0.337935
0.840853 0.831175 0.328182
0.948235 0.787319 0.567213
0.981931 0.769256 0.731383
0.306273 0.936841 0.484834
0.307713 0.936812 0.484660
0.310464 0.936757 0.484332
0.317067 0.936631 0.483575
0.333822 0.936340 0.481820
0.382579 0.935659 0.477712
0.605448 0.934039 0.467646
0.924195 0.915904 0.456154
0.979493 0.873716 0.697891
0.453756 0.973112 0.628080
0.454582 0.973105 0.628019
0.456141 0.973092 0.627904
0.459779 0.973060 0.627639
0.468419 0.972988 0.627026
0.489660 0.972820 0.625599
0.544854 0.972428 0.622231
0.731596 0.971491 0.613709
0.971270 0.965403 0.603250
0.104548 0.117149 0.501790
0.124487 0.115649 0.501952
0.188912 0.113267 0.503303
0.377791 0.108994 0.509131
0.603151 0.139128 0.515886
0.801099 0.251715 0.518270
0.906367 0.398261 0.542667
0.955884 0.572838 0.651097
0.983455 0.713551 0.756633
0.098647 0.133024 0.501817
0.116664 0.131067 0.501816
0.173023 0.127834 0.502604
0.366233 0.122195 0.507927
0.598138 0.147104 0.514517
0.799318 0.256783 0.516886
0.906070 0.401360 0.541513
0.955812 0.574269 0.650595
0.983439 0.714041 0.756461
0.089347 0.178271 0.503064
0.104216 0.174903 0.502778
0.148522 0.169014 0.502684
0.343657 0.158103 0.506322
0.588628 0.167606 0.512086
0.795949 0.267454 0.514284
0.905506 0.407426 0.539330
0.955676 0.576996 0.649650
0.983410 0.714965 0.756138
0.073997 0.324512 0.507571
0.083552 0.321444 0.507196
0.111306 0.315675 0.506564
0.286391 0.303067 0.506668
0.566668 0.272323 0.508313
0.788058 0.299873 0.508266
0.904182 0.422828 0.534184
0.955360 0.583512 0.647444
0.983342 0.717123 0.755387
0.057537 0.527510 0.502540
0.062052 0.525829 0.502228
0.073188 0.522654 0.501648
0.132131 0.515268 0.500383
0.499078 0.499078 0.499078
0.768767 0.455681 0.494146
0.900985 0.469662 0.521660
0.954616 0.599848 0.642207
0.983183 0.722242 0.753629
0.115376 0.724178 0.467334
0.119013 0.723633 0.467066
0.126527 0.722604 0.466564
0.148670 0.720189 0.465395
0.262557 0.714266 0.462567
0.704702 0.696879 0.454173
0.892763 0.650554 0.487585
0.952812 0.645593 0.629196
0.982811 0.734874 0.749422
0.197174 0.857170 0.423253
0.199489 0.857014 0.422969
0.204015 0.856720 0.422436
0.215497 0.856033 0.421206
0.249332 0.854394 0.418349
0.424306 0.849813 0.411356
0.839601 0.831005 0.398450
0.948116 0.787136 0.591792
0.981909 0.769078 0.738726
0.305480 0.936821 0.515468
0.306912 0.936792 0.515306
0.309646 0.936738 0.515002
0.316210 0.936612 0.514300
0.332863 0.936320 0.512668
0.381315 0.935639 0.508832
0.602646 0.934018 0.499317
0.923773 0.915866 0.486435
0.979466 0.873660 0.705773
0.453300 0.973108 0.638167
0.454125 0.973100 0.638109
0.455681 0.973087 0.637999
0.459313 0.973055 0.637746
0.467938 0.972983 0.637160
0.489146 0.972815 0.635796
0.544281 0.972423 0.632573
0.730699 0.971486 0.624377
0.971224 0.965394 0.613508
0.199801 0.220093 0.708688
0.212354 0.219014 0.708750
0.240900 0.217066 0.709001
0.349187 0.213150 0.710884
0.592466 0.205219 0.716807
0.796627 0.246306 0.722171
0.905515 0.394575 0.709521
0.955678 0.571207 0.706665
0.983410 0.713009 0.773147
0.195544 0.230273 0.708770
0.207580 0.229082 0.708805
0.234813 0.226925 0.708993
0.337205 0.222512 0.710595
0.587172 0.213716 0.716372
0.794793 0.251339 0.721676
0.905212 0.397672 0.709034
0.955605 0.572640 0.706275
0.983394 0.713500 0.772987
0.188004 0.252455 0.709170
0.199216 0.251008 0.709154
0.224205 0.248374 0.709223
0.316373 0.242847 0.710320
0.576797 0.232011 0.715642
0.791315 0.261964 0.720755
0.904638 0.403738 0.708110
0.955468 0.575372 0.705540
0.983365 0.714426 0.772686
0.172723 0.326278 0.711631
0.182328 0.323860 0.711489
0.203303 0.319434 0.711279
0.276811 0.309852 0.711301
0.550430 0.291142 0.714580
0.783098 0.294432 0.718679
0.903289 0.419159 0.705918
0.955150 0.581900 0.703819
0.983296 0.716586 0.771987
0.144265 0.526162 0.715815
0.151062 0.524483 0.715680
0.165791 0.521311 0.715433
0.213315 0.513894 0.714928
0.474231 0.496837 0.715002
0.762335 0.452372 0.713628
0.900032 0.465935 0.700439
0.954400 0.598275 0.699702
0.983137 0.721714 0.770350
0.110805 0.722504 0.701205
0.114192 0.721958 0.701143
0.121184 0.720928 0.701027
0.141433 0.718511 0.700747
0.241867 0.712616 0.699947
0.695192 0.695192 0.695192
0.891652 0.648764 0.682990
0.952579 0.644210 0.689258
0.982764 0.734370 0.766424
0.194110 0.856009 0.651467
0.196361 0.855853 0.651384
0.200747 0.855558 0.651229
0.211852 0.854871 0.650868
0.244448 0.853232 0.650009
0.410072 0.848732 0.647607
0.836172 0.830115 0.636959
0.947840 0.786636 0.657260
0.981858 0.768654 0.756376
0.303647 0.936777 0.594664
0.305059 0.936748 0.594547
0.307756 0.936693 0.594327
0.314229 0.936567 0.593818
0.330649 0.936275 0.592636
0.378404 0.935592 0.589855
0.596209 0.933969 0.582828
0.922727 0.915709 0.568255
0.979402 0.873515 0.724791
0.452250 0.973096 0.662076
0.453071 0.973089 0.662025
0.454620 0.973076 0.661929
0.458237 0.973044 0.661709
0.466827 0.972972 0.661198
0.487962 0.972804 0.660009
0.542960 0.972411 0.657186
0.728629 0.971474 0.649899
0.971116 0.965365 0.638271
0.331780 0.362679 0.873033
0.339722 0.361960 0.873017
0.355827 0.360626 0.872986
0.399931 0.357629 0.872915
0.558656 0.351253 0.872752
0.783841 0.336094 0.872373
0.903490 0.385816 0.871492
0.955197 0.566922 0.837078
0.983307 0.711667 0.814930
0.328931 0.369117 0.872942
0.336724 0.368369 0.872926
0.352528 0.366982 0.872895
0.395810 0.363863 0.872824
0.551890 0.357198 0.872660
0.781869 0.341475 0.872281
0.903174 0.388904 0.871399
0.955123 0.568366 0.836919
0.983291 0.712160 0.814801
0.323733 0.381897 0.872772
0.331254 0.381094 0.872755
0.346506 0.379602 0.872724
0.388285 0.376240 0.872653
0.539001 0.369002 0.872489
0.778104 0.352147 0.872109
0.902575 0.394961 0.871224
0.954983 0.571105 0.836618
0.983261 0.713089 0.814558
0.312422 0.415287 0.872377
0.319347 0.414339 0.872360
0.333392 0.412577 0.872329
0.371879 0.408588 0.872258
0.509654 0.399867 0.872092
0.769054 0.379981 0.871710
0.901168 0.410410 0.870820
0.954658 0.577650 0.835906
0.983192 0.715257 0.813995
0.289150 0.523408 0.871458
0.294964 0.521941 0.871441
0.306598 0.519201 0.871409
0.338365 0.512929 0.871337
0.449089 0.498763 0.871169
0.745776 0.467047 0.870782
0.897768 0.457073 0.869706
0.953893 0.594094 0.834166
0.983032 0.720404 0.812672
0.242091 0.718200 0.869292
0.246252 0.717644 0.869274
0.254488 0.716593 0.869242
0.276004 0.714126 0.869167
0.346309 0.708150 0.868994
0.671410 0.691248 0.868595
0.889006 0.644386 0.858203
0.952035 0.640414 0.829408
0.982655 0.733113 0.809486
0.187225 0.853065 0.836215
0.189339 0.852908 0.836225
0.193450 0.852612 0.836242
0.203758 0.851922 0.836279
0.233719 0.850283 0.836338
0.379890 0.845930 0.836013
0.827784 0.827784 0.827784
0.947193 0.784797 0.810569
0.981740 0.767576 0.801210
0.299318 0.936673 0.778899
0.300685 0.936644 0.778881
0.303294 0.936590 0.778848
0.309559 0.936463 0.778772
0.325446 0.936170 0.778590
0.371606 0.935486 0.778135
0.581367 0.933858 0.776469
0.919592 0.914662 0.765472
0.979253 0.873077 0.773578
0.449816 0.973071 0.722336
0.450630 0.973063 0.722302
0.452163 0.973050 0.722236
0.455745 0.973019 0.722085
0.464255 0.972946 0.721736
0.485214 0.972778 0.720923
0.539905 0.972385 0.718991
0.723839 0.971446 0.713837
0.970867 0.965219 0.700972
0.507791 0.548605 0.936139
0.512384 0.548184 0.936134
0.521189 0.547393 0.936126
0.542414 0.545560 0.936108
0.595221 0.541265 0.936065
0.744026 0.530442 0.935965
0.898482 0.503944 0.935736
0.954051 0.556561 0.935201
0.983064 0.707890 0.918056
0.505993 0.551979 0.936115
0.510562 0.551556 0.936110
0.519321 0.550760 0.936102
0.540451 0.548917 0.936084
0.593118 0.544597 0.936041
0.741675 0.533720 0.935941
0.898132 0.507009 0.935712
0.953973 0.558045 0.935176
0.983048 0.708385 0.918002
0.502643 0.558375 0.936070
0.507164 0.557948 0.936066
0.515836 0.557144 0.936058
0.536783 0.555282 0.936039
0.589199 0.550918 0.935996
0.737174 0.539948 0.935896
0.897471 0.512848 0.935666
0.953827 0.560859 0.935130
0.983018 0.709320 0.917899
0.495010 0.573437 0.935966
0.499418 0.573002 0.935962
0.507886 0.572184 0.935954
0.528393 0.570287 0.935935
0.580155 0.565841 0.935892
0.726311 0.554698 0.935792
0.895916 0.526760 0.935562
0.953487 0.567507 0.935024
0.982948 0.711501 0.917657
0.477883 0.609761 0.935727
0.482024 0.609298 0.935722
0.489994 0.608428 0.935714
0.509408 0.606418 0.935695
0.559267 0.601743 0.935652
0.700305 0.590300 0.935552
0.892154 0.560978 0.935319
0.952684 0.584089 0.934778
0.982785 0.716681 0.917080
0.440484 0.708404 0.935168
0.443975 0.707883 0.935164
0.450729 0.706903 0.935156
0.467369 0.704630 0.935137
0.511456 0.699305 0.935092
0.639425 0.686293 0.934990
0.879488 0.651799 0.934755
0.950735 0.631265 0.934205
0.982402 0.729484 0.915618
0.369005 0.845826 0.933848
0.371513 0.845657 0.933843
0.376312 0.845339 0.933835
0.387882 0.844597 0.933815
0.417553 0.842837 0.933769
0.513898 0.838393 0.933664
0.807422 0.822576 0.933419
0.945646 0.780242 0.932850
0.981461 0.764297 0.911287
0.289686 0.935913 0.921978
0.290953 0.935867 0.921992
0.293372 0.935783 0.922019
0.299178 0.935586 0.922081
0.313893 0.935124 0.922218
0.356566 0.934002 0.922495
0.549012 0.930631 0.922460
0.911914 0.911914 0.911914
0.978904 0.871188 0.891278
0.444059 0.973011 0.859295
0.444852 0.973004 0.859293
0.446349 0.972991 0.859289
0.449847 0.972959 0.859278
0.458164 0.972886 0.859254
0.478698 0.972718 0.859193
0.532696 0.972323 0.859010
0.712527 0.971381 0.857841
0.968258 0.964076 0.846691
0.678497 0.712343 0.972704
0.680177 0.712183 0.972702
0.683340 0.711883 0.972700
0.690706 0.711185 0.972696
0.708054 0.709544 0.972685
0.750385 0.705536 0.972660
0.865731 0.694042 0.972603
0.951195 0.666192 0.972471
0.982490 0.698805 0.972162
0.677786 0.713470 0.972698
0.679463 0.713311 0.972696
0.682623 0.713011 0.972694
0.689982 0.712313 0.972690
0.707317 0.710673 0.972679
0.749589 0.706667 0.972654
0.864880 0.695187 0.972597
0.951108 0.667290 0.972465
0.982474 0.699307 0.972156
0.676452 0.715587 0.972686
0.678126 0.715428 0.972685
0.681279 0.715128 0.972683
0.688625 0.714431 0.972679
0.705933 0.712792 0.972668
0.748098 0.708792 0.972643
0.863272 0.697339 0.972586
0.950944 0.669355 0.972453
0.982442 0.700253 0.972144
0.673375 0.720486 0.972661
0.675041 0.720327 0.972659
0.678180 0.720027 0.972657
0.685493 0.719330 0.972653
0.702737 0.717695 0.972642
0.744664 0.713710 0.972617
0.859493 0.702326 0.972560
0.950564 0.674150 0.972427
0.982369 0.702463 0.972118
0.666272 0.732027 0.972601
0.667918 0.731866 0.972600
0.671021 0.731561 0.972598
0.678255 0.730855 0.972593
0.695341 0.729201 0.972582
0.736766 0.725195 0.972557
0.850415 0.713945 0.972500
0.949667 0.685382 0.972367
0.982199 0.707716 0.972056
0.649811 0.760082 0.972463
0.651409 0.759915 0.972462
0.654422 0.759601 0.972460
0.661455 0.758873 0.972455
0.678121 0.757172 0.972444
0.718597 0.753086 0.972419
0.828849 0.741929 0.972361
0.947485 0.712132 0.972227
0.981793 0.720732 0.971914
0.611040 0.831173 0.972140
0.612513 0.831005 0.972139
0.615294 0.830689 0.972137
0.621796 0.829957 0.972132
0.637277 0.828251 0.972121
0.675508 0.824191 0.972096
0.777356 0.813570 0.972037
0.941757 0.781759 0.971900
0.980789 0.756347 0.971582
0.531342 0.926749 0.971376
0.532569 0.926697 0.971375
0.534874 0.926598 0.971373
0.540219 0.926369 0.971368
0.552678 0.925832 0.971356
0.583589 0.924535 0.971330
0.668876 0.921065 0.971268
0.893859 0.905901 0.971126
0.978061 0.866475 0.970795
0.431124 0.972874 0.969495
0.431871 0.972867 0.969494
0.433282 0.972853 0.969492
0.436581 0.972821 0.969486
0.444441 0.972748 0.969474
0.463942 0.972578 0.969445
0.516107 0.972180 0.969377
0.687205 0.971231 0.969222
0.961074 0.961074 0.961074
