color-grading/luts/01_technical/BNC_Base_FLog-FGamut_to_Rec709-G24.cube
TITLE "BNC Base FLog-FGamut to Rec709-G24"
# BNC Grade v1.0 - Fujifilm F-Log/F-Gamut (X-T5) to Rec.709 Gamma 2.4, filmic highlight roll-off
# Input: F-Log / F-Gamut | Output: Rec.709 Gamma 2.4
LUT_3D_SIZE 33
DOMAIN_MIN 0.0 0.0 0.0
DOMAIN_MAX 1.0 1.0 1.0
0.000000 0.000000 0.000000
0.000000 0.000000 0.000000
0.004721 0.000000 0.000000
0.039517 0.000471 0.000491
0.071824 0.001374 0.001442
0.106232 0.003737 0.004292
0.141460 0.008063 0.009272
0.178181 0.013938 0.015995
0.216214 0.021452 0.024510
0.256635 0.030720 0.035242
0.299469 0.041649 0.047443
0.346205 0.054116 0.061686
0.395484 0.068424 0.077636
0.447225 0.084353 0.095921
0.503261 0.102792 0.116461
0.559109 0.123152 0.138621
0.611672 0.145300 0.163278
0.663557 0.169997 0.190138
0.713299 0.196597 0.218646
0.759663 0.224927 0.249398
0.804475 0.255747 0.282770
0.846454 0.288604 0.318377
0.870670 0.323347 0.356607
0.889780 0.361046 0.397095
0.906994 0.400801 0.438924
0.921948 0.441814 0.484005
0.934779 0.486353 0.530322
0.946165 0.531769 0.573867
0.956036 0.573997 0.613961
0.964445 0.613318 0.652132
0.971938 0.650656 0.686889
0.978361 0.684392 0.717334
0.983488 0.713945 0.744860
0.000000 0.000000 0.000000
0.000000 0.000000 0.000000
0.000000 0.000000 0.000000
0.027979 0.000292 0.000252
0.062133 0.001246 0.001123
0.098202 0.004007 0.003326
0.134673 0.008859 0.008035
0.172641 0.015206 0.014634
0.211511 0.023038 0.023100
0.252630 0.032705 0.033798
0.295971 0.043709 0.046075
0.343153 0.056324 0.060369
0.392910 0.070619 0.076423
0.444947 0.086556 0.094743
0.501332 0.104935 0.115398
0.557616 0.125114 0.137665
0.610516 0.147139 0.162409
0.662639 0.171684 0.189373
0.712596 0.198097 0.217975
0.759126 0.226268 0.248802
0.804052 0.256949 0.282243
0.846123 0.289675 0.317906
0.870536 0.324316 0.356188
0.889680 0.361909 0.396733
0.906923 0.401546 0.438611
0.921899 0.442469 0.483727
0.934744 0.486928 0.530096
0.946140 0.532233 0.573699
0.956019 0.574343 0.613826
0.964433 0.613595 0.652028
0.971929 0.650869 0.686812
0.978355 0.684550 0.717277
0.983485 0.714064 0.744817
0.000000 0.000000 0.000000
0.000000 0.000000 0.000000
0.000000 0.000000 0.000000
0.015206 0.000111 0.000069
0.052193 0.001164 0.000831
0.089758 0.004725 0.002446
0.127748 0.010266 0.006854
0.166989 0.017158 0.013325
0.206779 0.025313 0.021756
0.248608 0.035235 0.032366
0.292474 0.046228 0.044726
0.340094 0.058890 0.059057
0.390327 0.073076 0.075219
0.442667 0.088986 0.093566
0.499395 0.107237 0.114332
0.556114 0.127183 0.136709
0.609357 0.149068 0.161538
0.661719 0.173433 0.188607
0.711890 0.199638 0.217303
0.758590 0.227641 0.248206
0.803629 0.258175 0.281716
0.845792 0.290762 0.317434
0.870402 0.325298 0.355768
0.889581 0.362780 0.396370
0.906852 0.402297 0.438297
0.921850 0.443129 0.483448
0.934708 0.487506 0.529870
0.946115 0.532697 0.573530
0.956001 0.574690 0.613692
0.964421 0.613873 0.651924
0.971920 0.651084 0.686734
0.978349 0.684708 0.717219
0.983481 0.714183 0.744773
0.000069 0.007372 0.000082
0.000037 0.004304 0.000036
0.000008 0.001381 0.000005
0.002565 0.000000 0.000000
0.041710 0.002341 0.000604
0.081086 0.007239 0.001871
0.120794 0.013213 0.005792
0.161278 0.020317 0.012098
0.202053 0.028678 0.020456
0.244589 0.038508 0.030958
0.288990 0.049359 0.043401
0.337034 0.061893 0.057753
0.387736 0.075840 0.074016
0.440388 0.091674 0.092393
0.497451 0.109712 0.113264
0.554604 0.129368 0.135753
0.608196 0.151090 0.160666
0.660797 0.175247 0.187839
0.711183 0.201222 0.216631
0.758052 0.229047 0.247609
0.803205 0.259423 0.281188
0.845460 0.291866 0.316962
0.870268 0.326292 0.355347
0.889481 0.363659 0.396007
0.906780 0.403053 0.437984
0.921800 0.443793 0.483170
0.934673 0.488086 0.529643
0.946090 0.533164 0.573361
0.955984 0.575039 0.613557
0.964408 0.614151 0.651820
0.971911 0.651298 0.686657
0.978343 0.684866 0.717161
0.983477 0.714302 0.744729
0.000719 0.037098 0.000884
0.000754 0.034411 0.000785
0.000854 0.031665 0.000688
0.001285 0.028848 0.000599
0.032112 0.026593 0.000738
0.072754 0.023760 0.001915
0.113540 0.022395 0.004927
0.155043 0.027192 0.010897
0.196895 0.034524 0.019073
0.240167 0.043399 0.029439
0.285158 0.053797 0.041962
0.333644 0.065863 0.056317
0.384855 0.079378 0.072683
0.437861 0.095001 0.091093
0.495285 0.112685 0.112077
0.552918 0.131958 0.134693
0.606905 0.153453 0.159697
0.659771 0.177339 0.186985
0.710395 0.203033 0.215883
0.757454 0.230648 0.246945
0.802734 0.260838 0.280601
0.845090 0.293111 0.316438
0.870118 0.327410 0.354880
0.889371 0.364645 0.395604
0.906701 0.403899 0.437636
0.921746 0.444536 0.482860
0.934634 0.488734 0.529392
0.946062 0.533683 0.573174
0.955965 0.575426 0.613408
0.964395 0.614461 0.651704
0.971901 0.651536 0.686571
0.978337 0.685042 0.717097
0.983473 0.714435 0.744680
0.001708 0.067717 0.002150
0.001848 0.065483 0.002039
0.002096 0.063225 0.001930
0.002643 0.060943 0.001825
0.016285 0.058640 0.001755
0.062639 0.056544 0.002001
0.106118 0.053641 0.004356
0.148362 0.049644 0.009788
0.190984 0.047822 0.017551
0.234884 0.052870 0.027671
0.280532 0.061265 0.040218
0.329494 0.071959 0.054573
0.381303 0.084662 0.071045
0.434752 0.099682 0.089498
0.492605 0.116716 0.110611
0.550825 0.135431 0.133387
0.605307 0.156553 0.158501
0.658501 0.180041 0.185929
0.709420 0.205349 0.214959
0.756715 0.232684 0.246125
0.802152 0.262626 0.279877
0.844633 0.294677 0.315791
0.869934 0.328813 0.354303
0.889234 0.365877 0.395105
0.906602 0.404952 0.437205
0.921678 0.445461 0.482478
0.934585 0.489538 0.529081
0.946027 0.534326 0.572942
0.955941 0.575907 0.613223
0.964378 0.614844 0.651561
0.971889 0.651831 0.686465
0.978328 0.685259 0.717018
0.983467 0.714598 0.744620
0.002921 0.100260 0.004002
0.003145 0.098295 0.003806
0.003545 0.096313 0.003624
0.004923 0.094320 0.003458
0.009650 0.092133 0.003308
0.046541 0.090010 0.003294
0.094694 0.087633 0.003614
0.140227 0.084487 0.008585
0.184885 0.080272 0.016102
0.229039 0.074795 0.025791
0.275121 0.075296 0.038165
0.324493 0.082224 0.052486
0.376953 0.092961 0.069046
0.430950 0.106497 0.087549
0.489294 0.122312 0.108804
0.548229 0.140179 0.131782
0.603335 0.160675 0.157026
0.656932 0.183568 0.184624
0.708214 0.208340 0.213820
0.755803 0.235288 0.245114
0.801432 0.264895 0.278982
0.844068 0.296653 0.314992
0.869705 0.330575 0.353590
0.889065 0.367418 0.394489
0.906481 0.406265 0.436675
0.921594 0.446612 0.482006
0.934526 0.490535 0.528697
0.945984 0.535122 0.572655
0.955911 0.576501 0.612995
0.964357 0.615318 0.651385
0.971874 0.652195 0.686335
0.978318 0.685527 0.716920
0.983461 0.714800 0.744546
0.004584 0.133892 0.007810
0.005235 0.132249 0.007563
0.006222 0.130597 0.007323
0.007749 0.128943 0.007090
0.011253 0.127115 0.006845
0.024897 0.124982 0.006579
0.077470 0.123023 0.006401
0.128051 0.120520 0.007019
0.175975 0.117212 0.014194
0.222271 0.112796 0.023804
0.269291 0.106832 0.035915
0.318684 0.102351 0.050071
0.371694 0.106916 0.066631
0.426338 0.116897 0.085186
0.485216 0.130353 0.106582
0.545010 0.146855 0.129812
0.600902 0.166269 0.155207
0.654993 0.188238 0.183013
0.706722 0.212251 0.212413
0.754677 0.238650 0.243865
0.800544 0.267797 0.277879
0.843370 0.299159 0.314008
0.869423 0.332800 0.352711
0.888855 0.369351 0.393729
0.906330 0.407905 0.436021
0.921491 0.448050 0.481423
0.934452 0.491775 0.528222
0.945932 0.536108 0.572301
0.955875 0.577237 0.612714
0.964331 0.615904 0.651167
0.971856 0.652645 0.686173
0.978306 0.685857 0.716799
0.983453 0.715050 0.744454
0.007426 0.169142 0.013048
0.008253 0.167756 0.012779
0.009447 0.166363 0.012511
0.011171 0.164965 0.012244
0.014039 0.163412 0.011950
0.021102 0.161517 0.011597
0.051639 0.159439 0.011232
0.110234 0.157310 0.010897
0.162892 0.154538 0.011775
0.212630 0.150920 0.021183
0.261769 0.146136 0.033114
0.312170 0.139782 0.047371
0.365543 0.132404 0.063788
0.420845 0.133869 0.082360
0.480220 0.142817 0.103861
0.541023 0.156589 0.127399
0.597905 0.174059 0.152969
0.652598 0.194538 0.181023
0.704874 0.217445 0.210676
0.753286 0.243044 0.242325
0.799447 0.271542 0.276516
0.842505 0.302362 0.312793
0.869073 0.335626 0.351624
0.888597 0.371788 0.392790
0.906145 0.409961 0.435215
0.921363 0.449851 0.480704
0.934361 0.493319 0.527636
0.945867 0.537331 0.571864
0.955830 0.578150 0.612366
0.964299 0.616629 0.650898
0.971833 0.653201 0.685974
0.978291 0.686266 0.716650
0.983443 0.715358 0.744341
0.011031 0.205433 0.019570
0.012093 0.204278 0.019283
0.013407 0.203120 0.018997
0.015063 0.201959 0.018713
0.017650 0.200669 0.018400
0.022652 0.199083 0.018019
0.035308 0.197175 0.017569
0.082735 0.195195 0.017120
0.143739 0.192942 0.016629
0.198821 0.190002 0.017726
0.251034 0.186146 0.029445
0.303378 0.181056 0.043944
0.358296 0.174322 0.060437
0.414546 0.165460 0.079082
0.474187 0.163654 0.100562
0.536106 0.171479 0.124427
0.594225 0.185284 0.150218
0.649642 0.203250 0.178566
0.702586 0.224488 0.208533
0.751570 0.248877 0.240422
0.798091 0.276433 0.274833
0.841433 0.306502 0.311293
0.868640 0.339241 0.350282
0.888276 0.374876 0.391628
0.905915 0.412549 0.434221
0.921205 0.452115 0.479815
0.934248 0.495246 0.526912
0.945787 0.538851 0.571323
0.955774 0.579284 0.611937
0.964260 0.617528 0.650567
0.971805 0.653889 0.685728
0.978272 0.686770 0.716467
0.983431 0.715738 0.744202
0.015356 0.243237 0.027384
0.016493 0.242254 0.027101
0.017880 0.241268 0.026821
0.019584 0.240280 0.026543
0.021965 0.239181 0.026237
0.025892 0.237826 0.025865
0.033759 0.236166 0.025412
0.053849 0.234187 0.024876
0.115526 0.232110 0.024319
0.178809 0.229594 0.023651
0.235941 0.226366 0.024975
0.291439 0.222221 0.039431
0.348470 0.216837 0.056127
0.406834 0.209800 0.075177
0.467111 0.200529 0.096639
0.530123 0.195674 0.120795
0.589745 0.202193 0.146855
0.646006 0.215805 0.175533
0.699752 0.234303 0.205886
0.749451 0.256781 0.238073
0.796414 0.282922 0.272753
0.840102 0.311939 0.309442
0.868103 0.343909 0.348621
0.887879 0.378816 0.390191
0.905630 0.415822 0.432994
0.921009 0.454973 0.478717
0.934109 0.497659 0.526016
0.945688 0.540742 0.570653
0.955706 0.580695 0.611407
0.964211 0.618644 0.650157
0.971770 0.654741 0.685424
0.978249 0.687394 0.716240
0.983416 0.716209 0.744030
0.020484 0.283108 0.036893
0.021720 0.282263 0.036606
0.023139 0.281417 0.036319
0.024775 0.280570 0.036032
0.026906 0.279627 0.035715
0.030284 0.278463 0.035324
0.036166 0.277031 0.034845
0.047462 0.275281 0.034263
0.076768 0.273218 0.033579
0.148856 0.271018 0.032841
0.214718 0.268274 0.031937
0.275143 0.264766 0.033596
0.335095 0.260275 0.050647
0.396310 0.254465 0.070108
0.458223 0.246903 0.091801
0.523061 0.237031 0.116430
0.584393 0.229665 0.142782
0.641562 0.234950 0.171802
0.696247 0.248492 0.202619
0.746842 0.267784 0.235173
0.794340 0.291705 0.270181
0.838446 0.319195 0.307156
0.867435 0.350006 0.346566
0.887386 0.383887 0.388412
0.905277 0.419990 0.431480
0.920767 0.458603 0.477358
0.933936 0.500692 0.524906
0.945565 0.543102 0.569823
0.955621 0.582455 0.610752
0.964152 0.620031 0.649650
0.971728 0.655797 0.685049
0.978220 0.688166 0.715960
0.983398 0.716791 0.743817
0.026469 0.325897 0.047762
0.027700 0.325150 0.047497
0.029103 0.324402 0.047233
0.030714 0.323653 0.046970
0.032787 0.322820 0.046678
0.035840 0.321792 0.046317
0.040543 0.320525 0.045873
0.048289 0.318968 0.045328
0.063698 0.317071 0.044662
0.104325 0.314856 0.043878
0.183858 0.312422 0.042998
0.252391 0.309359 0.041897
0.316911 0.305477 0.043823
0.381978 0.300582 0.063577
0.446536 0.294364 0.085722
0.513953 0.286330 0.110938
0.578021 0.275800 0.137904
0.636209 0.266188 0.167236
0.691927 0.270064 0.198576
0.743639 0.283674 0.231595
0.791776 0.303918 0.267001
0.836382 0.329077 0.304332
0.866601 0.358089 0.344018
0.886773 0.390485 0.386204
0.904838 0.425339 0.429610
0.920465 0.463246 0.475675
0.933723 0.504520 0.523530
0.945413 0.546054 0.568793
0.955516 0.584657 0.609940
0.964078 0.621759 0.649023
0.971675 0.657109 0.684584
0.978184 0.689122 0.715614
0.983375 0.717512 0.743555
0.033484 0.372202 0.060178
0.034797 0.371555 0.059920
0.036234 0.370906 0.059663
0.037811 0.370256 0.059405
0.039744 0.369534 0.059119
0.042432 0.368642 0.058766
0.046286 0.367541 0.058333
0.052186 0.366184 0.057800
0.062382 0.364517 0.057148
0.082376 0.362488 0.056356
0.135326 0.360138 0.055431
0.219762 0.357495 0.054376
0.292328 0.354160 0.053067
0.362480 0.349929 0.055325
0.431194 0.344542 0.078204
0.501543 0.337610 0.103849
0.569376 0.328633 0.131782
0.629749 0.316942 0.161647
0.686665 0.305082 0.193584
0.739728 0.307812 0.227191
0.788607 0.321738 0.263065
0.833798 0.342891 0.300838
0.865557 0.369007 0.340856
0.886009 0.399185 0.383461
0.904292 0.432291 0.427298
0.920091 0.469232 0.473589
0.933458 0.509379 0.521821
0.945225 0.549758 0.567512
0.955386 0.587421 0.608935
0.963986 0.623917 0.648246
0.971610 0.658741 0.684008
0.978140 0.690308 0.715186
0.983347 0.718406 0.743231
0.041835 0.421044 0.074387
0.043113 0.420498 0.074148
0.044475 0.419951 0.073909
0.045928 0.419403 0.073670
0.047659 0.418794 0.073405
0.050000 0.418041 0.073077
0.053315 0.417112 0.072673
0.058200 0.415965 0.072176
0.065792 0.414552 0.071564
0.078546 0.412815 0.070814
0.104292 0.410704 0.069901
0.169407 0.408281 0.068833
0.257646 0.405483 0.067580
0.335494 0.401926 0.066014
0.410701 0.397384 0.068614
0.484543 0.391562 0.094749
0.557179 0.384024 0.123878
0.621052 0.374223 0.154516
0.680422 0.361557 0.187471
0.735000 0.347744 0.221788
0.784690 0.349155 0.258190
0.830538 0.362852 0.296490
0.864245 0.384110 0.336923
0.885055 0.410860 0.380045
0.903610 0.441605 0.424419
0.919623 0.477033 0.470998
0.933129 0.515586 0.519694
0.944992 0.554424 0.565916
0.955225 0.590906 0.607688
0.963873 0.626620 0.647282
0.971529 0.660775 0.683294
0.978086 0.691780 0.714655
0.983313 0.719517 0.742829
0.051120 0.473235 0.090269
0.052337 0.472747 0.090042
0.053629 0.472259 0.089816
0.055002 0.471770 0.089590
0.056631 0.471227 0.089339
0.058805 0.470556 0.089029
0.061764 0.469729 0.088648
0.065903 0.468708 0.088179
0.071911 0.467449 0.087602
0.081090 0.465898 0.086894
0.096995 0.463993 0.086028
0.128659 0.461677 0.084976
0.204878 0.458996 0.083742
0.297616 0.455813 0.082273
0.381858 0.451792 0.080455
0.461295 0.446714 0.083334
0.540087 0.440393 0.113563
0.609520 0.432480 0.145509
0.672146 0.422366 0.179685
0.729117 0.409019 0.215102
0.779801 0.393394 0.252130
0.826362 0.392894 0.291049
0.862587 0.405647 0.332017
0.883857 0.426876 0.375777
0.902757 0.454357 0.420822
0.919039 0.487321 0.467774
0.932720 0.523575 0.517041
0.944702 0.560328 0.563922
0.955026 0.595324 0.606137
0.963734 0.630020 0.646085
0.971429 0.663317 0.682407
0.978019 0.693612 0.713998
0.983270 0.720900 0.742332
0.061725 0.528660 0.108515
0.062910 0.528255 0.108304
0.064148 0.527850 0.108093
0.065444 0.527444 0.107882
0.066954 0.526992 0.107648
0.068927 0.526435 0.107358
0.071543 0.525746 0.107002
0.075079 0.524895 0.106562
0.079983 0.523845 0.106021
0.087141 0.522548 0.105354
0.098527 0.520946 0.104532
0.117907 0.518974 0.103523
0.155032 0.516569 0.102292
0.241424 0.513769 0.100831
0.340600 0.510410 0.099069
0.430357 0.506168 0.096883
0.516353 0.500774 0.100320
0.593818 0.493869 0.134110
0.660606 0.484931 0.169587
0.720765 0.473284 0.206485
0.773286 0.458056 0.244450
0.820785 0.440018 0.284155
0.860480 0.437553 0.325865
0.882350 0.449946 0.370420
0.901685 0.472195 0.416308
0.918306 0.501083 0.463753
0.932210 0.533949 0.513723
0.944342 0.567830 0.561422
0.954777 0.600961 0.604206
0.963560 0.634315 0.644594
0.971305 0.666505 0.681304
0.977936 0.695903 0.713183
0.983217 0.722624 0.741716
0.073862 0.583208 0.128669
0.074974 0.582900 0.128483
0.076124 0.582592 0.128296
0.077313 0.582283 0.128109
0.078683 0.581939 0.127902
0.080447 0.581514 0.127646
0.082744 0.580988 0.127329
0.085823 0.580339 0.126939
0.090064 0.579537 0.126458
0.096069 0.578544 0.125864
0.104872 0.577315 0.125132
0.118387 0.575794 0.124228
0.140591 0.573917 0.123114
0.184104 0.571623 0.121750
0.280161 0.568937 0.120117
0.387012 0.565633 0.118112
0.482597 0.561379 0.115595
0.571084 0.555866 0.119354
0.644226 0.548664 0.156438
0.708724 0.539171 0.195215
0.764006 0.526582 0.234501
0.813138 0.509988 0.275335
0.857782 0.489688 0.318074
0.880441 0.485523 0.363642
0.900332 0.497723 0.410605
0.917383 0.519777 0.458720
0.931572 0.547544 0.509554
0.943891 0.577413 0.558276
0.954468 0.608215 0.601793
0.963345 0.639774 0.642734
0.971152 0.670518 0.679928
0.977832 0.698783 0.712168
0.983152 0.724782 0.740950
0.087221 0.633758 0.150310
0.088276 0.633520 0.150142
0.089365 0.633283 0.149974
0.090490 0.633045 0.149806
0.091781 0.632781 0.149619
0.093440 0.632454 0.149388
0.095588 0.632051 0.149103
0.098403 0.631553 0.148752
0.102148 0.630937 0.148320
0.107226 0.630177 0.147786
0.114282 0.629236 0.147129
0.124407 0.628072 0.146317
0.139644 0.626629 0.145317
0.165463 0.624844 0.144083
0.214638 0.622638 0.142565
0.320875 0.619928 0.140703
0.434753 0.616502 0.138393
0.536761 0.612109 0.135510
0.620817 0.606446 0.139442
0.691521 0.599167 0.180394
0.751400 0.589858 0.221772
0.803137 0.577633 0.264187
0.849636 0.561335 0.308147
0.878008 0.540592 0.354942
0.898614 0.534873 0.403326
0.916214 0.545514 0.452384
0.930771 0.565501 0.504288
0.943328 0.590012 0.554292
0.954081 0.617640 0.598768
0.963077 0.646758 0.640404
0.970961 0.675591 0.678206
0.977704 0.702416 0.710904
0.983071 0.727490 0.739997
0.102277 0.681413 0.173705
0.103282 0.681233 0.173557
0.104309 0.681053 0.173408
0.105359 0.680873 0.173260
0.106554 0.680673 0.173095
0.108071 0.680426 0.172891
0.110006 0.680120 0.172639
0.112497 0.679743 0.172329
0.115737 0.679277 0.171947
0.120009 0.678700 0.171474
0.125740 0.677986 0.170892
0.133603 0.677101 0.170172
0.144986 0.676001 0.169282
0.162600 0.674632 0.168180
0.191806 0.672916 0.166815
0.246484 0.670736 0.165111
0.363999 0.667847 0.162950
0.484910 0.664142 0.160244
0.587580 0.659477 0.156885
0.667699 0.653575 0.161213
0.734535 0.646051 0.205582
0.790030 0.636431 0.250065
0.838945 0.624047 0.295746
0.874882 0.607973 0.343712
0.896416 0.587838 0.393860
0.914723 0.580964 0.444340
0.929762 0.589380 0.497585
0.942619 0.607018 0.549212
0.953596 0.630036 0.594954
0.962744 0.655768 0.637474
0.970723 0.682041 0.676042
0.977544 0.707029 0.709323
0.982970 0.730906 0.738809
0.118904 0.725164 0.198483
0.119814 0.725031 0.198355
0.120738 0.724899 0.198226
0.121677 0.724767 0.198098
0.122738 0.724619 0.197956
0.124075 0.724437 0.197779
0.125764 0.724213 0.197562
0.127912 0.723935 0.197294
0.130665 0.723592 0.196964
0.134231 0.723167 0.196556
0.138973 0.722641 0.196052
0.145426 0.721989 0.195430
0.154437 0.721179 0.194660
0.167461 0.720170 0.193707
0.187182 0.718905 0.192525
0.219210 0.717307 0.191054
0.280053 0.715232 0.189206
0.408794 0.712340 0.186818
0.536723 0.708581 0.183812
0.634151 0.703848 0.180071
0.711236 0.697857 0.184675
0.772721 0.690206 0.232118
0.825100 0.680430 0.280117
0.870803 0.667851 0.329615
0.893580 0.651543 0.381521
0.912808 0.631038 0.433975
0.928481 0.623149 0.488951
0.941724 0.630411 0.542667
0.952985 0.646559 0.590112
0.962327 0.667500 0.633766
0.970426 0.690289 0.673311
0.977345 0.712927 0.707338
0.982845 0.735238 0.737320
0.136642 0.763930 0.224453
0.137454 0.763833 0.224342
0.138279 0.763737 0.224230
0.139117 0.763641 0.224119
0.140062 0.763534 0.223995
0.141251 0.763401 0.223842
0.142752 0.763238 0.223653
0.144656 0.763036 0.223420
0.147089 0.762787 0.223133
0.150227 0.762479 0.222779
0.154319 0.762098 0.222342
0.159732 0.761625 0.221802
0.167029 0.761038 0.221136
0.177102 0.760308 0.220312
0.191463 0.759396 0.219292
0.212912 0.758247 0.218026
0.248249 0.756778 0.216448
0.315574 0.754817 0.214453
0.454907 0.751901 0.211835
0.585335 0.748076 0.208533
0.678152 0.743290 0.204438
0.749571 0.737277 0.209219
0.807089 0.729634 0.260303
0.856112 0.719961 0.312018
0.889874 0.707655 0.366092
0.910321 0.691819 0.420758
0.926846 0.671751 0.477624
0.940588 0.663115 0.534107
0.952212 0.668889 0.583903
0.961804 0.682922 0.629036
0.970054 0.700900 0.669838
0.977095 0.720535 0.704833
0.982690 0.740770 0.735450
0.156020 0.798735 0.252038
0.156763 0.798665 0.251940
0.157514 0.798594 0.251843
0.158274 0.798524 0.251746
0.159128 0.798445 0.251637
0.160196 0.798348 0.251504
0.161536 0.798228 0.251339
0.163222 0.798080 0.251136
0.165356 0.797898 0.250886
0.168076 0.797672 0.250577
0.171568 0.797392 0.250196
0.176100 0.797046 0.249726
0.182062 0.796616 0.249145
0.190039 0.796082 0.248427
0.200957 0.795414 0.247539
0.216501 0.794575 0.246439
0.240074 0.793510 0.245071
0.278949 0.792124 0.243360
0.353823 0.790203 0.241179
0.504054 0.787133 0.238265
0.629411 0.783096 0.234589
0.717749 0.778107 0.230047
0.783650 0.771923 0.235155
0.837740 0.764189 0.290253
0.883873 0.754576 0.346806
0.907049 0.742554 0.404402
0.924738 0.727375 0.462902
0.939132 0.708356 0.522662
0.951227 0.699264 0.575812
0.961147 0.703331 0.622932
0.969587 0.714871 0.665380
0.976782 0.730460 0.701650
0.982497 0.747893 0.733084
0.177061 0.829865 0.281375
0.177719 0.829813 0.281290
0.178382 0.829761 0.281205
0.179051 0.829710 0.281120
0.179800 0.829652 0.281026
0.180735 0.829581 0.280909
0.181902 0.829493 0.280766
0.183362 0.829384 0.280588
0.185198 0.829250 0.280370
0.187517 0.829084 0.280101
0.190464 0.828879 0.279769
0.194238 0.828626 0.279359
0.199117 0.828311 0.278853
0.205524 0.827919 0.278228
0.214143 0.827431 0.277455
0.226049 0.826820 0.276498
0.243117 0.826049 0.275313
0.268937 0.825062 0.273837
0.311545 0.823759 0.271988
0.393992 0.821894 0.269622
0.552275 0.818759 0.266434
0.670941 0.814627 0.262410
0.752417 0.809546 0.257444
0.814393 0.803281 0.262912
0.865050 0.795484 0.322669
0.902672 0.785860 0.383861
0.921974 0.773915 0.444695
0.937250 0.758950 0.507519
0.949962 0.740368 0.565015
0.960315 0.730942 0.614915
0.968997 0.733724 0.659583
0.976386 0.743584 0.697562
0.982254 0.757164 0.730071
0.199400 0.857570 0.312902
0.199969 0.857532 0.312826
0.200543 0.857494 0.312750
0.201122 0.857456 0.312675
0.201768 0.857414 0.312590
0.202574 0.857362 0.312487
0.203578 0.857297 0.312359
0.204831 0.857218 0.312201
0.206403 0.857120 0.312006
0.208381 0.856998 0.311767
0.210885 0.856848 0.311471
0.214074 0.856662 0.311106
0.218172 0.856432 0.310657
0.223496 0.856146 0.310102
0.230515 0.855791 0.309416
0.239948 0.855346 0.308570
0.252961 0.854789 0.307522
0.271581 0.854081 0.306225
0.299719 0.853169 0.304612
0.347071 0.851947 0.302592
0.435508 0.850138 0.300006
0.595857 0.846946 0.296512
0.708445 0.842735 0.292124
0.783720 0.837582 0.286727
0.841712 0.831260 0.292574
0.889771 0.823430 0.357910
0.918233 0.813834 0.422362
0.934787 0.802050 0.488474
0.948321 0.787441 0.550580
0.959251 0.769385 0.604111
0.968248 0.759626 0.651891
0.975884 0.761218 0.692238
0.981947 0.769382 0.726190
0.223203 0.882601 0.347378
0.223707 0.882572 0.347311
0.224215 0.882544 0.347244
0.224725 0.882516 0.347178
0.225294 0.882485 0.347104
0.226003 0.882446 0.347012
0.226883 0.882398 0.346900
0.227980 0.882339 0.346761
0.229350 0.882266 0.346590
0.231067 0.882176 0.346379
0.233227 0.882064 0.346118
0.235960 0.881926 0.345797
0.239441 0.881756 0.345401
0.243911 0.881544 0.344912
0.249715 0.881280 0.344309
0.257359 0.880952 0.343563
0.267623 0.880541 0.342641
0.281762 0.880022 0.341499
0.302069 0.879361 0.340083
0.333352 0.878500 0.338318
0.384778 0.877328 0.336103
0.480603 0.875535 0.333254
0.636837 0.872235 0.329385
0.741181 0.867878 0.324512
0.811721 0.862586 0.318516
0.866222 0.856151 0.324992
0.911786 0.848258 0.395075
0.931509 0.838695 0.464489
0.946162 0.827069 0.532122
0.957863 0.812829 0.589819
0.967289 0.795334 0.641392
0.975243 0.785278 0.685122
0.981553 0.785718 0.721113
0.248902 0.905010 0.384032
0.249346 0.904989 0.383975
0.249792 0.904969 0.383918
0.250240 0.904948 0.383861
0.250740 0.904925 0.383797
0.251361 0.904897 0.383719
0.252131 0.904862 0.383623
0.253088 0.904819 0.383504
0.254280 0.904765 0.383358
0.255769 0.904699 0.383178
0.257634 0.904618 0.382955
0.259981 0.904517 0.382681
0.262949 0.904392 0.382342
0.266727 0.904238 0.381924
0.271576 0.904046 0.381408
0.277870 0.903807 0.380771
0.286153 0.903508 0.379983
0.297348 0.903133 0.379008
0.312980 0.902658 0.377800
0.335531 0.902049 0.376300
0.369500 0.901248 0.374428
