color-grading/luts/01_technical/BNC_Base_SLog3-SGamut3Cine_to_Rec709-G24.cube
TITLE "BNC Base SLog3-SGamut3Cine to Rec709-G24"
# BNC Grade v1.0 — Sony S-Log3/S-Gamut3.Cine (FX30) to Rec.709 Gamma 2.4, filmic highlight roll-off
# Input: S-Log3 / S-Gamut3.Cine | Output: Rec.709 Gamma 2.4
LUT_3D_SIZE 9
DOMAIN_MIN 0.0 0.0 0.0
DOMAIN_MAX 1.0 1.0 1.0
0.000000 0.000000 0.000000
0.084781 0.001610 0.001707
0.228971 0.020707 0.024246
0.456652 0.079707 0.093028
0.730986 0.194839 0.221709
0.902216 0.370769 0.415590
0.965098 0.597414 0.645099
0.992820 0.762796 0.794884
1.000000 0.852701 0.874663
0.001867 0.073527 0.002127
0.042308 0.057257 0.001519
0.207964 0.044348 0.017601
0.445945 0.095834 0.086107
0.727944 0.204248 0.217589
0.901833 0.375740 0.413451
0.965040 0.599185 0.644398
0.992814 0.763187 0.794731
1.000000 0.852787 0.874629
0.013378 0.218256 0.018508
0.025086 0.209899 0.016502
0.178128 0.197873 0.013975
0.430200 0.156227 0.076176
0.723080 0.222576 0.211083
0.901220 0.384097 0.410045
0.964947 0.602030 0.643283
0.992803 0.763808 0.794487
1.000000 0.852923 0.874574
0.050259 0.435771 0.070246
0.059876 0.431771 0.068377
0.089127 0.425449 0.065438
0.378112 0.406599 0.056855
0.708529 0.337136 0.191152
0.899260 0.414633 0.399265
0.964656 0.611244 0.639764
0.992769 0.765764 0.793724
1.000000 0.853347 0.874405
0.126645 0.705314 0.171625
0.133083 0.704149 0.170453
0.145127 0.702282 0.168592
0.208350 0.696251 0.162741
0.644206 0.674312 0.144016
0.892714 0.587752 0.363713
0.963735 0.643153 0.628475
0.992662 0.771973 0.791333
1.000000 0.854670 0.873878
0.247068 0.879588 0.320226
0.250460 0.879366 0.319645
0.256090 0.879012 0.318723
0.276025 0.877885 0.315839
0.378314 0.874042 0.306831
0.831441 0.853214 0.276558
0.960679 0.778793 0.587631
0.992322 0.793143 0.783560
1.000000 0.858879 0.872217
0.426229 0.959749 0.531618
0.427920 0.959726 0.531391
0.430638 0.959688 0.531030
0.439448 0.959571 0.529901
0.469903 0.959206 0.526365
0.595928 0.958038 0.514901
0.932603 0.949275 0.472274
0.991142 0.883947 0.752903
1.000000 0.873198 0.866697
0.630827 0.990766 0.704775
0.631263 0.990763 0.704727
0.631954 0.990758 0.704650
0.634118 0.990743 0.704412
0.640878 0.990696 0.703675
0.662768 0.990548 0.701366
0.747841 0.990075 0.693835
0.979886 0.988431 0.663818
1.000000 0.934625 0.842950
0.755604 1.000000 0.802158
0.755694 1.000000 0.802149
0.755835 1.000000 0.802135
0.756277 1.000000 0.802090
0.757649 1.000000 0.801951
0.761960 1.000000 0.801521
0.776048 1.000000 0.800173
0.829816 1.000000 0.795706
0.996852 1.000000 0.775795
0.000203 0.000189 0.047871
0.078408 0.001395 0.049659
0.225489 0.018030 0.056440
0.454827 0.076504 0.115986
0.730463 0.192610 0.234594
0.902155 0.369568 0.422203
0.965089 0.596986 0.647261
0.992819 0.762703 0.795359
1.000000 0.852681 0.874769
0.001026 0.050233 0.036821
0.031104 0.031104 0.031104
0.203298 0.033923 0.041916
0.443995 0.091026 0.107801
0.727405 0.201805 0.230307
0.901771 0.374503 0.420052
0.965030 0.598754 0.646562
0.992812 0.763094 0.795205
1.000000 0.852767 0.874734
0.011272 0.206902 0.036518
0.021058 0.198096 0.032727
0.172702 0.185380 0.027551
0.427848 0.144997 0.095364
0.722510 0.219641 0.223529
0.901157 0.382799 0.416628
0.964938 0.601595 0.645450
0.992802 0.763715 0.794962
1.000000 0.852903 0.874680
0.048217 0.430378 0.084427
0.057385 0.426350 0.082271
0.085523 0.419921 0.078915
0.375621 0.400677 0.068963
0.707765 0.330476 0.202816
0.899195 0.413112 0.405784
0.964646 0.610795 0.641941
0.992768 0.765670 0.794199
1.000000 0.853328 0.874511
0.125239 0.703757 0.180786
0.131632 0.702579 0.179580
0.143537 0.700692 0.177664
0.206293 0.694598 0.171626
0.643479 0.672468 0.152160
0.892641 0.585180 0.369960
0.963726 0.642662 0.630679
0.992661 0.771877 0.791810
1.000000 0.854650 0.873984
0.246348 0.879301 0.324938
0.249731 0.879079 0.324350
0.255347 0.878724 0.323418
0.275235 0.877594 0.320503
0.377291 0.873741 0.311387
0.831356 0.852867 0.280724
0.960668 0.778211 0.589888
0.992321 0.793040 0.784041
1.000000 0.858859 0.872323
0.425868 0.959718 0.533470
0.427558 0.959694 0.533244
0.430274 0.959656 0.532886
0.439078 0.959539 0.531762
0.469521 0.959173 0.528246
0.595590 0.958004 0.516833
0.932605 0.949212 0.474274
0.991141 0.883824 0.753409
1.000000 0.873176 0.866805
0.630736 0.990762 0.705187
0.631172 0.990759 0.705139
0.631863 0.990754 0.705062
0.634028 0.990739 0.704825
0.640790 0.990692 0.704088
0.662685 0.990544 0.701782
0.747775 0.990071 0.694261
0.979892 0.988426 0.664267
1.000000 0.934598 0.843062
0.755587 1.000000 0.802243
0.755676 1.000000 0.802234
0.755817 1.000000 0.802219
0.756260 1.000000 0.802174
0.757632 1.000000 0.802036
0.761943 1.000000 0.801606
0.776032 1.000000 0.800258
0.829803 1.000000 0.795793
0.996855 1.000000 0.775888
0.011087 0.008717 0.174727
0.070401 0.008414 0.176398
0.221548 0.014919 0.183440
0.452181 0.071838 0.183878
0.729646 0.189146 0.258752
0.902058 0.367676 0.433144
0.965074 0.596308 0.650710
0.992818 0.762556 0.796112
1.000000 0.852650 0.874936
0.007415 0.027313 0.168685
0.029434 0.021214 0.166567
0.198080 0.023454 0.172878
0.441149 0.084175 0.173591
0.726561 0.198009 0.254179
0.901673 0.372555 0.430964
0.965016 0.598072 0.650015
0.992811 0.762947 0.795958
1.000000 0.852736 0.874902
0.008379 0.188332 0.170395
0.015328 0.178643 0.167292
0.164227 0.164227 0.164227
0.424392 0.129432 0.157257
0.721618 0.215110 0.246938
0.901058 0.380755 0.427513
0.964923 0.600906 0.648908
0.992800 0.763568 0.795715
1.000000 0.852871 0.874848
0.045026 0.421774 0.131585
0.053527 0.417624 0.128868
0.079989 0.410971 0.124515
0.371649 0.391062 0.111188
0.706572 0.320273 0.224677
0.899092 0.410718 0.416576
0.964631 0.610084 0.645415
0.992766 0.765522 0.794953
1.000000 0.853296 0.874678
0.123008 0.701254 0.197947
0.129328 0.700057 0.196694
0.141027 0.698138 0.194702
0.203027 0.691943 0.188403
0.642317 0.669504 0.167847
0.892524 0.581073 0.380352
0.963710 0.641884 0.634200
0.992659 0.771726 0.792567
1.000000 0.854619 0.874152
0.245207 0.878845 0.332818
0.248577 0.878621 0.332220
0.254170 0.878264 0.331274
0.273983 0.877129 0.328310
0.375669 0.873261 0.319030
0.831221 0.852315 0.287698
0.960651 0.777286 0.593501
0.992319 0.792876 0.784805
1.000000 0.858826 0.872492
0.425298 0.959667 0.536420
0.426985 0.959644 0.536196
0.429698 0.959606 0.535841
0.438492 0.959488 0.534729
0.468916 0.959122 0.531244
0.595055 0.957950 0.519918
0.932608 0.949113 0.477481
0.991138 0.883630 0.754212
1.000000 0.873141 0.866976
0.630592 0.990756 0.705840
0.631028 0.990753 0.705792
0.631719 0.990748 0.705716
0.633885 0.990732 0.705479
0.640651 0.990685 0.704744
0.662552 0.990537 0.702443
0.747670 0.990064 0.694937
0.979902 0.988417 0.664979
1.000000 0.934557 0.843239
0.755558 1.000000 0.802376
0.755648 1.000000 0.802367
0.755789 1.000000 0.802353
0.756232 1.000000 0.802308
0.757604 1.000000 0.802169
0.761915 1.000000 0.801740
0.776006 1.000000 0.800392
0.829783 1.000000 0.795930
0.996860 1.000000 0.776034
0.060952 0.049028 0.377260
0.090933 0.047529 0.377331
0.209211 0.046406 0.381615
0.444845 0.059569 0.388886
0.727290 0.178853 0.383424
0.901753 0.361850 0.473252
0.965028 0.594196 0.661675
0.992812 0.762097 0.798478
1.000000 0.852552 0.875460
0.053658 0.063452 0.374169
0.076929 0.060842 0.373657
0.184014 0.058101 0.376504
0.433419 0.067525 0.383890
0.724120 0.186747 0.378285
0.901366 0.366555 0.470867
0.964969 0.595947 0.660992
0.992805 0.762487 0.798325
1.000000 0.852638 0.875426
0.045489 0.122520 0.373392
0.061924 0.114216 0.371730
0.137373 0.103165 0.371097
0.415423 0.093381 0.376261
0.719023 0.201868 0.369987
0.900747 0.374462 0.467077
0.964876 0.598760 0.659906
0.992794 0.763107 0.798083
1.000000 0.852773 0.875372
0.035404 0.393627 0.367798
0.042276 0.389024 0.366410
0.063384 0.381624 0.364229
0.359302 0.359302 0.359302
0.703101 0.291416 0.343157
0.898769 0.403351 0.455165
0.964584 0.607871 0.656472
0.992760 0.765058 0.797324
1.000000 0.853198 0.875203
0.116017 0.693125 0.290551
0.122086 0.691862 0.289172
0.133265 0.689840 0.286976
0.192709 0.683319 0.280013
0.638594 0.659870 0.256900
0.892159 0.568036 0.417194
0.963661 0.639457 0.645424
0.992654 0.771254 0.794945
1.000000 0.854520 0.874677
0.241642 0.877394 0.361172
0.244970 0.877167 0.360551
0.250494 0.876805 0.359566
0.270070 0.875652 0.356478
0.370583 0.871735 0.346764
0.830790 0.850564 0.313365
0.960596 0.774388 0.605080
0.992313 0.792364 0.787207
1.000000 0.858725 0.873019
0.423519 0.959510 0.545764
0.425198 0.959486 0.545546
0.427900 0.959448 0.545201
0.436661 0.959330 0.544121
0.467023 0.958960 0.540748
0.593377 0.957779 0.529737
0.932615 0.948802 0.487815
0.991131 0.883024 0.756730
1.000000 0.873033 0.867511
0.630142 0.990735 0.707894
0.630578 0.990732 0.707846
0.631270 0.990727 0.707771
0.633439 0.990712 0.707535
0.640215 0.990664 0.706805
0.662140 0.990516 0.704519
0.747343 0.990041 0.697060
0.979933 0.988390 0.667217
1.000000 0.934427 0.843794
0.755471 1.000000 0.802793
0.755560 1.000000 0.802784
0.755702 1.000000 0.802770
0.756144 1.000000 0.802725
0.757516 1.000000 0.802587
0.761829 1.000000 0.802158
0.775925 1.000000 0.800813
0.829720 1.000000 0.796358
0.996875 1.000000 0.776492
0.167269 0.138407 0.653931
0.184969 0.137061 0.653892
0.221461 0.135064 0.654140
0.422551 0.130155 0.658497
0.720496 0.151273 0.664675
0.900801 0.344509 0.645347
0.964884 0.587702 0.697309
0.992795 0.760678 0.805946
1.000000 0.852250 0.877087
0.161210 0.148079 0.652827
0.177885 0.146519 0.652721
0.211994 0.144181 0.652823
0.410581 0.138324 0.656769
0.717097 0.156694 0.662946
0.900407 0.348703 0.643562
0.964825 0.589411 0.696682
0.992788 0.761067 0.805795
1.000000 0.852336 0.877053
0.152280 0.167197 0.651357
0.167437 0.165210 0.651145
0.198281 0.162202 0.651022
0.390535 0.154421 0.654159
0.711603 0.167021 0.660210
0.899776 0.355750 0.640697
0.964732 0.592158 0.695682
0.992778 0.761684 0.805556
1.000000 0.852471 0.876999
0.129765 0.287957 0.651049
0.140896 0.282683 0.650420
0.163548 0.274629 0.649520
0.318461 0.252379 0.648827
0.693739 0.223198 0.651910
0.897759 0.381484 0.631428
0.964438 0.601059 0.692516
0.992743 0.763627 0.804805
1.000000 0.852895 0.876831
0.094558 0.664788 0.636847
0.099619 0.663299 0.636456
0.109184 0.660916 0.635831
0.159995 0.653247 0.633836
0.626121 0.626121 0.626121
0.891020 0.526951 0.598575
0.963510 0.631977 0.682249
0.992637 0.769796 0.802455
1.000000 0.854215 0.876307
0.230566 0.872536 0.509709
0.233761 0.872298 0.509086
0.239068 0.871918 0.508095
0.257895 0.870711 0.504972
0.354635 0.866636 0.494975
0.829281 0.844779 0.458215
0.960426 0.765326 0.643800
0.992295 0.790785 0.794798
1.000000 0.858413 0.874657
0.418032 0.959017 0.577545
0.419687 0.958993 0.577332
0.422350 0.958954 0.576995
0.431002 0.958832 0.575940
0.461140 0.958454 0.572654
0.588135 0.957245 0.562121
0.932630 0.947815 0.522754
0.991109 0.881143 0.764642
1.000000 0.872698 0.869171
0.628743 0.990672 0.714370
0.629182 0.990668 0.714323
0.629877 0.990664 0.714250
0.632055 0.990648 0.714019
0.638863 0.990600 0.713305
0.660860 0.990451 0.711070
0.746328 0.989972 0.703764
0.980028 0.988308 0.674298
1.000000 0.934024 0.845517
0.755199 1.000000 0.804090
0.755289 1.000000 0.804081
0.755430 1.000000 0.804067
0.755873 1.000000 0.804023
0.757247 1.000000 0.803885
0.761564 1.000000 0.803459
0.775675 1.000000 0.802122
0.829525 1.000000 0.797691
0.996920 1.000000 0.777913
0.338981 0.289247 0.878813
0.348389 0.288466 0.878766
0.364549 0.287246 0.878691
0.426840 0.283574 0.878457
0.698088 0.273412 0.877729
0.897750 0.297742 0.875436
0.964436 0.567650 0.826147
0.992743 0.756269 0.830701
1.000000 0.851316 0.882215
0.335498 0.294398 0.878604
0.344719 0.293587 0.878557
0.360561 0.292317 0.878482
0.421657 0.288492 0.878247
0.694142 0.277914 0.877517
0.897332 0.300596 0.875216
0.964376 0.569229 0.825745
0.992736 0.756652 0.830558
1.000000 0.851401 0.882182
0.330108 0.303083 0.878273
0.339039 0.302216 0.878225
0.354386 0.300860 0.878149
0.413620 0.296771 0.877913
0.687717 0.285473 0.877180
0.896663 0.305386 0.874867
0.964281 0.571768 0.825104
0.992725 0.757261 0.830330
1.000000 0.851536 0.882128
0.314268 0.335826 0.877227
0.322334 0.334712 0.877179
0.336207 0.332968 0.877102
0.389872 0.327697 0.876862
0.666172 0.313192 0.876117
0.894522 0.322854 0.873766
0.963982 0.580005 0.823064
0.992691 0.759177 0.829617
1.000000 0.851958 0.881962
0.272975 0.536902 0.873897
0.279071 0.534256 0.873846
0.289382 0.530071 0.873765
0.328352 0.517114 0.873513
0.581117 0.478921 0.872730
0.887357 0.416834 0.870258
0.963037 0.608758 0.816363
0.992583 0.765262 0.827379
1.000000 0.853271 0.881447
0.195751 0.853839 0.833307
0.198512 0.853556 0.833283
0.203101 0.853104 0.833244
0.219454 0.851672 0.833114
0.303726 0.846938 0.832538
0.822561 0.822561 0.822561
0.959897 0.736408 0.789320
0.992238 0.785903 0.820057
1.000000 0.857448 0.879820
0.401159 0.957422 0.708747
0.402719 0.957396 0.708615
0.405235 0.957354 0.708406
0.413454 0.957224 0.707751
0.442589 0.956817 0.705699
0.571252 0.955516 0.698967
0.932456 0.944375 0.670192
0.991042 0.875249 0.790786
1.000000 0.871664 0.874407
0.624347 0.990472 0.735804
0.624791 0.990469 0.735761
0.625495 0.990464 0.735693
0.627702 0.990448 0.735482
0.634605 0.990399 0.734828
0.656852 0.990246 0.732775
0.743135 0.989755 0.726032
0.980312 0.988048 0.697987
1.000000 0.932771 0.850955
0.754358 1.000000 0.808193
0.754448 1.000000 0.808184
0.754590 1.000000 0.808170
0.755034 1.000000 0.808127
0.756411 1.000000 0.807992
0.760741 1.000000 0.807575
0.774900 1.000000 0.806264
0.828920 1.000000 0.801910
0.997059 1.000000 0.782384
0.585140 0.514597 0.954042
0.588827 0.514167 0.954035
0.594740 0.513486 0.954023
0.614058 0.511348 0.953986
0.682165 0.504587 0.953870
0.887099 0.480649 0.953512
0.963005 0.505430 0.952373
0.992579 0.742062 0.923632
1.000000 0.848402 0.899343
0.583662 0.517117 0.954009
0.587349 0.516684 0.954002
0.593240 0.515998 0.953990
0.612480 0.513847 0.953952
0.680368 0.507043 0.953837
0.886594 0.482951 0.953478
0.962941 0.506778 0.952338
0.992572 0.742428 0.923536
1.000000 0.848486 0.899310
0.581318 0.521161 0.953956
0.585003 0.520724 0.953949
0.590872 0.520031 0.953937
0.609989 0.517857 0.953900
0.677526 0.510987 0.953784
0.885786 0.486655 0.953424
0.962841 0.508942 0.952281
0.992561 0.743009 0.923384
1.000000 0.848619 0.899258
0.573969 0.534209 0.953791
0.577646 0.533758 0.953784
0.583503 0.533044 0.953772
0.602268 0.530805 0.953734
0.668679 0.523735 0.953618
0.883194 0.498670 0.953255
0.962524 0.515922 0.952105
0.992525 0.744839 0.922906
1.000000 0.849034 0.899097
0.551045 0.578262 0.953275
0.554650 0.577783 0.953267
0.560416 0.577023 0.953255
0.578793 0.574640 0.953217
0.641609 0.567109 0.953098
0.867737 0.540181 0.952728
0.961526 0.539780 0.951554
0.992414 0.750654 0.921395
1.000000 0.850326 0.898596
0.477837 0.763168 0.951616
0.480938 0.762565 0.951608
0.485934 0.761609 0.951595
0.502202 0.758612 0.951554
0.558425 0.749205 0.951427
0.795648 0.716668 0.951033
0.958181 0.644899 0.949781
0.992060 0.770368 0.916319
1.000000 0.854438 0.897018
0.347982 0.951689 0.940120
0.349385 0.951656 0.940133
0.351638 0.951603 0.940155
0.358928 0.951439 0.940221
0.384201 0.950924 0.940415
0.511062 0.949275 0.940756
0.929383 0.929383 0.929383
0.990829 0.856066 0.893591
1.000000 0.868438 0.891782
0.609926 0.989826 0.822451
0.610385 0.989822 0.822425
0.611113 0.989817 0.822385
0.613397 0.989799 0.822260
0.620563 0.989746 0.821870
0.643791 0.989581 0.820641
0.732584 0.989050 0.816472
0.980953 0.987203 0.795246
1.000000 0.928797 0.869024
0.751719 1.000000 0.821920
0.751809 1.000000 0.821912
0.751952 1.000000 0.821899
0.752400 1.000000 0.821859
0.753789 1.000000 0.821735
0.758156 1.000000 0.821349
0.772460 1.000000 0.820135
0.827017 1.000000 0.816073
0.997482 1.000000 0.797135
0.777364 0.725204 0.988445
0.778254 0.725089 0.988444
0.779667 0.724907 0.988442
0.784116 0.724334 0.988438
0.798231 0.722534 0.988422
0.846204 0.716522 0.988375
0.958025 0.691925 0.988228
0.992044 0.697295 0.987761
1.000000 0.838772 0.968894
0.776985 0.725795 0.988441
0.777874 0.725680 0.988440
0.779286 0.725497 0.988438
0.783732 0.724925 0.988433
0.797838 0.723123 0.988418
0.845769 0.717110 0.988371
0.957947 0.692495 0.988224
0.992036 0.697604 0.987756
1.000000 0.838851 0.968870
0.776385 0.726734 0.988434
0.777273 0.726619 0.988433
0.778684 0.726436 0.988431
0.783125 0.725862 0.988426
0.797216 0.724060 0.988411
0.845082 0.718044 0.988364
0.957824 0.693401 0.988216
0.992024 0.698095 0.987749
1.000000 0.838977 0.968832
0.774510 0.729685 0.988412
0.775395 0.729569 0.988411
0.776802 0.729386 0.988409
0.781228 0.728811 0.988404
0.795274 0.727003 0.988389
0.842938 0.720981 0.988342
0.957435 0.696251 0.988194
0.991985 0.699640 0.987726
1.000000 0.839370 0.968714
0.768707 0.739014 0.988344
0.769583 0.738897 0.988343
0.770976 0.738711 0.988342
0.775357 0.738130 0.988337
0.789261 0.736306 0.988321
0.836326 0.730258 0.988273
0.956193 0.705268 0.988125
0.991864 0.704557 0.987653
1.000000 0.840596 0.968347
0.750515 0.770133 0.988133
0.751364 0.770012 0.988132
0.752712 0.769819 0.988130
0.756957 0.769217 0.988125
0.770422 0.767334 0.988109
0.815868 0.761167 0.988060
0.951904 0.735446 0.987909
0.991477 0.721276 0.987427
1.000000 0.844496 0.967177
0.687488 0.892638 0.987452
0.688254 0.892509 0.987451
0.689470 0.892306 0.987449
0.693296 0.891668 0.987444
0.705414 0.889675 0.987427
0.746168 0.883232 0.987375
0.915612 0.857065 0.987213
0.990135 0.793024 0.986699
1.000000 0.857794 0.963164
0.557378 0.987481 0.985047
0.557861 0.987476 0.985046
0.558627 0.987469 0.985044
0.561036 0.987447 0.985037
0.568661 0.987380 0.985016
0.594108 0.987168 0.984952
0.692604 0.986491 0.984754
0.980151 0.980151 0.980151
1.000000 0.915360 0.943510
0.743074 1.000000 0.878733
0.743166 1.000000 0.878728
0.743313 1.000000 0.878721
0.743771 1.000000 0.878697
0.745192 1.000000 0.878624
0.749666 1.000000 0.878396
0.764389 1.000000 0.877673
0.820680 1.000000 0.875127
0.998535 0.999881 0.859266
0.884574 0.847711 1.000000
0.884777 0.847681 1.000000
0.885099 0.847634 1.000000
0.886107 0.847486 1.000000
0.889250 0.847025 1.000000
0.899286 0.845556 1.000000
0.933874 0.840397 1.000000
0.990067 0.816842 1.000000
1.000000 0.808321 0.999990
0.884480 0.847842 1.000000
0.884683 0.847812 1.000000
0.885005 0.847765 1.000000
0.886013 0.847617 1.000000
0.889155 0.847156 1.000000
0.899188 0.845687 1.000000
0.933766 0.840530 1.000000
0.990057 0.816972 1.000000
1.000000 0.808388 0.999990
0.884332 0.848049 1.000000
0.884535 0.848019 1.000000
0.884857 0.847972 1.000000
0.885864 0.847824 1.000000
0.889004 0.847363 1.000000
0.899033 0.845895 1.000000
0.933595 0.840740 1.000000
0.990041 0.817178 1.000000
1.000000 0.808493 0.999989
0.883869 0.848696 1.000000
0.884072 0.848667 1.000000
0.884393 0.848619 1.000000
0.885399 0.848472 1.000000
0.888535 0.848011 1.000000
0.898549 0.846544 1.000000
0.933060 0.841396 1.000000
0.989990 0.817823 1.000000
1.000000 0.808823 0.999988
0.882440 0.850704 1.000000
0.882641 0.850674 1.000000
0.882961 0.850627 1.000000
0.883962 0.850480 1.000000
0.887084 0.850020 1.000000
0.897052 0.848557 1.000000
0.931410 0.843431 1.000000
0.989832 0.819827 1.000000
1.000000 0.809850 0.999984
0.878001 0.857002 1.000000
0.878200 0.856973 1.000000
0.878516 0.856926 1.000000
0.879503 0.856779 1.000000
0.882582 0.856323 1.000000
0.892410 0.854872 1.000000
0.926288 0.849813 1.000000
0.989326 0.826140 1.000000
1.000000 0.813100 0.999970
0.863934 0.877654 1.000000
0.864125 0.877624 1.000000
0.864427 0.877577 1.000000
0.865372 0.877430 1.000000
0.868319 0.876974 1.000000
0.877722 0.875531 1.000000
0.910112 0.870600 1.000000
0.987571 0.846914 1.000000
1.000000 0.824066 0.999926
0.811465 0.957162 0.999931
0.811639 0.957133 0.999931
0.811915 0.957088 0.999931
0.812778 0.956947 0.999931
0.815458 0.956509 0.999930
0.823913 0.955132 0.999926
0.851959 0.950579 0.999916
0.974500 0.929201 0.999883
1.000000 0.871853 0.999772
0.711335 0.999937 0.999357
0.711433 0.999936 0.999357
0.711589 0.999936 0.999356
0.712077 0.999935 0.999356
0.713591 0.999930 0.999354
0.718343 0.999917 0.999348
0.734040 0.999874 0.999331
0.796357 0.999724 0.999275
0.998864 0.998864 0.998864
