color-grading/luts/01_technical/BNC_Base_FLog-FGamut_to_Rec709-G24.cube
TITLE "BNC Base FLog-FGamut to Rec709-G24"
# BNC Grade v1.0 - Fujifilm F-Log/F-Gamut (X-T5) to Rec.709 Gamma 2.4, filmic highlight roll-off
# Input: F-Log / F-Gamut | Output: Rec.709 Gamma 2.4
LUT_3D_SIZE 5
DOMAIN_MIN 0.0 0.0 0.0
DOMAIN_MAX 1.0 1.0 1.0
0.000000 0.000000 0.000000
0.216214 0.021452 0.024510
0.611672 0.145300 0.163278
0.906994 0.400801 0.438924
0.983488 0.713945 0.744860
0.007426 0.169142 0.013048
0.162892 0.154538 0.011775
0.597905 0.174059 0.152969
0.906145 0.409961 0.435215
0.983443 0.715358 0.744341
0.061725 0.528660 0.108515
0.079983 0.523845 0.106021
0.516353 0.500774 0.100320
0.901685 0.472195 0.416308
0.983217 0.722624 0.741716
0.199400 0.857570 0.312902
0.206403 0.857120 0.312006
0.252961 0.854789 0.307522
0.841712 0.831260 0.292574
0.981947 0.769382 0.726190
0.454085 0.973116 0.620923
0.456473 0.973095 0.620741
0.468767 0.972991 0.619837
0.545269 0.972431 0.614906
0.971303 0.965407 0.596032
0.008677 0.009927 0.149155
0.210936 0.020151 0.160253
0.610030 0.144193 0.206522
0.906890 0.400383 0.453102
0.983483 0.713880 0.746801
0.007027 0.168827 0.155373
0.153805 0.153805 0.153805
0.596139 0.172903 0.196359
0.906038 0.409545 0.449328
0.983438 0.715292 0.746285
0.060965 0.528375 0.151558
0.078750 0.523552 0.148920
0.513465 0.500418 0.140786
0.901568 0.471780 0.430154
0.983211 0.722561 0.743679
0.199027 0.857518 0.326997
0.206003 0.857067 0.326091
0.252350 0.854737 0.321548
0.841372 0.831228 0.305571
0.981940 0.769332 0.728253
0.453954 0.973114 0.623769
0.456340 0.973094 0.623590
0.468628 0.972990 0.622695
0.545103 0.972430 0.617817
0.971290 0.965406 0.598896
0.104548 0.117149 0.501790
0.188912 0.113267 0.503303
0.603151 0.139128 0.515886
0.906367 0.398261 0.542667
0.983455 0.713551 0.756633
0.089347 0.178271 0.503064
0.148522 0.169014 0.502684
0.588628 0.167606 0.512086
0.905506 0.407426 0.539330
0.983410 0.714965 0.756138
0.057537 0.527510 0.502540
0.073188 0.522654 0.501648
0.499078 0.499078 0.499078
0.900985 0.469662 0.521660
0.983183 0.722242 0.753629
0.197174 0.857170 0.423253
0.204015 0.856720 0.422436
0.249332 0.854394 0.418349
0.839601 0.831005 0.398450
0.981909 0.769078 0.738726
0.453300 0.973108 0.638167
0.455681 0.973087 0.637999
0.467938 0.972983 0.637160
0.544281 0.972423 0.632573
0.971224 0.965394 0.613508
0.331780 0.362679 0.873033
0.355827 0.360626 0.872986
0.558656 0.351253 0.872752
0.903490 0.385816 0.871492
0.983307 0.711667 0.814930
0.323733 0.381897 0.872772
0.346506 0.379602 0.872724
0.539001 0.369002 0.872489
0.902575 0.394961 0.871224
0.983261 0.713089 0.814558
0.289150 0.523408 0.871458
0.306598 0.519201 0.871409
0.449089 0.498763 0.871169
0.897768 0.457073 0.869706
0.983032 0.720404 0.812672
0.187225 0.853065 0.836215
0.193450 0.852612 0.836242
0.233719 0.850283 0.836338
0.827784 0.827784 0.827784
0.981740 0.767576 0.801210
0.449816 0.973071 0.722336
0.452163 0.973050 0.722236
0.464255 0.972946 0.721736
0.539905 0.972385 0.718991
0.970867 0.965219 0.700972
0.678497 0.712343 0.972704
0.683340 0.711883 0.972700
0.708054 0.709544 0.972685
0.865731 0.694042 0.972603
0.982490 0.698805 0.972162
0.676452 0.715587 0.972686
0.681279 0.715128 0.972683
0.705933 0.712792 0.972668
0.863272 0.697339 0.972586
0.982442 0.700253 0.972144
0.666272 0.732027 0.972601
0.671021 0.731561 0.972598
0.695341 0.729201 0.972582
0.850415 0.713945 0.972500
0.982199 0.707716 0.972056
0.611040 0.831173 0.972140
0.615294 0.830689 0.972137
0.637277 0.828251 0.972121
0.777356 0.813570 0.972037
0.980789 0.756347 0.971582
0.431124 0.972874 0.969495
0.433282 0.972853 0.969492
0.444441 0.972748 0.969474
0.516107 0.972180 0.969377
0.961074 0.961074 0.961074
