color-grading/luts/01_technical/BNC_Base_SLog3-SGamut3Cine_to_Rec709-G24.cube
TITLE "BNC Base SLog3-SGamut3Cine to Rec709-G24"
# BNC Grade v1.0 — Sony S-Log3/S-Gamut3.Cine (FX30) to Rec.709 Gamma 2.4, filmic highlight roll-off
# Input: S-Log3 / S-Gamut3.Cine | Output: Rec.709 Gamma 2.4
LUT_3D_SIZE 33
DOMAIN_MIN 0.0 0.0 0.0
DOMAIN_MAX 1.0 1.0 1.0
0.000000 0.000000 0.000000
0.000000 0.000000 0.000000
0.005188 0.000000 0.000000
0.049037 0.000609 0.000641
0.084781 0.001610 0.001707
0.115071 0.003564 0.004209
0.147731 0.007121 0.008427
0.186190 0.012778 0.015033
0.228971 0.020707 0.024246
0.276747 0.031181 0.036722
0.330818 0.044426 0.051987
0.391073 0.060578 0.070741
0.456652 0.079707 0.093028
0.528802 0.102885 0.119591
0.598465 0.129645 0.149544
0.666402 0.160286 0.183993
0.730986 0.194839 0.221709
0.791218 0.232873 0.263722
0.847904 0.274910 0.309990
0.877967 0.320292 0.360828
0.902216 0.370769 0.415590
0.922639 0.424355 0.474122
0.939433 0.482712 0.536124
0.953596 0.543071 0.592790
0.965098 0.597414 0.645099
0.974836 0.648042 0.691679
0.982442 0.692195 0.731091
0.988258 0.729954 0.765481
0.992820 0.762796 0.794884
0.996036 0.790916 0.820569
0.998562 0.815513 0.842125
1.000000 0.835805 0.859823
1.000000 0.852701 0.874663
0.000000 0.000000 0.000000
0.000000 0.000000 0.000000
0.000000 0.000000 0.000000
0.035574 0.000422 0.000347
0.073487 0.001516 0.001314
0.105859 0.004097 0.003079
0.139745 0.008308 0.006935
0.179757 0.014611 0.013329
0.223569 0.023057 0.022414
0.272270 0.034144 0.034763
0.326957 0.047537 0.050070
0.387922 0.063842 0.068924
0.453967 0.082919 0.091271
0.526713 0.106033 0.118020
0.597001 0.132447 0.148141
0.665317 0.162866 0.182777
0.730228 0.197066 0.220678
0.790673 0.234795 0.262839
0.847507 0.276565 0.309233
0.877821 0.321726 0.360174
0.902121 0.371990 0.415056
0.922581 0.425342 0.473664
0.939396 0.483562 0.535776
0.953573 0.543697 0.592548
0.965084 0.597855 0.644924
0.974827 0.648355 0.691562
0.982437 0.692402 0.731010
0.988255 0.730098 0.765425
0.992819 0.762894 0.794846
0.996035 0.790984 0.820543
0.998562 0.815560 0.842107
1.000000 0.835836 0.859810
1.000000 0.852723 0.874654
0.000000 0.000000 0.000000
0.000000 0.000000 0.000000
0.000000 0.000000 0.000000
0.020969 0.000243 0.000121
0.061896 0.001945 0.000982
0.096221 0.005712 0.002191
0.131604 0.010791 0.005630
0.173239 0.017857 0.011772
0.218169 0.026771 0.020691
0.267796 0.038136 0.032849
0.323107 0.051506 0.048199
0.384769 0.067700 0.067123
0.451284 0.086615 0.089530
0.524614 0.109482 0.116450
0.595536 0.135466 0.146741
0.664229 0.165581 0.181560
0.729469 0.199374 0.219648
0.790128 0.236774 0.261955
0.847108 0.278255 0.308476
0.877675 0.323185 0.359519
0.902025 0.373226 0.414521
0.922522 0.426337 0.473205
0.939358 0.484418 0.535427
0.953549 0.544325 0.592305
0.965069 0.598297 0.644749
0.974818 0.648669 0.691445
0.982432 0.692609 0.730929
0.988252 0.730241 0.765370
0.992817 0.762992 0.794808
0.996034 0.791052 0.820516
0.998561 0.815606 0.842089
1.000000 0.835867 0.859798
1.000000 0.852744 0.874646
0.000685 0.037236 0.000769
0.000662 0.032108 0.000606
0.000708 0.026686 0.000455
0.007873 0.021300 0.000346
0.051899 0.017057 0.000979
0.086864 0.014784 0.001951
0.123721 0.018191 0.004657
0.166795 0.024403 0.010414
0.212877 0.033046 0.019061
0.263373 0.043669 0.031003
0.319292 0.056658 0.046384
0.381622 0.072305 0.065343
0.448608 0.090884 0.087808
0.522509 0.113270 0.114884
0.594070 0.138726 0.145347
0.663140 0.168441 0.180344
0.728708 0.201766 0.218618
0.789583 0.238810 0.261072
0.846709 0.279982 0.307719
0.877529 0.324669 0.358865
0.901929 0.374476 0.413986
0.922464 0.427342 0.472747
0.939320 0.485278 0.535078
0.953526 0.544955 0.592062
0.965055 0.598740 0.644574
0.974808 0.648983 0.691327
0.982427 0.692817 0.730848
0.988249 0.730385 0.765314
0.992815 0.763089 0.794769
0.996034 0.791119 0.820489
0.998560 0.815652 0.842071
1.000000 0.835898 0.859785
1.000000 0.852766 0.874637
0.001867 0.073527 0.002127
0.002001 0.069320 0.001936
0.002310 0.065100 0.001749
0.004719 0.060832 0.001573
0.042308 0.057257 0.001519
0.079845 0.053701 0.002265
0.117974 0.048874 0.004232
0.161177 0.042388 0.009348
0.207964 0.044348 0.017601
0.259092 0.052111 0.029257
0.315551 0.063487 0.044640
0.378497 0.077882 0.063588
0.445945 0.095834 0.086107
0.520399 0.117441 0.113320
0.592605 0.142250 0.143957
0.662050 0.171455 0.179128
0.727944 0.204248 0.217589
0.789037 0.240908 0.260188
0.846309 0.281746 0.306963
0.877382 0.326178 0.358209
0.901833 0.375740 0.413451
0.922405 0.428358 0.472288
0.939283 0.486144 0.534728
0.953502 0.545586 0.591819
0.965040 0.599185 0.644398
0.974799 0.649298 0.691210
0.982422 0.693025 0.730767
0.988246 0.730529 0.765258
0.992814 0.763187 0.794731
0.996033 0.791187 0.820463
0.998560 0.815699 0.842053
1.000000 0.835929 0.859773
1.000000 0.852787 0.874629
0.003072 0.104642 0.003541
0.003322 0.100999 0.003337
0.004122 0.097286 0.003141
0.007119 0.093526 0.002954
0.029077 0.090030 0.002828
0.070770 0.086995 0.002791
0.111800 0.083022 0.003885
0.156957 0.077135 0.008701
0.204130 0.068877 0.016492
0.255140 0.065906 0.027672
0.311950 0.072768 0.042985
0.375413 0.084966 0.061866
0.443304 0.101599 0.084433
0.518288 0.122042 0.111762
0.591140 0.146066 0.142572
0.660960 0.174635 0.177912
0.727180 0.206827 0.216560
0.788491 0.243068 0.259305
0.845907 0.283549 0.306207
0.877235 0.327713 0.357553
0.901737 0.377019 0.412914
0.922346 0.429385 0.471829
0.939245 0.487015 0.534377
0.953479 0.546220 0.591576
0.965025 0.599631 0.644223
0.974790 0.649613 0.691092
0.982417 0.693233 0.730686
0.988243 0.730673 0.765203
0.992812 0.763285 0.794692
0.996032 0.791255 0.820436
0.998559 0.815745 0.842036
1.000000 0.835960 0.859760
1.000000 0.852808 0.874620
0.004907 0.137370 0.006642
0.005781 0.134297 0.006241
0.007238 0.131189 0.005844
0.010456 0.128062 0.005457
0.019873 0.124987 0.005098
0.057166 0.122369 0.004848
0.101955 0.119194 0.004589
0.150067 0.114480 0.007736
0.199487 0.107686 0.015259
0.251224 0.097784 0.026081
0.307814 0.090632 0.041047
0.371658 0.096813 0.059772
0.440047 0.110212 0.082382
0.515649 0.128495 0.109821
0.589312 0.151298 0.140849
0.659596 0.178866 0.176392
0.726221 0.210207 0.215273
0.787808 0.245864 0.258200
0.845404 0.285862 0.305262
0.877051 0.329671 0.356732
0.901616 0.378641 0.412243
0.922273 0.430687 0.471254
0.939198 0.488112 0.533938
0.953450 0.547016 0.591271
0.965007 0.600190 0.644003
0.974779 0.650008 0.690945
0.982411 0.693495 0.730585
0.988239 0.730853 0.765133
0.992810 0.763408 0.794644
0.996030 0.791339 0.820403
0.998559 0.815803 0.842013
1.000000 0.835998 0.859745
1.000000 0.852835 0.874609
0.008406 0.176201 0.011638
0.009677 0.173663 0.011157
0.011636 0.171097 0.010682
0.014775 0.168510 0.010215
0.021012 0.165921 0.009764
0.037089 0.163415 0.009347
0.084514 0.160682 0.008937
0.138067 0.156775 0.008397
0.191390 0.151337 0.013437
0.245479 0.143661 0.024020
0.303015 0.132672 0.038643
0.366742 0.121541 0.057001
0.435619 0.125681 0.079608
0.511968 0.139354 0.107122
0.586762 0.159622 0.138451
0.657683 0.185320 0.174264
0.724872 0.215259 0.213470
0.786849 0.249972 0.256650
0.844695 0.289216 0.303938
0.876792 0.332490 0.355579
0.901446 0.380956 0.411299
0.922169 0.432543 0.470447
0.939132 0.489664 0.533321
0.953409 0.548137 0.590843
0.964981 0.600979 0.643694
0.974763 0.650565 0.690738
0.982402 0.693862 0.730442
0.988233 0.731107 0.765035
0.992807 0.763580 0.794577
0.996029 0.791458 0.820356
0.998558 0.815885 0.841982
1.000000 0.836053 0.859723
1.000000 0.852873 0.874594
0.013378 0.218256 0.018508
0.014928 0.216184 0.017996
0.017087 0.214098 0.017490
0.020255 0.212001 0.016991
0.025086 0.209899 0.016502
0.033631 0.207810 0.016027
0.058010 0.205313 0.015477
0.119076 0.202173 0.014824
0.178128 0.197873 0.013975
0.235962 0.191896 0.021032
0.295836 0.183409 0.035312
0.360991 0.171126 0.053666
0.430200 0.156227 0.076176
0.507183 0.158344 0.103610
0.583426 0.172795 0.135317
0.655159 0.194937 0.171450
0.723080 0.222576 0.211083
0.785579 0.255775 0.254597
0.843751 0.293872 0.302184
0.876446 0.336361 0.354050
0.901220 0.384097 0.410045
0.922031 0.435058 0.469376
0.939043 0.491747 0.532501
0.953354 0.549631 0.590275
0.964947 0.602030 0.643283
0.974741 0.651304 0.690463
0.982391 0.694349 0.730253
0.988226 0.731443 0.764906
0.992803 0.763808 0.794487
0.996026 0.791616 0.820294
0.998557 0.815993 0.841940
1.000000 0.836125 0.859694
1.000000 0.852923 0.874574
0.019692 0.264338 0.027450
0.021542 0.262620 0.026938
0.023862 0.260894 0.026433
0.026830 0.259160 0.025934
0.030964 0.257422 0.025438
0.036969 0.255683 0.024946
0.048738 0.253522 0.024339
0.086790 0.250641 0.023537
0.156436 0.247076 0.022555
0.220891 0.242193 0.021254
0.284745 0.235458 0.030753
0.352399 0.226034 0.049206
0.423755 0.212605 0.071903
0.501188 0.195118 0.099132
0.579111 0.195143 0.131265
0.651846 0.209956 0.167744
0.720703 0.233546 0.207928
0.783898 0.264170 0.251880
0.842492 0.300443 0.299859
0.875986 0.341740 0.352019
0.900919 0.388396 0.408379
0.921848 0.438490 0.467954
0.938926 0.494551 0.531410
0.953281 0.551627 0.589520
0.964902 0.603434 0.642738
0.974713 0.652289 0.690098
0.982375 0.694998 0.730002
0.988216 0.731891 0.764734
0.992797 0.764112 0.794369
0.996023 0.791826 0.820211
0.998555 0.816136 0.841885
1.000000 0.836220 0.859655
1.000000 0.852989 0.874548
0.027697 0.315398 0.039090
0.029676 0.313940 0.038562
0.032097 0.312477 0.038035
0.035070 0.311012 0.037509
0.038745 0.309544 0.036985
0.043325 0.308075 0.036464
0.050882 0.306239 0.035817
0.068330 0.303690 0.034923
0.121075 0.300501 0.033804
0.197345 0.296456 0.032396
0.267732 0.290962 0.030557
0.339260 0.283406 0.043265
0.414244 0.272856 0.066044
0.493711 0.257906 0.093485
0.573747 0.237618 0.126112
0.647567 0.235585 0.162890
0.717569 0.250849 0.203769
0.781677 0.276736 0.248285
0.840807 0.309965 0.296772
0.875371 0.349339 0.349321
0.900518 0.394340 0.406162
0.921603 0.443218 0.466065
0.938771 0.498347 0.529957
0.953185 0.554300 0.588517
0.964842 0.605313 0.642014
0.974675 0.653602 0.689612
0.982355 0.695862 0.729669
0.988204 0.732485 0.764505
0.992790 0.764515 0.794211
0.996019 0.792105 0.820102
0.998553 0.816327 0.841812
1.000000 0.836347 0.859604
1.000000 0.853077 0.874513
0.037902 0.373037 0.053116
0.040010 0.371814 0.052618
0.042398 0.370587 0.052123
0.045114 0.369356 0.051629
0.048220 0.368122 0.051137
0.051890 0.366886 0.050648
0.057576 0.365336 0.050040
0.068399 0.363163 0.049195
0.091663 0.360307 0.048097
0.158225 0.356721 0.046721
0.241426 0.352077 0.044939
0.319568 0.345748 0.042557
0.399945 0.337064 0.058192
0.482672 0.325001 0.085996
0.566818 0.308027 0.119402
0.642235 0.284744 0.156614
0.713509 0.280334 0.198291
0.778760 0.296506 0.243536
0.838543 0.324372 0.292672
0.874548 0.360316 0.345734
0.899980 0.402684 0.403209
0.921276 0.449813 0.463554
0.938563 0.503518 0.528020
0.953056 0.557889 0.587182
0.964762 0.607837 0.641049
0.974626 0.655356 0.688966
0.982328 0.697015 0.729226
0.988187 0.733277 0.764202
0.992781 0.765051 0.794002
0.996014 0.792475 0.819957
0.998550 0.816579 0.841715
1.000000 0.836516 0.859537
1.000000 0.853193 0.874466
0.050259 0.435771 0.070246
0.052288 0.434772 0.069778
0.054544 0.433772 0.069311
0.057060 0.432771 0.068844
0.059876 0.431771 0.068377
0.063039 0.430770 0.067911
0.067574 0.429519 0.067328
0.075288 0.427766 0.066513
0.089127 0.425449 0.065438
0.119792 0.422404 0.064032
0.199145 0.418570 0.062244
0.290101 0.413527 0.059923
0.378112 0.406599 0.056855
0.465948 0.397003 0.076222
0.555692 0.383511 0.110078
0.635090 0.364239 0.148382
0.708529 0.337136 0.191152
0.774962 0.330485 0.237277
0.835473 0.347252 0.287216
0.873441 0.376669 0.340960
0.899260 0.414633 0.399265
0.920838 0.459157 0.460213
0.938286 0.510623 0.525430
0.952885 0.562727 0.585402
0.964656 0.611244 0.639764
0.974559 0.657707 0.688105
0.982291 0.698557 0.728636
0.988164 0.734334 0.763798
0.992769 0.765764 0.793724
0.996007 0.792967 0.819764
0.998546 0.816915 0.841586
1.000000 0.836739 0.859447
1.000000 0.853347 0.874405
0.065033 0.505619 0.090291
0.067020 0.504787 0.089857
0.069156 0.503953 0.089423
0.071455 0.503117 0.088990
0.073936 0.502279 0.088558
0.076617 0.501439 0.088127
0.080292 0.500386 0.087589
0.086228 0.498904 0.086836
0.096123 0.496932 0.085844
0.114034 0.494312 0.084540
0.151256 0.490849 0.082839
0.242959 0.486399 0.080666
0.344141 0.480492 0.077816
0.440967 0.472489 0.074028
0.538281 0.461576 0.097448
0.624553 0.446563 0.137425
0.701957 0.425775 0.181698
0.770007 0.395832 0.229033
0.831204 0.386047 0.279925
0.871946 0.402093 0.334589
0.898290 0.432232 0.393984
0.920249 0.472672 0.455761
0.937916 0.520491 0.521959
0.952656 0.569278 0.583024
0.964514 0.615867 0.638047
0.974471 0.660867 0.686954
0.982243 0.700624 0.727851
0.988135 0.735745 0.763261
0.992752 0.766715 0.793355
0.995998 0.793622 0.819508
0.998541 0.817362 0.841415
1.000000 0.837036 0.859328
1.000000 0.853553 0.874323
0.082519 0.577592 0.114537
0.084355 0.576988 0.114141
0.086314 0.576383 0.113745
0.088403 0.575775 0.113349
0.090633 0.575166 0.112953
0.093015 0.574555 0.112557
0.096225 0.573787 0.112061
0.101207 0.572706 0.111365
0.108799 0.571265 0.110443
0.120969 0.569343 0.109221
0.142141 0.566779 0.107605
0.187065 0.563379 0.105478
0.291110 0.559002 0.102724
0.404324 0.553090 0.099095
0.511402 0.544859 0.094288
0.608147 0.533260 0.122696
0.690941 0.516641 0.168517
0.762303 0.492455 0.217793
0.824763 0.457408 0.270019
0.869914 0.444186 0.326044
0.896976 0.460283 0.386872
0.919454 0.492714 0.449817
0.937420 0.534375 0.517286
0.952350 0.578249 0.579839
0.964326 0.622190 0.635747
0.974353 0.665134 0.685413
0.982179 0.703408 0.726803
0.988095 0.737637 0.762545
0.992730 0.767985 0.792863
0.995986 0.794497 0.819168
0.998534 0.817956 0.841188
1.000000 0.837432 0.859170
1.000000 0.853825 0.874214
0.103222 0.644053 0.141585
0.104990 0.643629 0.141247
0.106830 0.643203 0.140909
0.108747 0.642777 0.140571
0.110745 0.642350 0.140233
0.112826 0.641921 0.139895
0.115557 0.641384 0.139472
0.119639 0.640628 0.138879
0.125547 0.639621 0.138094
0.134377 0.638278 0.137053
0.148629 0.636485 0.135677
0.174063 0.634085 0.133856
0.225840 0.630868 0.131441
0.344109 0.626537 0.128220
0.468426 0.620610 0.123895
0.581518 0.612412 0.118076
0.672578 0.600966 0.150283
0.749543 0.584806 0.202230
0.814882 0.560767 0.256504
0.867126 0.524138 0.314415
0.895183 0.507930 0.377197
0.918372 0.523261 0.441853
0.936751 0.554172 0.510963
0.951938 0.590941 0.575556
0.964073 0.630927 0.632655
0.974196 0.670930 0.683341
0.982094 0.707175 0.725401
0.988042 0.740183 0.761589
0.992701 0.769686 0.792208
0.995969 0.795666 0.818715
0.998525 0.818748 0.840885
1.000000 0.837958 0.858960
1.000000 0.854188 0.874070
0.126645 0.705314 0.171625
0.128191 0.705024 0.171332
0.129778 0.704733 0.171039
0.131408 0.704441 0.170746
0.133083 0.704149 0.170453
0.134810 0.703856 0.170159
0.137059 0.703488 0.169792
0.140385 0.702971 0.169276
0.145127 0.702282 0.168592
0.152065 0.701363 0.167684
0.162585 0.700133 0.166478
0.179384 0.698483 0.164875
0.208350 0.696251 0.162741
0.267381 0.693182 0.159888
0.401119 0.688775 0.156022
0.536695 0.682680 0.150860
0.644206 0.674312 0.144016
0.730688 0.662664 0.181095
0.800732 0.646227 0.238381
0.861503 0.622566 0.298614
0.892714 0.587752 0.363713
0.916889 0.570543 0.431104
0.935845 0.582638 0.502334
0.951383 0.609307 0.569753
0.963735 0.643153 0.628475
0.973985 0.678857 0.680543
0.981979 0.712311 0.723519
0.987972 0.743625 0.760309
0.992662 0.771973 0.791333
0.995948 0.797235 0.818110
0.998513 0.819806 0.840482
1.000000 0.838661 0.858680
1.000000 0.854670 0.873878
0.152516 0.758862 0.204359
0.153893 0.758673 0.204119
0.155301 0.758484 0.203878
0.156741 0.758294 0.203636
0.158214 0.758103 0.203395
0.159720 0.757913 0.203154
0.161655 0.757673 0.202851
0.164466 0.757337 0.202426
0.168372 0.756889 0.201863
0.173895 0.756292 0.201114
0.181886 0.755494 0.200118
0.193829 0.754425 0.198794
0.212593 0.752983 0.197028
0.245285 0.751015 0.194666
0.312387 0.748241 0.191479
0.461219 0.744005 0.187078
0.600444 0.738094 0.181147
0.702268 0.729977 0.173210
0.780529 0.718627 0.214221
0.845419 0.702535 0.277674
0.889267 0.679283 0.345050
0.914832 0.644732 0.416261
0.934608 0.626480 0.490388
0.950630 0.636594 0.561698
0.963281 0.660534 0.622780
0.973702 0.689788 0.676736
0.981824 0.719379 0.720980
0.987878 0.748309 0.758587
0.992611 0.775060 0.790162
0.995919 0.799346 0.817302
0.998497 0.821224 0.839944
1.000000 0.839600 0.858307
1.000000 0.855314 0.873622
0.181488 0.805137 0.239465
0.182668 0.805011 0.239263
0.183866 0.804886 0.239060
0.185082 0.804760 0.238858
0.186317 0.804634 0.238655
0.187572 0.804508 0.238452
0.189169 0.804349 0.238198
0.191463 0.804126 0.237842
0.194603 0.803830 0.237369
0.198947 0.803435 0.236742
0.205059 0.802908 0.235910
0.213918 0.802201 0.234804
0.227248 0.801250 0.233334
0.248452 0.799957 0.231375
0.285353 0.798167 0.228755
0.362109 0.795550 0.225208
0.525852 0.791234 0.220255
0.658190 0.785179 0.213598
0.751717 0.777009 0.204748
0.823690 0.765827 0.250034
0.883599 0.750391 0.320645
0.911933 0.728662 0.395707
0.932904 0.696601 0.473399
0.949598 0.678129 0.550234
0.962666 0.685643 0.614922
0.973320 0.705056 0.671503
0.981616 0.729233 0.717531
0.987753 0.754742 0.756260
0.992541 0.779257 0.788587
0.995880 0.802202 0.816218
0.998476 0.823128 0.839223
1.000000 0.840860 0.857810
1.000000 0.856175 0.873281
0.212749 0.845073 0.277813
0.213736 0.844990 0.277644
0.214736 0.844908 0.277474
0.215747 0.844825 0.277305
0.216771 0.844743 0.277135
0.217808 0.844660 0.276965
0.219123 0.844556 0.276753
0.221004 0.844410 0.276455
0.223561 0.844215 0.276060
0.227069 0.843957 0.275535
0.231944 0.843611 0.274839
0.238833 0.843149 0.273916
0.248812 0.842529 0.272688
0.263796 0.841690 0.271055
0.287562 0.840541 0.268877
0.329428 0.838926 0.265959
0.415149 0.836484 0.261997
0.586123 0.832200 0.256424
0.709910 0.826162 0.248926
0.794540 0.818063 0.238951
0.860799 0.807040 0.289241
0.907762 0.791943 0.368634
0.930523 0.770887 0.449934
0.948170 0.740509 0.533331
0.961829 0.722372 0.603849
0.972801 0.727273 0.664198
0.981333 0.743207 0.712795
0.987584 0.763683 0.753089
0.992448 0.785044 0.786459
0.995829 0.806094 0.814758
0.998447 0.825697 0.838254
1.000000 0.842556 0.857144
1.000000 0.857328 0.872826
0.247068 0.879588 0.320226
0.247905 0.879532 0.320081
0.248749 0.879477 0.319936
0.249600 0.879421 0.319790
0.250460 0.879366 0.319645
0.251327 0.879310 0.319499
0.252424 0.879240 0.319317
0.253983 0.879142 0.319061
0.256090 0.879012 0.318723
0.258953 0.878839 0.318273
0.262879 0.878608 0.317678
0.268329 0.878299 0.316887
0.276025 0.877885 0.315839
0.287158 0.877328 0.314446
0.303978 0.876572 0.312595
0.331119 0.875529 0.310129
0.378314 0.874042 0.306831
0.472787 0.871717 0.302358
0.640798 0.867401 0.296076
0.753651 0.861311 0.287685
0.831441 0.853214 0.276558
0.893118 0.842328 0.333082
0.927128 0.827678 0.419814
0.946163 0.807562 0.509211
0.960679 0.778793 0.587631
0.972091 0.760697 0.653732
0.980945 0.763476 0.706183
0.987356 0.776302 0.748719
0.992322 0.793143 0.783560
0.995760 0.811445 0.812780
0.998409 0.829185 0.836946
1.000000 0.844851 0.856250
1.000000 0.858879 0.872217
0.284921 0.909484 0.367665
0.285623 0.909448 0.367545
0.286331 0.909412 0.367424
0.287044 0.909375 0.367304
0.287763 0.909339 0.367183
0.288487 0.909303 0.367062
0.289401 0.909257 0.366911
0.290699 0.909193 0.366699
0.292447 0.909108 0.366418
0.294813 0.908994 0.366045
0.298038 0.908843 0.365550
0.302477 0.908641 0.364894
0.308665 0.908372 0.364023
0.317442 0.908010 0.362865
0.330189 0.907520 0.361326
0.349319 0.906851 0.359275
0.379384 0.905920 0.356536
0.430412 0.904569 0.352858
0.532965 0.902377 0.347842
0.690039 0.898082 0.340748
0.791787 0.892007 0.331196
0.863373 0.883969 0.318499
0.920632 0.873185 0.381538
0.943281 0.858715 0.476856
0.959074 0.839055 0.564788
0.971107 0.811574 0.638050
0.980408 0.793638 0.696682
0.987046 0.794503 0.742581
0.992151 0.804683 0.779561
0.995668 0.818888 0.810076
0.998358 0.833956 0.835166
1.000000 0.847980 0.855043
1.000000 0.860977 0.871397
0.327664 0.931532 0.418436
0.328272 0.931517 0.418337
0.328883 0.931501 0.418237
0.329497 0.931486 0.418138
0.330114 0.931471 0.418039
0.330734 0.931455 0.417940
0.331514 0.931436 0.417815
0.332617 0.931409 0.417641
0.334095 0.931373 0.417410
0.336079 0.931325 0.417104
0.338759 0.931262 0.416699
0.342398 0.931178 0.416161
0.347382 0.931067 0.415449
0.354285 0.930919 0.414505
0.363992 0.930721 0.413254
0.377930 0.930459 0.411595
0.398531 0.930108 0.409396
0.431184 0.929638 0.406477
0.488426 0.929006 0.402579
0.587242 0.928050 0.397239
0.731670 0.923817 0.389632
0.824477 0.917819 0.379318
0.890982 0.909937 0.365481
0.939019 0.899400 0.433701
0.956749 0.885322 0.534356
0.969724 0.866336 0.615614
0.979655 0.839944 0.682328
0.986622 0.822050 0.733682
0.991918 0.821502 0.773936
0.995544 0.829400 0.806328
0.998289 0.840542 0.832721
0.999989 0.852287 0.853402
1.000000 0.863832 0.870288
0.375004 0.947010 0.475157
0.375500 0.947000 0.475076
0.375999 0.946990 0.474994
0.376499 0.946980 0.474912
0.377000 0.946971 0.474830
0.377504 0.946961 0.474749
0.378136 0.946949 0.474646
0.379028 0.946931 0.474503
0.380218 0.946908 0.474312
0.381809 0.946878 0.474060
0.383944 0.946838 0.473725
0.386819 0.946785 0.473281
0.390714 0.946714 0.472692
0.396028 0.946620 0.471909
0.403375 0.946495 0.470869
0.413893 0.946328 0.469485
0.429338 0.946106 0.467642
0.452624 0.945809 0.465183
0.488687 0.945411 0.461890
0.545010 0.944876 0.457456
0.637529 0.944152 0.451389
0.767818 0.943167 0.442782
0.852827 0.939169 0.431188
0.913548 0.931281 0.415830
0.953261 0.920846 0.491258
0.967743 0.907122 0.585877
0.978578 0.888950 0.661644
0.986035 0.864173 0.720055
0.991595 0.846579 0.765700
0.995376 0.844501 0.801021
0.998194 0.849813 0.829311
0.999957 0.858291 0.851150
1.000000 0.867752 0.868778
0.426229 0.959749 0.531618
0.426650 0.959743 0.531561
0.427072 0.959737 0.531505
0.427495 0.959732 0.531448
0.427920 0.959726 0.531391
0.428346 0.959720 0.531334
0.428880 0.959712 0.531263
0.429634 0.959702 0.531163
0.430638 0.959688 0.531030
0.431980 0.959670 0.530855
0.433776 0.959646 0.530622
0.436191 0.959614 0.530312
0.439448 0.959571 0.529901
0.443870 0.959514 0.529354
0.449915 0.959439 0.528627
0.458258 0.959339 0.527658
0.469903 0.959206 0.526365
0.486377 0.959028 0.524635
0.509986 0.958789 0.522311
0.543936 0.958469 0.519174
0.595928 0.958038 0.514901
0.681482 0.957454 0.508962
0.798695 0.956655 0.500353
0.876785 0.955552 0.488489
0.932603 0.949275 0.472274
0.964825 0.938983 0.545685
0.977000 0.925514 0.633886
0.985210 0.907796 0.700550
0.991142 0.883947 0.752903
0.995147 0.866692 0.793227
0.998065 0.863332 0.824437
0.999912 0.866802 0.848007
1.000000 0.873198 0.866697
0.482973 0.970303 0.582291
0.483302 0.970299 0.582251
0.483632 0.970295 0.582211
0.483962 0.970292 0.582170
0.484292 0.970288 0.582130
0.484624 0.970284 0.582089
0.485038 0.970279 0.582039
0.485622 0.970272 0.581968
0.486397 0.970263 0.581874
0.487427 0.970252 0.581750
0.488800 0.970236 0.581585
0.490631 0.970215 0.581366
0.493078 0.970187 0.581075
0.496355 0.970151 0.580689
0.500761 0.970102 0.580177
0.506705 0.970037 0.579496
0.514761 0.969951 0.578591
0.525723 0.969836 0.577384
0.540695 0.969683 0.575773
0.562116 0.969479 0.573617
0.594074 0.969205 0.570717
0.642991 0.968837 0.566784
0.718950 0.968339 0.561330
0.825576 0.967662 0.553408
0.896435 0.966733 0.542571
0.948226 0.963907 0.527808
0.974612 0.953720 0.595448
0.984027 0.940553 0.675210
0.990496 0.923480 0.734553
0.994832 0.900678 0.781051
0.997886 0.883624 0.817181
0.999848 0.879137 0.843511
1.000000 0.880881 0.863781
0.536688 0.979030 0.629429
0.536912 0.979028 0.629402
0.537135 0.979025 0.629374
0.537359 0.979023 0.629347
0.537583 0.979021 0.629319
0.537808 0.979019 0.629291
0.538089 0.979016 0.629257
0.538484 0.979012 0.629208
0.539010 0.979007 0.629144
0.539708 0.979000 0.629059
0.540637 0.978990 0.628946
0.541875 0.978978 0.628796
0.543529 0.978962 0.628597
0.545743 0.978940 0.628333
0.548717 0.978911 0.627983
0.552730 0.978873 0.627517
0.558175 0.978823 0.626897
0.565620 0.978755 0.626072
0.575903 0.978665 0.624970
0.590285 0.978545 0.623496
