color-grading/luts/03_combined_slog3/BNC_SLog3_L06_Nostalgic.cube
TITLE "BNC SLog3 L06 Nostalgic"
# BNC Grade v1.0 - S-Log3/S-Gamut3.Cine -> BNC Base -> Soft vintage look: lifted blacks, warm greens, cyan-leaning shadows and a gentle highlight shoulder.
# Input: S-Log3 / S-Gamut3.Cine | Output: Rec.709 Gamma 2.4
LUT_3D_SIZE 33
DOMAIN_MIN 0.0 0.0 0.0
DOMAIN_MAX 1.0 1.0 1.0
0.029886 0.033920 0.036817
0.029886 0.033920 0.036817
0.031265 0.034028 0.036929
0.052853 0.037095 0.039328
0.081673 0.045415 0.044094
0.107744 0.054379 0.049391
0.138133 0.062569 0.054976
0.174565 0.071459 0.061830
0.215044 0.081130 0.070062
0.260204 0.091680 0.080242
0.311253 0.103522 0.093134
0.368068 0.117098 0.109843
0.429780 0.132613 0.129900
0.497431 0.150356 0.153403
0.562559 0.170008 0.179424
0.625911 0.192741 0.209204
0.686049 0.219369 0.242064
0.742194 0.250078 0.278875
0.795733 0.284804 0.317874
0.825585 0.324116 0.361157
0.849596 0.369572 0.408350
0.870074 0.419060 0.459096
0.888463 0.474213 0.513088
0.905718 0.532382 0.562362
0.920839 0.585614 0.607839
0.934628 0.635849 0.648389
0.946377 0.680127 0.682885
0.956211 0.718345 0.713291
0.964565 0.751816 0.739581
0.968562 0.783205 0.765833
0.970795 0.811499 0.789819
0.972604 0.834505 0.810006
0.974064 0.853118 0.826652
0.029886 0.033920 0.036817
0.029886 0.033920 0.036817
0.029886 0.033920 0.036817
0.044153 0.035538 0.038240
0.072188 0.042358 0.042361
0.099627 0.051909 0.047739
0.130561 0.061043 0.053605
0.168483 0.070437 0.060607
0.209953 0.080540 0.068920
0.256009 0.091616 0.079102
0.307668 0.103956 0.091924
0.365190 0.118150 0.108605
0.427374 0.134055 0.128694
0.495615 0.152103 0.152326
0.561341 0.171821 0.178456
0.625061 0.194611 0.208361
0.685503 0.221125 0.241349
0.741844 0.251688 0.278256
0.795522 0.286251 0.317322
0.825608 0.325411 0.360651
0.849669 0.370703 0.407923
0.870172 0.419991 0.458714
0.888575 0.475029 0.512788
0.905816 0.532991 0.562146
0.920914 0.586047 0.607679
0.934685 0.636159 0.648279
0.946416 0.680332 0.682809
0.956238 0.718487 0.713239
0.964583 0.751913 0.739544
0.968566 0.783277 0.765818
0.970798 0.811549 0.789812
0.972606 0.834537 0.810004
0.974066 0.853139 0.826652
0.029886 0.033920 0.036817
0.029886 0.033920 0.036817
0.029886 0.033920 0.036817
0.036830 0.034604 0.037456
0.062586 0.039737 0.040795
0.091277 0.049504 0.046099
0.122840 0.059736 0.052301
0.162324 0.069697 0.059454
0.204874 0.080300 0.067866
0.251831 0.091933 0.078052
0.304113 0.104823 0.090816
0.362331 0.119593 0.107435
0.424991 0.135825 0.127539
0.493808 0.154080 0.151277
0.560136 0.173809 0.177510
0.624219 0.196598 0.207530
0.684963 0.222953 0.240642
0.741499 0.253348 0.277641
0.795314 0.287730 0.316772
0.825633 0.326728 0.360147
0.849744 0.371848 0.407495
0.870270 0.420930 0.458331
0.888688 0.475850 0.512487
0.905913 0.533602 0.561930
0.920990 0.586481 0.607519
0.934742 0.636469 0.648170
0.946454 0.680538 0.682732
0.956265 0.718629 0.713186
0.964601 0.752010 0.739508
0.968571 0.783350 0.765803
0.970801 0.811598 0.789806
0.972608 0.834569 0.810001
0.974067 0.853161 0.826652
0.028822 0.050615 0.038243
0.029385 0.047287 0.037945
0.029794 0.044161 0.037680
0.031640 0.041653 0.037792
0.053827 0.043083 0.040628
0.082983 0.049390 0.045035
0.115444 0.059612 0.051251
0.156246 0.069873 0.058488
0.199921 0.080925 0.066976
0.247730 0.092961 0.077144
0.300625 0.106389 0.089847
0.359509 0.121557 0.106353
0.422642 0.138002 0.126446
0.492014 0.156322 0.150260
0.558946 0.175991 0.176588
0.623386 0.198709 0.206713
0.684427 0.224858 0.239943
0.741159 0.255061 0.277032
0.795109 0.289244 0.316224
0.825660 0.328070 0.359642
0.849821 0.373007 0.407066
0.870370 0.421879 0.457947
0.888802 0.476676 0.512186
0.906011 0.534214 0.561713
0.921066 0.586916 0.607358
0.934799 0.636779 0.648060
0.946493 0.680744 0.682656
0.956292 0.718772 0.713133
0.964619 0.752107 0.739472
0.968576 0.783423 0.765788
0.970804 0.811647 0.789800
0.972610 0.834601 0.809999
0.974068 0.853182 0.826652
0.033338 0.081286 0.045048
0.032354 0.077265 0.044337
0.031356 0.073313 0.043394
0.030369 0.069528 0.042191
0.040840 0.068654 0.043805
0.072403 0.070316 0.048607
0.110379 0.071611 0.051539
0.151097 0.075153 0.058353
0.195409 0.084026 0.066511
0.243829 0.095643 0.076518
0.297264 0.109114 0.089085
0.356747 0.124220 0.105390
0.420338 0.140685 0.125432
0.490239 0.158870 0.149282
0.557773 0.178390 0.175693
0.622565 0.200955 0.205911
0.683898 0.226842 0.239253
0.740825 0.256830 0.276428
0.794906 0.290792 0.315678
0.825690 0.329435 0.359138
0.849899 0.374179 0.406637
0.870471 0.422838 0.457563
0.888917 0.477507 0.511884
0.906109 0.534828 0.561495
0.921142 0.587352 0.607198
0.934856 0.637090 0.647950
0.946532 0.680950 0.682579
0.956319 0.718914 0.713081
0.964637 0.752204 0.739435
0.968581 0.783496 0.765773
0.970807 0.811696 0.789794
0.972612 0.834633 0.809997
0.974069 0.853204 0.826652
0.045108 0.111009 0.044481
0.042173 0.107724 0.043520
0.039260 0.104372 0.042579
0.037678 0.100886 0.042790
0.042261 0.098007 0.043323
0.064898 0.098212 0.051606
0.102263 0.099196 0.057376
0.148690 0.097474 0.058804
0.192620 0.097136 0.067252
0.240471 0.102293 0.076472
0.294142 0.113759 0.088641
0.354090 0.127981 0.104604
0.418099 0.144004 0.124516
0.488490 0.161773 0.148350
0.556622 0.181033 0.174830
0.621756 0.203346 0.205126
0.683376 0.228915 0.238574
0.740496 0.258656 0.275829
0.794708 0.292377 0.315135
0.825724 0.330825 0.358634
0.849980 0.375365 0.406207
0.870574 0.423808 0.457179
0.889032 0.478342 0.511581
0.906207 0.535444 0.561277
0.921218 0.587789 0.607036
0.934913 0.637401 0.647840
0.946571 0.681156 0.682503
0.956346 0.719057 0.713028
0.964655 0.752301 0.739399
0.968586 0.783569 0.765758
0.970810 0.811745 0.789787
0.972614 0.834666 0.809995
0.974070 0.853225 0.826652
0.070424 0.140525 0.052723
0.068204 0.137764 0.051970
0.066016 0.134975 0.051200
0.064020 0.132181 0.050405
0.063072 0.129502 0.049550
0.073596 0.128237 0.047804
0.097845 0.129816 0.060940
0.140208 0.130404 0.067741
0.190624 0.126879 0.067675
0.238714 0.123468 0.077279
0.291014 0.124539 0.088711
0.351029 0.135019 0.103976
0.415424 0.149304 0.123549
0.486350 0.165993 0.147263
0.555218 0.184729 0.173802
0.620764 0.206561 0.204168
0.682733 0.231646 0.237739
0.740093 0.261027 0.275088
0.794463 0.294412 0.314460
0.825769 0.332599 0.358005
0.850083 0.376869 0.405669
0.870706 0.425037 0.456697
0.889178 0.479395 0.511201
0.906331 0.536217 0.561004
0.921314 0.588338 0.606834
0.934985 0.637791 0.647702
0.946619 0.681414 0.682407
0.956380 0.719236 0.712962
0.964678 0.752422 0.739353
0.968592 0.783660 0.765739
0.970814 0.811807 0.789779
0.972616 0.834706 0.809992
0.974072 0.853252 0.826652
0.099355 0.175336 0.061667
0.097573 0.173075 0.061098
0.095823 0.170792 0.060515
0.094167 0.168498 0.059915
0.092858 0.166229 0.059279
0.093428 0.164186 0.058486
0.109239 0.163717 0.055596
0.136064 0.166152 0.072010
0.181648 0.166215 0.079626
0.236234 0.161127 0.078438
0.290020 0.154911 0.088723
0.347849 0.151689 0.103811
0.412049 0.159652 0.122640
0.483495 0.173451 0.145948
0.553337 0.190768 0.172473
0.619418 0.211535 0.202881
0.681856 0.235759 0.236601
0.739546 0.264524 0.274065
0.794131 0.297371 0.313519
0.825840 0.335157 0.357122
0.850233 0.379017 0.404912
0.870894 0.426789 0.456019
0.889385 0.480885 0.510665
0.906505 0.537306 0.560619
0.921449 0.589112 0.606550
0.935086 0.638340 0.647508
0.946688 0.681778 0.682272
0.956427 0.719487 0.712869
0.964710 0.752593 0.739289
0.968600 0.783788 0.765713
0.970819 0.811893 0.789768
0.972619 0.834762 0.809988
0.974074 0.853290 0.826652
0.130466 0.212720 0.070432
0.129033 0.210892 0.070009
0.127632 0.209054 0.069576
0.126304 0.207212 0.069130
0.125140 0.205381 0.068662
0.124480 0.203603 0.068138
0.127233 0.201809 0.067063
0.149579 0.202225 0.062182
0.178403 0.205439 0.084148
0.226849 0.205076 0.092465
0.286515 0.198646 0.090906
0.347610 0.189650 0.102216
0.409199 0.182010 0.122161
0.480168 0.187358 0.144752
0.551057 0.200680 0.170981
0.617735 0.219092 0.201296
0.680746 0.241778 0.235159
0.738856 0.269491 0.272741
0.793708 0.301488 0.312284
0.825949 0.338674 0.355954
0.850441 0.381934 0.403905
0.871151 0.429164 0.455118
0.889662 0.482884 0.509951
0.906737 0.538758 0.560107
0.921628 0.590142 0.606172
0.935220 0.639070 0.647250
0.946778 0.682260 0.682093
0.956490 0.719821 0.712746
0.964752 0.752819 0.739204
0.968612 0.783958 0.765678
0.970827 0.812008 0.789754
0.972624 0.834837 0.809983
0.974077 0.853340 0.826652
0.164517 0.253312 0.079045
0.163358 0.251812 0.078725
0.162227 0.250307 0.078398
0.161145 0.248800 0.078061
0.160171 0.247298 0.077706
0.159427 0.245817 0.077318
0.159293 0.244047 0.076722
0.166403 0.242433 0.074726
0.192894 0.243536 0.067585
0.224003 0.247219 0.096747
0.276620 0.246362 0.106179
0.343304 0.238426 0.104665
0.409953 0.226991 0.118699
0.477726 0.215949 0.143750
0.548597 0.218285 0.169635
0.615742 0.231203 0.199474
0.679391 0.250928 0.233392
0.738016 0.276728 0.271048
0.793186 0.307321 0.310668
0.826122 0.343572 0.354408
0.850735 0.385929 0.402566
0.871506 0.432407 0.453919
0.890037 0.485574 0.508998
0.907047 0.540697 0.559425
0.921868 0.591518 0.605669
0.935398 0.640041 0.646906
0.946899 0.682902 0.681855
0.956573 0.720264 0.712582
0.964808 0.753119 0.739092
0.968627 0.784184 0.765632
0.970836 0.812160 0.789735
0.972630 0.834937 0.809976
0.974080 0.853406 0.826652
0.202106 0.297906 0.087515
0.201160 0.296644 0.087266
0.200246 0.295381 0.087009
0.199380 0.294120 0.086744
0.198590 0.292863 0.086464
0.197923 0.291617 0.086164
0.197405 0.290089 0.085735
0.198297 0.288118 0.084857
0.210544 0.286883 0.081397
0.240377 0.288495 0.074517
0.274108 0.292654 0.110194
0.332302 0.291351 0.121436
0.405491 0.281659 0.120761
0.479124 0.267589 0.138216
0.547730 0.252928 0.168271
0.613787 0.252553 0.197753
0.677875 0.265639 0.231384
0.737061 0.287666 0.268931
0.792571 0.315817 0.308562
0.826403 0.350511 0.352364
0.851157 0.391459 0.400779
0.872003 0.436874 0.452319
0.890546 0.489216 0.507722
0.907461 0.543291 0.558513
0.922188 0.593359 0.604996
0.935635 0.641336 0.646448
0.947059 0.683757 0.681538
0.956684 0.720853 0.712365
0.964882 0.753518 0.738942
0.968646 0.784484 0.765571
0.970849 0.812361 0.789709
0.972637 0.835068 0.809968
0.974085 0.853493 0.826653
0.244142 0.347856 0.095882
0.243410 0.346806 0.095685
0.242704 0.345756 0.095482
0.242034 0.344706 0.095270
0.241414 0.343658 0.095048
0.240874 0.342616 0.094809
0.240377 0.341326 0.094475
0.240271 0.339573 0.093887
0.242482 0.337498 0.092616
0.259614 0.336575 0.087166
0.292627 0.338497 0.083409
0.329696 0.343119 0.124934
0.394092 0.341268 0.138834
0.474035 0.329473 0.139669
0.551297 0.312379 0.160790
0.614168 0.294140 0.195545
0.676662 0.291290 0.229493
0.736160 0.305103 0.266392
0.791934 0.328760 0.305842
0.826878 0.360574 0.349657
0.851778 0.399231 0.398387
0.872708 0.443107 0.450177
0.891242 0.494175 0.506007
0.908017 0.546774 0.557292
0.922617 0.595830 0.604097
0.935950 0.643064 0.645836
0.947271 0.684896 0.681116
0.956830 0.721637 0.712075
0.964980 0.754049 0.738743
0.968672 0.784881 0.765490
0.970865 0.812629 0.789676
0.972648 0.835243 0.809956
0.974092 0.853610 0.826653
0.288905 0.401925 0.103823
0.288383 0.401074 0.103663
0.287889 0.400224 0.103497
0.287429 0.399377 0.103323
0.287015 0.398534 0.103138
0.286657 0.397696 0.102941
0.286313 0.396658 0.102671
0.286098 0.395229 0.102232
0.286604 0.393415 0.101465
0.290651 0.391368 0.099594
0.312877 0.390904 0.091461
0.349598 0.393358 0.094046
0.391286 0.398934 0.141859
0.460725 0.396740 0.159037
0.546457 0.383213 0.162609
0.619223 0.362968 0.185266
0.678856 0.340643 0.226178
0.736037 0.335446 0.263426
0.791481 0.349516 0.302361
0.827729 0.375629 0.346055
0.852721 0.410379 0.395162
0.873731 0.451943 0.447296
0.892203 0.500987 0.503687
0.908765 0.551465 0.555650
0.923195 0.599162 0.602890
0.936371 0.645378 0.645016
0.947555 0.686418 0.680552
0.957026 0.722682 0.711689
0.965111 0.754754 0.738478
0.968707 0.785410 0.765384
0.970887 0.812984 0.789632
0.972661 0.835476 0.809941
0.974101 0.853764 0.826654
0.337121 0.461871 0.111526
0.336773 0.461168 0.111385
0.336447 0.460464 0.111238
0.336144 0.459762 0.111084
0.335869 0.459060 0.110923
0.335626 0.458361 0.110753
0.335375 0.457488 0.110526
0.335159 0.456272 0.110171
0.335261 0.454693 0.109597
0.336516 0.452701 0.108526
0.342333 0.450495 0.105843
0.369380 0.450189 0.094188
0.410716 0.453041 0.108105
0.456258 0.459130 0.160685
0.532522 0.456385 0.180580
0.614259 0.441503 0.187763
0.686375 0.418524 0.209115
0.740787 0.392616 0.255155
0.792092 0.384742 0.297299
0.829337 0.399149 0.341181
0.854213 0.426830 0.390759
0.875250 0.464725 0.443379
0.893544 0.510441 0.500523
0.909774 0.557808 0.553429
0.923974 0.603678 0.601262
0.936934 0.648485 0.643913
0.947933 0.688458 0.679797
0.957285 0.724078 0.711174
0.965284 0.755694 0.738125
0.968752 0.786114 0.765243
0.970916 0.813456 0.789574
0.972679 0.835784 0.809921
0.974112 0.853969 0.826655
0.385927 0.523170 0.109792
0.385742 0.522669 0.109819
0.385573 0.522167 0.109837
0.385423 0.521666 0.109847
0.385295 0.521165 0.109847
0.385191 0.520664 0.109837
0.385100 0.520039 0.109808
0.385058 0.519167 0.109731
0.385200 0.518022 0.109547
0.385865 0.516538 0.109109
0.388091 0.514683 0.107968
0.396518 0.512773 0.103945
0.429363 0.513175 0.083227
0.477264 0.517230 0.114818
0.528391 0.524508 0.172385
0.602750 0.521445 0.194125
0.680112 0.505914 0.209280
0.748159 0.479047 0.228689
0.798091 0.447244 0.281513
0.833427 0.437299 0.332761
0.856871 0.453054 0.384509
0.877572 0.483675 0.437956
0.895436 0.523720 0.496150
0.911148 0.566480 0.550399
0.925033 0.609843 0.599052
0.937688 0.652673 0.642421
0.948439 0.691199 0.678783
0.957631 0.725946 0.710483
0.965514 0.756948 0.737653
0.968812 0.787052 0.765058
0.970954 0.814084 0.789498
0.972703 0.836194 0.809896
0.974127 0.854241 0.826657
0.431028 0.579152 0.081952
0.430985 0.578806 0.082108
0.430954 0.578461 0.082253
0.430936 0.578116 0.082387
0.430933 0.577771 0.082508
0.430946 0.577427 0.082617
0.430987 0.576998 0.082732
0.431097 0.576398 0.082853
0.431349 0.575609 0.082927
0.431918 0.574576 0.082838
0.433301 0.573252 0.082217
0.436990 0.571646 0.079807
0.448388 0.570127 0.069560
0.488761 0.571120 0.000000
0.543348 0.576927 0.110840
0.598739 0.584977 0.173291
0.668307 0.581699 0.198001
0.739696 0.567467 0.225664
0.803129 0.541246 0.248236
0.846068 0.506611 0.306428
0.863648 0.495665 0.371594
0.881509 0.512170 0.429706
0.898125 0.542596 0.489978
0.913078 0.578712 0.546205
0.926480 0.618336 0.596019
0.938700 0.658346 0.640388
0.949116 0.694902 0.677414
0.958092 0.728454 0.709555
0.965820 0.758626 0.737021
0.968891 0.788305 0.764815
0.971004 0.814919 0.789398
0.972734 0.836739 0.809862
0.974147 0.854602 0.826660
0.474390 0.629591 0.000000
0.474429 0.629362 0.000000
0.474477 0.629133 0.000000
0.474534 0.628904 0.000000
0.474601 0.628675 0.000000
0.474679 0.628447 0.000000
0.474795 0.628161 0.000000
0.474995 0.627761 0.000000
0.475335 0.627233 0.000000
0.475942 0.626538 0.000000
0.477089 0.625630 0.000000
0.479426 0.624465 0.000000
0.484736 0.623039 0.000000
0.499822 0.621703 0.000000
0.548492 0.623367 0.000000
0.609878 0.631855 0.099845
0.663420 0.638951 0.164049
0.728588 0.635508 0.197067
0.793249 0.621873 0.239395
0.851982 0.597320 0.272051
0.877279 0.564899 0.337400
0.890118 0.553574 0.411795
0.902598 0.568892 0.479948
0.915830 0.596320 0.540253
0.928465 0.630170 0.591798
0.940058 0.666077 0.637590
0.950025 0.699935 0.675551
0.958707 0.731837 0.708299
0.966226 0.760876 0.736172
0.968995 0.789981 0.764496
0.971070 0.816034 0.789269
0.972775 0.837465 0.809821
0.974173 0.855081 0.826665
0.514004 0.672653 0.000000
0.514118 0.672506 0.000000
0.514240 0.672360 0.000000
0.514370 0.672213 0.000000
0.514507 0.672067 0.000000
0.514652 0.671921 0.000000
0.514845 0.671739 0.000000
0.515140 0.671484 0.000000
0.515577 0.671148 0.000000
0.516247 0.670705 0.000000
0.517319 0.670125 0.000000
0.519137 0.669374 0.000000
0.522481 0.668422 0.000000
0.529632 0.667312 0.000000
0.548880 0.666619 0.000000
0.607282 0.670576 0.000000
0.671429 0.680662 0.086770
0.723120 0.686985 0.151586
0.781132 0.683787 0.196649
0.840954 0.671375 0.255598
0.881249 0.650242 0.307655
0.901980 0.618625 0.375863
0.911636 0.606722 0.458679
0.920832 0.621247 0.529745
0.931308 0.646766 0.585638
0.941879 0.676677 0.633680
0.951249 0.706832 0.672990
0.959530 0.736427 0.706590
0.966768 0.763905 0.735025
0.969129 0.792231 0.764080
0.971156 0.817523 0.789103
0.972829 0.838434 0.809768
0.974207 0.855719 0.826673
0.548292 0.710359 0.000000
0.548455 0.710264 0.000000
0.548622 0.710170 0.000000
0.548794 0.710075 0.000000
0.548971 0.709981 0.000000
0.549153 0.709887 0.000000
0.549389 0.709769 0.000000
0.549736 0.709605 0.000000
0.550223 0.709390 0.000000
0.550922 0.709107 0.000000
0.551956 0.708737 0.000000
0.553557 0.708261 0.000000
0.556188 0.707660 0.000000
0.560896 0.706946 0.000000
0.570500 0.706250 0.000000
0.595396 0.706444 0.000000
0.664166 0.712283 0.000000
0.725804 0.722463 0.090960
0.773876 0.727448 0.145383
0.826744 0.724517 0.204554
0.879950 0.713735 0.279685
0.903911 0.696849 0.350357
0.921246 0.669015 0.423280
0.929883 0.656890 0.507745
0.936534 0.669243 0.574320
0.944605 0.691084 0.627690
0.952919 0.716368 0.669393
0.960631 0.742699 0.704237
0.967095 0.768347 0.733926
0.969304 0.795265 0.763543
0.971268 0.819517 0.788892
0.972900 0.839729 0.809705
0.974253 0.856569 0.826686
0.577602 0.743884 0.000000
0.577790 0.743823 0.000000
0.577981 0.743762 0.000000
0.578176 0.743701 0.000000
0.578375 0.743641 0.000000
0.578578 0.743580 0.000000
0.578837 0.743505 0.000000
0.579212 0.743400 0.000000
0.579730 0.743262 0.000000
0.580454 0.743080 0.000000
0.581487 0.742844 0.000000
0.583001 0.742537 0.000000
0.585303 0.742147 0.000000
0.588998 0.741666 0.000000
0.595421 0.741123 0.000000
0.608307 0.740710 0.000000
0.639907 0.741454 0.000000
0.715987 0.749518 0.000000
0.773978 0.759261 0.117721
0.817848 0.762929 0.152541
0.865565 0.760447 0.224199
0.903895 0.751574 0.315616
0.921880 0.737458 0.398343
0.936931 0.712904 0.476822
0.944526 0.700646 0.552925
0.949562 0.710687 0.616554
0.955704 0.729296 0.663484
0.962251 0.751223 0.700753
0.967425 0.774509 0.732603
0.969527 0.799378 0.762856
0.971413 0.822198 0.788629
0.972993 0.841465 0.809633
0.974312 0.857703 0.826710
0.602527 0.773267 0.000000
0.602733 0.773221 0.000000
0.602941 0.773176 0.000000
0.603153 0.773131 0.000000
0.603367 0.773086 0.000000
0.603583 0.773041 0.000000
0.603859 0.772985 0.000000
0.604252 0.772907 0.000000
0.604788 0.772805 0.000000
0.605525 0.772671 0.000000
0.606550 0.772496 0.000000
0.608002 0.772270 0.000000
0.610107 0.771982 0.000000
0.613269 0.771624 0.000000
0.618304 0.771209 0.000000
0.627065 0.770815 0.000000
0.644022 0.770755 0.000000
0.683327 0.772636 0.000000
0.762317 0.782324 0.000000
0.814935 0.791059 0.159423
0.855264 0.793773 0.177557
0.896701 0.791955 0.257456
0.922042 0.785095 0.358678
0.937021 0.773853 0.452565
0.949503 0.751811 0.526703
0.956561 0.739346 0.596518
0.960433 0.746958 0.652697
0.964988 0.762645 0.694854
0.967828 0.783050 0.730937
0.969805 0.804992 0.761998
0.971597 0.825815 0.788315
0.973112 0.843801 0.809558
0.974389 0.859219 0.826752
0.622291 0.799413 0.000000
0.622518 0.799382 0.000000
0.622746 0.799350 0.000000
0.622977 0.799319 0.000000
0.623210 0.799288 0.000000
0.623445 0.799257 0.000000
0.623743 0.799218 0.000000
0.624167 0.799164 0.000000
0.624739 0.799093 0.000000
0.625518 0.799000 0.000000
0.626588 0.798879 0.000000
0.628075 0.798722 0.000000
0.630175 0.798522 0.000000
0.633211 0.798272 0.000000
0.637739 0.797971 0.000000
0.644798 0.797643 0.000000
0.656515 0.797385 0.000000
0.677992 0.797574 0.000000
0.725770 0.800282 0.000000
0.802069 0.809778 0.164236
0.849625 0.818008 0.212526
0.886377 0.820204 0.217834
0.920177 0.819672 0.301779
0.936823 0.815410 0.410945
0.949388 0.805886 0.504321
0.959391 0.786219 0.575938
0.963632 0.775187 0.640787
0.966216 0.780856 0.689936
0.968281 0.795049 0.728941
0.970140 0.812717 0.761027
0.971827 0.830721 0.787963
0.973265 0.846956 0.809496
0.974488 0.861249 0.826824
0.641921 0.817548 0.198816
0.642151 0.817537 0.198623
0.642382 0.817526 0.198429
0.642615 0.817515 0.198235
0.642849 0.817504 0.198042
0.643085 0.817493 0.197848
0.643382 0.817480 0.197606
0.643803 0.817461 0.197267
0.644369 0.817437 0.196818
0.645132 0.817406 0.196225
0.646168 0.817366 0.195440
0.647586 0.817315 0.194404
0.649548 0.817252 0.193040
0.652301 0.817177 0.191252
0.656246 0.817095 0.188929
0.662053 0.817019 0.185965
0.670934 0.816996 0.182352
0.685675 0.817176 0.178627
0.713144 0.818122 0.178018
0.763264 0.821698 0.193405
0.834453 0.831734 0.246061
0.877839 0.839568 0.272204
0.910607 0.841268 0.269326
0.935579 0.842222 0.353989
0.948335 0.841841 0.471892
0.956618 0.836420 0.569233
0.962762 0.820174 0.636027
0.966406 0.808451 0.686162
0.968696 0.812173 0.726865
0.970512 0.823449 0.760104
0.972100 0.837408 0.787632
0.973456 0.851236 0.809487
0.974615 0.863976 0.826955
0.660554 0.832512 0.296444
0.660779 0.832504 0.296328
0.661004 0.832496 0.296212
0.661231 0.832488 0.296096
0.661458 0.832481 0.295980
0.661687 0.832473 0.295864
0.661974 0.832463 0.295719
0.662380 0.832450 0.295516
0.662922 0.832432 0.295247
0.663649 0.832410 0.294891
0.664627 0.832380 0.294420
0.665950 0.832343 0.293798
0.667750 0.832295 0.292978
0.670225 0.832237 0.291899
0.673679 0.832169 0.290486
0.678687 0.832102 0.288660
0.686172 0.832061 0.286356
0.697734 0.832113 0.283606
0.716212 0.832444 0.280855
0.746043 0.833572 0.280052
0.795590 0.837538 0.289605
0.861058 0.848903 0.321375
0.901133 0.856900 0.334360
0.928408 0.857623 0.325432
0.944987 0.863971 0.454438
0.953728 0.866560 0.562141
0.960837 0.862380 0.638416
0.965744 0.848200 0.687128
0.968860 0.836794 0.726251
0.970851 0.838476 0.759620
0.972404 0.846606 0.787495
0.973686 0.857071 0.809620
0.974774 0.867652 0.827193
0.681431 0.846423 0.376535
0.681654 0.846418 0.376465
0.681877 0.846414 0.376395
0.682101 0.846410 0.376326
0.682326 0.846406 0.376256
0.682552 0.846402 0.376186
0.682835 0.846397 0.376099
0.683235 0.846390 0.375977
0.683768 0.846380 0.375816
0.684481 0.846369 0.375602
0.685437 0.846353 0.375320
0.686725 0.846334 0.374947
0.688468 0.846310 0.374454
0.690843 0.846282 0.373806
0.694107 0.846250 0.372955
0.698641 0.846219 0.371847
0.705026 0.846200 0.370419
0.714163 0.846221 0.368626
0.727437 0.846346 0.366500
0.746793 0.846731 0.364347
0.776637 0.847919 0.363764
0.824503 0.852028 0.371525
0.883349 0.862916 0.394743
0.920049 0.870951 0.400158
0.941186 0.873631 0.417003
0.951534 0.883107 0.554931
0.958917 0.885697 0.637514
0.964500 0.881973 0.693954
0.968449 0.869814 0.730959
0.970994 0.859251 0.760840
0.972691 0.859435 0.788062
0.973945 0.865056 0.810104
0.974965 0.872620 0.827631
0.707814 0.858946 0.442656
0.708013 0.858943 0.442611
0.708213 0.858941 0.442565
0.708412 0.858938 0.442519
0.708613 0.858936 0.442474
0.708813 0.858934 0.442428
0.709064 0.858931 0.442371
0.709418 0.858926 0.442291
0.709887 0.858921 0.442185
0.710512 0.858914 0.442045
0.711345 0.858905 0.441860
0.712457 0.858894 0.441615
0.713944 0.858879 0.441292
0.715939 0.858862 0.440866
0.718626 0.858841 0.440306
0.722259 0.858819 0.439572
0.727195 0.858799 0.438617
0.733936 0.858791 0.437388
0.743175 0.858814 0.435840
0.756422 0.858939 0.434021
0.776162 0.859356 0.432299
0.805966 0.860625 0.432199
0.849619 0.864616 0.438978
0.902708 0.875029 0.458083
0.934674 0.881817 0.460125
0.949065 0.890498 0.535923
0.957179 0.897583 0.631136
0.963206 0.899889 0.695419
0.967672 0.896877 0.739342
0.970779 0.886602 0.767323
0.972854 0.877050 0.790573
0.974197 0.875956 0.811398
0.975181 0.879335 0.828457
0.735408 0.870457 0.501751
0.735559 0.870455 0.501721
0.735710 0.870453 0.501691
0.735861 0.870451 0.501661
0.736013 0.870450 0.501631
0.736164 0.870448 0.501601
0.736354 0.870446 0.501563
0.736621 0.870443 0.501510
0.736976 0.870439 0.501440
0.737447 0.870434 0.501347
0.738075 0.870427 0.501225
0.738911 0.870419 0.501062
0.740027 0.870408 0.500848
0.741522 0.870394 0.500564
0.743529 0.870378 0.500191
0.746236 0.870358 0.499699
0.749908 0.870338 0.499054
0.754924 0.870320 0.498215
0.761840 0.870317 0.497138
