color-grading/luts/03_combined_slog3/BNC_SLog3_L12_Vivid.cube
TITLE "BNC SLog3 L12 Vivid"
# BNC Grade v1.0 - S-Log3/S-Gamut3.Cine -> BNC Base -> High-punch, high-vibrance grade with cool blue shadows lifted in luminance for extra pop.
# Input: S-Log3 / S-Gamut3.Cine | Output: Rec.709 Gamma 2.4
LUT_3D_SIZE 9
DOMAIN_MIN 0.0 0.0 0.0
DOMAIN_MAX 1.0 1.0 1.0
0.002839 0.002839 0.002839
0.043390 0.000000 0.000000
0.194539 0.004311 0.005875
0.416950 0.011501 0.042338
0.683845 0.010255 0.139657
0.850840 0.265158 0.335289
0.921965 0.537126 0.599808
0.949766 0.756174 0.797762
0.959967 0.875922 0.900631
0.000034 0.032320 0.014593
0.009849 0.020725 0.005835
0.173112 0.011861 0.003146
0.408783 0.012132 0.016177
0.685142 0.016520 0.127940
0.851652 0.271316 0.332631
0.922382 0.539431 0.599084
0.949837 0.756733 0.797633
0.959978 0.876039 0.900610
0.007438 0.182306 0.083589
0.005671 0.173792 0.079612
0.137633 0.165117 0.004809
0.396159 0.109524 0.000000
0.689236 0.033167 0.100328
0.853022 0.281619 0.328307
0.923041 0.543134 0.597922
0.949948 0.757621 0.797427
0.959994 0.876225 0.900578
0.014035 0.394413 0.181306
0.009193 0.390708 0.179318
0.017531 0.384964 0.175212
0.338357 0.376514 0.013456
0.682019 0.261458 0.011730
0.858016 0.318894 0.313631
0.925075 0.555133 0.594170
0.950351 0.760312 0.796713
0.960047 0.876804 0.900476
0.022377 0.635707 0.300255
0.013132 0.634752 0.298749
0.027490 0.633177 0.296375
0.019943 0.629100 0.279141
0.588000 0.627792 0.025542
0.875208 0.525331 0.234331
0.930860 0.596610 0.581038
0.951427 0.769051 0.794520
0.960205 0.878596 0.900154
0.034738 0.780865 0.391701
0.030940 0.780763 0.390500
0.031881 0.780618 0.388644
0.027628 0.780074 0.381451
0.036972 0.778392 0.327464
0.760972 0.788462 0.030536
0.926733 0.757087 0.510531
0.954374 0.797885 0.785823
0.960665 0.884168 0.899059
0.010457 0.842365 0.487557
0.040044 0.842583 0.487066
0.013729 0.843219 0.485561
0.030488 0.844930 0.481514
0.034675 0.851078 0.464776
0.345969 0.866663 0.412045
0.853299 0.862804 0.310672
0.944660 0.889367 0.726027
0.961642 0.901210 0.894354
0.469085 0.907375 0.659945
0.470271 0.907416 0.660124
0.471215 0.907484 0.660026
0.474754 0.907695 0.659957
0.485119 0.908353 0.659458
0.518770 0.910446 0.657831
0.643613 0.917134 0.642393
0.906267 0.909059 0.579057
0.955177 0.936230 0.854964
0.681718 0.936133 0.788989
0.681832 0.936142 0.788980
0.682012 0.936157 0.788966
0.682576 0.936201 0.788921
0.684600 0.936335 0.788920
0.690667 0.936757 0.788745
0.710131 0.938081 0.787640
0.786138 0.941590 0.775586
0.934772 0.935631 0.742713
0.003101 0.000007 0.016609
0.037224 0.000000 0.015734
0.190967 0.005795 0.019012
0.415182 0.013562 0.068677
0.682615 0.015299 0.157213
0.850559 0.263658 0.342889
0.921777 0.536517 0.602354
0.949726 0.756014 0.798321
0.959960 0.875887 0.900727
0.000017 0.016454 0.011058
0.008621 0.008621 0.008621
0.168392 0.002676 0.010391
0.406529 0.009156 0.055480
0.683880 0.009701 0.146849
0.851379 0.269776 0.340265
0.922198 0.538819 0.601639
0.949797 0.756573 0.798192
0.959970 0.876004 0.900707
0.000179 0.170747 0.078365
0.006053 0.161712 0.074223
0.134002 0.151646 0.006028
0.395959 0.087648 0.010474
0.687902 0.019756 0.124198
0.852763 0.280013 0.335999
0.922864 0.542519 0.600492
0.949909 0.757462 0.797988
0.959987 0.876190 0.900675
0.015172 0.389452 0.180075
0.009079 0.385702 0.177963
0.014043 0.379803 0.173820
0.336926 0.370666 0.015460
0.686989 0.245371 0.003045
0.857817 0.317049 0.321566
0.924923 0.554510 0.596787
0.950314 0.760153 0.797278
0.960040 0.876769 0.900574
0.023783 0.634632 0.302186
0.019090 0.633755 0.300764
0.029493 0.632153 0.298379
0.018250 0.627986 0.281415
0.587665 0.626116 0.026969
0.875805 0.522658 0.244996
0.930809 0.595984 0.583820
0.951396 0.768895 0.795098
0.960199 0.878562 0.900252
0.034060 0.781136 0.394140
0.026398 0.781029 0.392877
0.026562 0.780881 0.391017
0.014006 0.780328 0.383823
0.036563 0.778527 0.330837
0.761377 0.788573 0.029327
0.927234 0.756831 0.513852
0.954370 0.797748 0.786452
0.960660 0.884136 0.899161
0.035205 0.842595 0.489573
0.033146 0.842932 0.488792
0.035536 0.843449 0.487598
0.030919 0.845147 0.483366
0.031678 0.851300 0.466782
0.345401 0.866930 0.414555
0.853624 0.863094 0.313732
0.944778 0.889407 0.726824
0.961642 0.901188 0.894473
0.469170 0.907423 0.660471
0.469766 0.907465 0.660409
0.471299 0.907532 0.660552
0.474255 0.907745 0.660243
0.485196 0.908403 0.659990
0.518823 0.910500 0.658376
0.643589 0.917207 0.642992
0.906370 0.909157 0.579695
0.955198 0.936244 0.855135
0.681742 0.936141 0.789107
0.681856 0.936150 0.789098
0.682037 0.936164 0.789084
0.682600 0.936209 0.789039
0.684624 0.936343 0.789038
0.690425 0.936769 0.788723
0.710150 0.938090 0.787764
0.786139 0.941605 0.775725
0.934793 0.935651 0.742855
0.000033 0.026309 0.119995
0.026587 0.000053 0.128714
0.185796 0.004448 0.145447
0.412944 0.009669 0.139299
0.680844 0.011162 0.187078
0.850062 0.261294 0.355359
0.921466 0.535546 0.606403
0.949661 0.755759 0.799207
0.959948 0.875832 0.900880
0.000031 0.024276 0.115818
0.007364 0.001292 0.119549
0.161773 0.004336 0.134945
0.403498 0.012718 0.128257
0.681817 0.008811 0.178462
0.850896 0.267349 0.352772
0.921894 0.537845 0.605703
0.949732 0.756319 0.799080
0.959959 0.875949 0.900860
0.000157 0.155121 0.135719
0.002609 0.144886 0.132478
0.132334 0.132334 0.132334
0.397363 0.003148 0.098952
0.685259 0.019038 0.161155
0.852304 0.277479 0.348597
0.922571 0.541540 0.604579
0.949845 0.757208 0.798877
0.959976 0.876135 0.900828
0.011951 0.382208 0.186160
0.014958 0.378235 0.183685
0.014935 0.372027 0.178978
0.334660 0.361379 0.008796
0.687688 0.229160 0.099691
0.857458 0.314135 0.334548
0.924668 0.553517 0.600951
0.950253 0.759900 0.798174
0.960028 0.876714 0.900727
0.020495 0.633230 0.306463
0.028603 0.632143 0.305204
0.018955 0.630676 0.302479
0.006874 0.626276 0.286186
0.587299 0.623604 0.000000
0.876759 0.518375 0.262032
0.930713 0.594982 0.588249
0.951346 0.768648 0.796013
0.960188 0.878507 0.900408
0.019060 0.781511 0.398010
0.036844 0.781292 0.397179
0.033526 0.781135 0.395258
0.018890 0.780568 0.388080
0.017218 0.779055 0.336180
0.762074 0.788794 0.032037
0.928027 0.756424 0.519165
0.954362 0.797530 0.787449
0.960651 0.884085 0.899324
0.036505 0.843082 0.492489
0.029587 0.843414 0.491646
0.022240 0.843923 0.490348
0.032220 0.845495 0.486321
0.026720 0.851656 0.469982
0.344516 0.867359 0.418561
0.854150 0.863562 0.318611
0.944964 0.889471 0.728090
0.961642 0.901152 0.894662
0.469307 0.907498 0.661305
0.469903 0.907541 0.661244
0.470847 0.907609 0.661147
0.474388 0.907821 0.661081
0.484758 0.908482 0.660590
0.518910 0.910584 0.659240
0.643551 0.917324 0.643942
0.906533 0.909313 0.580709
0.955231 0.936267 0.855406
0.681781 0.936153 0.789294
0.681895 0.936162 0.789285
0.682075 0.936177 0.789271
0.682639 0.936222 0.789226
0.684662 0.936356 0.789226
0.690461 0.936782 0.788913
0.709937 0.938108 0.787814
0.786141 0.941628 0.775945
0.934826 0.935683 0.743078
0.018468 0.008283 0.296714
0.040344 0.005610 0.297186
0.158735 0.006409 0.326625
0.398163 0.012916 0.342267
0.673604 0.019620 0.321991
0.847908 0.254036 0.400120
0.920391 0.532472 0.619170
0.949510 0.754849 0.801927
0.959912 0.875660 0.901354
0.015573 0.003136 0.295066
0.029080 0.007868 0.294424
0.131013 0.002270 0.314301
0.387720 0.012175 0.338099
0.674071 0.008093 0.316401
0.848799 0.259881 0.397529
0.920840 0.534759 0.618516
0.949583 0.755410 0.801803
0.959923 0.875777 0.901335
0.016022 0.000207 0.315900
0.022664 0.008196 0.309231
0.084170 0.009042 0.306878
0.372566 0.012825 0.332893
0.675991 0.022118 0.306826
0.850304 0.269663 0.393360
0.921551 0.538436 0.617468
0.949699 0.756301 0.801605
0.959940 0.875963 0.901303
0.015229 0.369045 0.341627
0.012213 0.364475 0.340441
0.006633 0.357133 0.338598
0.350819 0.350819 0.350818
0.682583 0.190366 0.274298
0.855835 0.305093 0.379693
0.923765 0.550364 0.614085
0.950057 0.759102 0.800979
0.959993 0.876543 0.901205
0.016004 0.631390 0.343164
0.019258 0.630295 0.341741
0.010078 0.628668 0.339147
0.027404 0.623823 0.325722
0.589475 0.618730 0.010329
0.879674 0.504613 0.317603
0.930295 0.591781 0.602245
0.951181 0.767867 0.798880
0.960154 0.878338 0.900892
0.033304 0.782953 0.413653
0.020543 0.782835 0.412400
0.035499 0.782552 0.410836
0.033743 0.781972 0.404251
0.026377 0.780711 0.357070
0.764900 0.790046 0.036235
0.930489 0.755135 0.536177
0.954329 0.796836 0.790571
0.960623 0.883924 0.899828
0.028956 0.844301 0.501320
0.015474 0.844633 0.500513
0.037505 0.845025 0.499553
0.039958 0.846602 0.495710
0.005965 0.852791 0.480151
0.341873 0.868734 0.431294
0.855872 0.865107 0.334129
0.945545 0.889670 0.732063
0.961642 0.901041 0.895249
0.468572 0.907738 0.663450
0.469168 0.907781 0.663390
0.470702 0.907849 0.663532
0.474240 0.908062 0.663471
0.484601 0.908728 0.662999
0.518202 0.910847 0.661457
0.643445 0.917688 0.646930
0.907047 0.909805 0.583899
0.955335 0.936337 0.856251
0.681628 0.936197 0.789740
0.681742 0.936206 0.789731
0.681922 0.936220 0.789717
0.682486 0.936265 0.789673
0.684510 0.936400 0.789674
0.690575 0.936823 0.789506
0.710032 0.938154 0.788427
0.786146 0.941699 0.776631
0.934928 0.935782 0.743777
0.104142 0.004057 0.528010
0.119266 0.016282 0.528781
0.151610 0.011051 0.533548
0.359033 0.009314 0.589021
0.636250 0.017675 0.583381
0.834003 0.218781 0.578555
0.916021 0.522549 0.659530
0.948838 0.752176 0.810548
0.959797 0.875121 0.902806
0.099246 0.012402 0.530214
0.113412 0.012459 0.530755
0.143287 0.016022 0.533952
0.347418 0.017585 0.588532
0.634681 0.017061 0.583251
0.834579 0.226038 0.577299
0.916524 0.524788 0.659038
0.948916 0.752739 0.810434
0.959808 0.875239 0.902788
0.092000 0.015161 0.537010
0.104826 0.005551 0.537031
0.131456 0.016593 0.538080
0.327951 0.018158 0.589408
0.632634 0.021695 0.583567
0.835571 0.237866 0.575332
0.917324 0.528391 0.658249
0.949041 0.753633 0.810253
0.959826 0.875425 0.902758
0.008376 0.191111 0.552074
0.000183 0.169829 0.574337
0.072697 0.147203 0.587707
0.250817 0.130001 0.601993
0.637545 0.016238 0.596215
0.839508 0.277915 0.569414
0.919849 0.540103 0.655705
0.949426 0.756447 0.809680
0.959880 0.876007 0.902666
0.015795 0.637107 0.608288
0.027075 0.635701 0.608003
0.014882 0.633646 0.607714
0.005645 0.627669 0.607376
0.649656 0.649655 0.649655
0.877651 0.455724 0.547922
0.927737 0.581126 0.646818
0.950643 0.765260 0.807768
0.960047 0.877809 0.902371
0.033241 0.795301 0.508868
0.035542 0.795186 0.508095
0.034183 0.794892 0.506665
0.011019 0.794438 0.501753
0.036056 0.794468 0.473428
0.784142 0.804190 0.312557
0.937668 0.750745 0.592781
0.954128 0.794573 0.800298
0.960533 0.883421 0.901370
0.028080 0.848726 0.531498
0.040293 0.848941 0.531036
0.030211 0.849451 0.529958
0.003861 0.851028 0.526619
0.036539 0.856795 0.514252
0.335365 0.873361 0.473173
0.862022 0.870708 0.384920
0.947336 0.890282 0.744580
0.961634 0.900686 0.897042
0.467789 0.908483 0.670783
0.468384 0.908527 0.670728
0.469327 0.908598 0.670641
0.472868 0.908816 0.670595
0.483800 0.909496 0.670412
0.517787 0.911669 0.669297
0.642905 0.918819 0.656099
0.908675 0.911366 0.594015
0.955654 0.936552 0.858866
0.681466 0.936326 0.791281
0.681580 0.936335 0.791273
0.681760 0.936349 0.791259
0.682324 0.936395 0.791217
0.684347 0.936530 0.791223
0.690410 0.936957 0.791070
0.709851 0.938301 0.790044
0.786169 0.941920 0.778767
0.935246 0.936088 0.745948
0.251574 0.020395 0.780746
0.260866 0.020278 0.782267
0.277070 0.023310 0.785196
0.342691 0.033934 0.800097
0.628881 0.020170 0.815087
0.811408 0.019207 0.799137
0.891744 0.488297 0.791631
0.946137 0.742757 0.837813
0.959407 0.873403 0.907163
0.248328 0.015030 0.785137
0.257457 0.008690 0.786586
0.273294 0.023276 0.788928
0.336870 0.065385 0.798940
0.625202 0.059294 0.815699
0.812046 0.019381 0.799940
0.892279 0.490280 0.791622
0.946229 0.743322 0.837736
0.959419 0.873522 0.907148
0.242213 0.072894 0.785887
0.251035 0.073662 0.786789
0.266354 0.076216 0.788520
0.327771 0.094206 0.797098
0.618642 0.095315 0.815538
0.812711 0.042526 0.800840
0.893138 0.493475 0.791610
0.946374 0.744220 0.837614
0.959438 0.873710 0.907125
0.221305 0.157294 0.782484
0.229594 0.156562 0.783146
0.243852 0.155875 0.784438
0.299960 0.158792 0.791279
0.599079 0.169069 0.817735
0.810895 0.123471 0.799461
0.895924 0.503902 0.791590
0.946827 0.747050 0.837226
0.959497 0.874297 0.907049
0.019817 0.417444 0.785926
0.036951 0.412799 0.790595
0.094181 0.407149 0.789377
0.179634 0.390246 0.786572
0.514836 0.387340 0.831235
0.813549 0.295533 0.803099
0.905539 0.541024 0.791677
0.948278 0.755933 0.835938
0.959677 0.876116 0.906810
0.036218 0.814938 0.795707
0.034973 0.814801 0.795794
0.025089 0.814594 0.795944
0.036297 0.814037 0.796527
0.029486 0.815706 0.801881
0.869557 0.869556 0.869555
0.941585 0.718273 0.788046
0.952631 0.786052 0.831009
0.960213 0.881794 0.905994
0.028053 0.871445 0.658093
0.038132 0.871661 0.657926
0.017806 0.872161 0.657519
0.040884 0.873502 0.656490
0.040070 0.879049 0.652302
0.366384 0.892385 0.648170
0.893223 0.900247 0.593056
0.952782 0.892087 0.786164
0.961548 0.899478 0.902415
0.464727 0.910868 0.694437
0.465325 0.910915 0.694399
0.466274 0.910991 0.694339
0.469833 0.911223 0.694350
0.480811 0.911952 0.694350
0.515210 0.914289 0.694089
0.641876 0.922413 0.686397
0.914149 0.916635 0.628136
0.956633 0.937204 0.867002
0.681401 0.936718 0.796339
0.681515 0.936728 0.796332
0.681695 0.936743 0.796321
0.682258 0.936789 0.796285
0.684008 0.936933 0.796173
0.689802 0.937375 0.795937
0.709458 0.938756 0.795221
0.786316 0.942606 0.785534
0.936244 0.937051 0.752793
0.505868 0.413209 0.865059
0.510799 0.413739 0.866106
0.518691 0.414576 0.867752
0.544242 0.417148 0.872763
0.628868 0.421421 0.883168
0.818595 0.377487 0.857884
0.858595 0.405290 0.857160
0.933488 0.709153 0.908660
0.957911 0.867628 0.919487
0.503562 0.415286 0.864702
0.508512 0.415826 0.865768
0.516409 0.416675 0.867440
0.541986 0.419307 0.872561
0.626966 0.423988 0.883566
0.818721 0.380744 0.858352
0.858866 0.407156 0.857419
0.933585 0.709682 0.908710
0.957924 0.867748 0.919481
0.499844 0.418601 0.864087
0.504823 0.419154 0.865181
0.512742 0.420024 0.866898
0.538356 0.422745 0.872186
0.623891 0.428072 0.884142
0.818928 0.385967 0.859109
0.859303 0.410147 0.857836
0.933739 0.710521 0.908789
0.957946 0.867939 0.919471
0.487704 0.429136 0.861778
0.492759 0.429721 0.862947
0.500812 0.430656 0.864799
0.526540 0.433615 0.870557
0.613745 0.440939 0.885459
0.819631 0.402797 0.861608
0.860728 0.419768 0.859198
0.934223 0.713168 0.909036
0.958014 0.868534 0.919438
0.445123 0.463772 0.851311
0.450210 0.464256 0.852468
0.458386 0.465090 0.854373
0.484741 0.468168 0.860803
0.575655 0.480450 0.883226
0.818805 0.454034 0.874238
0.866615 0.448956 0.865047
0.935743 0.721614 0.909808
0.958225 0.870381 0.919335
0.349610 0.724035 0.907135
0.353462 0.722552 0.906472
0.359552 0.720113 0.905335
0.378435 0.711735 0.901020
0.434763 0.677734 0.879168
0.787604 0.686008 0.929506
0.896262 0.577377 0.894558
0.940719 0.750623 0.912251
0.958868 0.876177 0.918976
0.031455 0.881527 0.877941
0.036959 0.881711 0.878152
0.036672 0.882043 0.878531
0.026128 0.883175 0.879817
0.034804 0.887258 0.884404
0.365942 0.900552 0.898228
0.949603 0.949603 0.949602
0.958178 0.879278 0.917357
0.960736 0.894757 0.917292
0.501388 0.918417 0.799420
0.502005 0.918472 0.799444
0.502983 0.918560 0.799482
0.506049 0.918835 0.799602
0.515629 0.919703 0.799990
0.546309 0.922548 0.801335
0.660104 0.933527 0.806726
0.936340 0.938194 0.773875
0.959521 0.939026 0.892432
0.686439 0.937834 0.814995
0.686552 0.937845 0.814993
0.686730 0.937861 0.814989
0.687287 0.937911 0.814977
0.689017 0.938066 0.814940
0.694472 0.938549 0.814810
0.712550 0.940090 0.814218
0.787706 0.944735 0.808188
0.939493 0.940192 0.775543
0.754819 0.689695 0.926951
0.756307 0.689975 0.927311
0.758617 0.690284 0.927970
0.765847 0.691385 0.929686
0.787389 0.693488 0.933710
0.842712 0.683852 0.933461
0.907259 0.637693 0.917827
0.917211 0.643515 0.917424
0.951940 0.847434 0.945479
0.754108 0.690145 0.926771
0.755601 0.690430 0.927138
0.757920 0.690750 0.927806
0.765180 0.691883 0.929553
0.786829 0.694095 0.933679
0.842432 0.684711 0.933651
0.907395 0.638464 0.917983
0.917294 0.643931 0.917505
0.951955 0.847550 0.945488
0.752969 0.690849 0.926476
0.754472 0.691144 0.926852
0.756844 0.691597 0.927434
0.764146 0.692780 0.929231
0.785929 0.695049 0.933619
0.841987 0.686077 0.933952
0.907611 0.639690 0.918231
0.917426 0.644594 0.917634
0.951978 0.847735 0.945502
0.749361 0.693103 0.925364
0.750891 0.693426 0.925771
0.753262 0.693809 0.926503
0.760750 0.695264 0.928355
0.783033 0.698076 0.933250
0.840539 0.690646 0.934709
0.908289 0.643553 0.919006
0.917840 0.646683 0.918040
0.952051 0.848311 0.945546
0.737255 0.699362 0.921181
0.738860 0.699766 0.921679
0.741398 0.700396 0.922456
0.749238 0.702174 0.924881
0.773053 0.706726 0.931268
0.835986 0.704631 0.937308
0.910410 0.655849 0.921434
0.919153 0.653346 0.919323
0.952277 0.850102 0.945683
0.693241 0.715821 0.901922
0.694847 0.716243 0.902502
0.697286 0.716813 0.903501
0.705429 0.719035 0.906472
0.731514 0.726323 0.916182
0.813707 0.744355 0.939980
0.917198 0.697836 0.929270
0.923534 0.676251 0.923605
0.952982 0.855760 0.946104
0.638843 0.897524 0.943642
0.639982 0.897557 0.943753
0.641792 0.897609 0.943929
0.647485 0.897774 0.944481
0.665528 0.898288 0.946206
0.725797 0.899261 0.951281
0.930233 0.877693 0.955766
0.940575 0.778845 0.940278
0.955238 0.874455 0.947374
0.434182 0.915827 0.916582
0.434920 0.915886 0.916639
0.436091 0.915979 0.916730
0.439767 0.916274 0.917017
0.451337 0.917213 0.917931
0.489393 0.920418 0.921047
0.633183 0.933511 0.933764
0.961634 0.961634 0.961633
0.962320 0.935651 0.948923
0.702742 0.940798 0.879390
0.702870 0.940810 0.879400
0.703073 0.940828 0.879416
0.703708 0.940885 0.879466
0.705677 0.941062 0.879622
0.711865 0.941616 0.880121
0.732101 0.943426 0.881823
0.807059 0.950027 0.888395
0.951769 0.952152 0.869777
0.905370 0.865057 0.956804
0.905584 0.865051 0.956821
0.905921 0.865040 0.956847
0.906954 0.864990 0.956919
0.909969 0.864699 0.957061
0.917737 0.862551 0.956777
0.934800 0.852056 0.953929
0.945011 0.813733 0.947186
0.944836 0.800564 0.945189
0.905273 0.865202 0.956799
0.905488 0.865197 0.956817
0.905826 0.865187 0.956843
0.906863 0.865141 0.956918
0.909892 0.864861 0.957067
0.917695 0.862743 0.956801
0.934783 0.852255 0.953957
0.945036 0.813928 0.947211
0.944850 0.800664 0.945203
0.905117 0.865431 0.956792
0.905334 0.865427 0.956810
0.905674 0.865418 0.956837
0.906718 0.865378 0.956915
0.909768 0.865117 0.957075
0.917627 0.863048 0.956838
0.934755 0.852572 0.954000
0.945074 0.814238 0.947251
0.944872 0.800822 0.945224
0.904620 0.866132 0.956760
0.904841 0.866132 0.956781
0.905188 0.866130 0.956812
0.906254 0.866108 0.956901
0.909370 0.865903 0.957094
0.917408 0.863989 0.956948
0.934669 0.853558 0.954133
0.945195 0.815205 0.947376
0.944939 0.801315 0.945289
0.902964 0.868193 0.956601
0.903199 0.868204 0.956629
0.903569 0.868222 0.956671
0.904705 0.868260 0.956796
0.908032 0.868235 0.957095
0.916648 0.866824 0.957244
0.934389 0.856605 0.954545
0.945567 0.818207 0.947762
0.945149 0.802850 0.945492
0.896591 0.873468 0.955439
0.896873 0.873519 0.955491
0.897318 0.873599 0.955573
0.898686 0.873834 0.955818
0.902726 0.874414 0.956483
0.913391 0.874774 0.957669
0.933393 0.866030 0.955793
0.946712 0.827631 0.948952
0.945808 0.807715 0.946129
0.866505 0.881077 0.945862
0.866842 0.881169 0.945949
0.867376 0.881317 0.946088
0.869055 0.881789 0.946529
0.874328 0.883338 0.947938
0.890909 0.888472 0.952374
0.928424 0.894492 0.959171
0.950145 0.857828 0.952562
0.947960 0.824093 0.948213
0.811909 0.943845 0.954064
0.812176 0.943862 0.954087
0.812598 0.943889 0.954123
0.813918 0.943971 0.954235
0.818013 0.944227 0.954582
0.830869 0.945017 0.955658
0.871725 0.947326 0.958939
0.957339 0.942332 0.961904
0.955676 0.890352 0.955726
0.659379 0.938065 0.938531
0.659523 0.938078 0.938544
0.659751 0.938099 0.938564
0.660463 0.938164 0.938627
0.662672 0.938366 0.938823
0.669613 0.939000 0.939435
0.692597 0.941087 0.941456
0.785004 0.949201 0.949344
0.964104 0.964104 0.964103
