color-grading/luts/03_combined_slog3/BNC_SLog3_L02_Print2383.cube
TITLE "BNC SLog3 L02 Print2383"
# BNC Grade v1.0 — S-Log3/S-Gamut3.Cine -> BNC Base -> Kodak 2383 print-stock emulation: punchy contrast, a crushed toe, cool-leaning shadows against warm highlights, and an overall desaturated, filmic roll-off.
# Input: S-Log3 / S-Gamut3.Cine | Output: Rec.709 Gamma 2.4
LUT_3D_SIZE 33
DOMAIN_MIN 0.0 0.0 0.0
DOMAIN_MAX 1.0 1.0 1.0
0.000551 0.000553 0.000553
0.000551 0.000553 0.000553
0.000664 0.000559 0.000559
0.003579 0.001241 0.001058
0.013520 0.004717 0.003755
0.033776 0.013342 0.010244
0.062775 0.028144 0.021088
0.100528 0.047675 0.035343
0.149530 0.065659 0.048750
0.206083 0.082331 0.061478
0.265019 0.098007 0.073597
0.327010 0.112811 0.085234
0.393573 0.126956 0.096891
0.465739 0.140754 0.110422
0.534558 0.154175 0.127697
0.601212 0.169910 0.152019
0.664675 0.190626 0.184103
0.724543 0.218128 0.223880
0.776056 0.253132 0.268874
0.801507 0.293107 0.317465
0.822483 0.338975 0.371660
0.842239 0.391723 0.431869
0.862264 0.453848 0.498530
0.882165 0.523471 0.563191
0.900146 0.588558 0.623974
0.916014 0.651606 0.679810
0.928840 0.708180 0.728284
0.938939 0.757376 0.771131
0.946890 0.800922 0.808551
0.953020 0.838725 0.840712
0.957652 0.871228 0.866223
0.960885 0.895157 0.884821
0.963140 0.911671 0.898085
0.000551 0.000553 0.000553
0.000551 0.000553 0.000553
0.000551 0.000553 0.000553
0.002119 0.000824 0.000750
0.009036 0.003073 0.002480
0.026426 0.010003 0.007761
0.055453 0.024241 0.018240
0.093859 0.044465 0.032993
0.143069 0.063642 0.047221
0.200892 0.080872 0.060357
0.261021 0.096999 0.072808
0.323789 0.112096 0.084648
0.390871 0.126474 0.096389
0.463686 0.140631 0.109876
0.533176 0.154547 0.127068
0.600250 0.170831 0.151326
0.664067 0.192019 0.183457
0.724167 0.219829 0.223355
0.775914 0.254897 0.268516
0.801540 0.294723 0.317198
0.822546 0.340507 0.371489
0.842306 0.393075 0.431732
0.862350 0.455066 0.498456
0.882247 0.524390 0.563150
0.900214 0.589217 0.623936
0.916068 0.652077 0.679787
0.928877 0.708494 0.728265
0.938966 0.757594 0.771118
0.946909 0.801069 0.808541
0.953033 0.838825 0.840707
0.957660 0.871291 0.866221
0.960890 0.895193 0.884821
0.963143 0.911692 0.898084
0.000551 0.000553 0.000553
0.000551 0.000553 0.000553
0.000551 0.000553 0.000553
0.001203 0.000626 0.000609
0.005863 0.001981 0.001626
0.019771 0.007182 0.005636
0.048137 0.020426 0.015451
0.087269 0.041149 0.030571
0.136621 0.061604 0.045678
0.195673 0.079392 0.059220
0.257031 0.095988 0.072017
0.320564 0.111384 0.084062
0.388172 0.126014 0.095900
0.461631 0.140579 0.109356
0.531803 0.155016 0.126467
0.599297 0.171853 0.150656
0.663467 0.193490 0.182827
0.723799 0.221585 0.222839
0.775776 0.256692 0.268165
0.801577 0.296356 0.316935
0.822612 0.342051 0.371321
0.842374 0.394434 0.431598
0.862435 0.456290 0.498385
0.882328 0.525312 0.563110
0.900282 0.589878 0.623900
0.916123 0.652550 0.679765
0.928915 0.708809 0.728247
0.938994 0.757812 0.771104
0.946928 0.801217 0.808532
0.953047 0.838925 0.840702
0.957669 0.871355 0.866220
0.960895 0.895228 0.884820
0.963146 0.911712 0.898084
0.001027 0.002359 0.001031
0.000892 0.001928 0.000888
0.000783 0.001557 0.000775
0.000834 0.001264 0.000699
0.004009 0.001586 0.001188
0.014525 0.005128 0.004054
0.041196 0.016929 0.012883
0.080899 0.037843 0.028157
0.130318 0.059590 0.044155
0.190484 0.077911 0.058081
0.253072 0.094983 0.071228
0.317345 0.110684 0.083478
0.385483 0.125599 0.095426
0.459578 0.140625 0.108866
0.530441 0.155603 0.125898
0.598358 0.172988 0.150011
0.662878 0.195045 0.182212
0.723441 0.223400 0.222334
0.775644 0.258520 0.267819
0.801618 0.298013 0.316677
0.822681 0.343610 0.371157
0.842443 0.395804 0.431468
0.862521 0.457520 0.498316
0.882409 0.526236 0.563071
0.900350 0.590541 0.623864
0.916177 0.653023 0.679743
0.928952 0.709125 0.728228
0.939021 0.758030 0.771091
0.946948 0.801364 0.808522
0.953061 0.839025 0.840696
0.957678 0.871418 0.866218
0.960900 0.895264 0.884819
0.963149 0.911732 0.898084
0.003034 0.009573 0.003888
0.002590 0.008173 0.003304
0.002314 0.006964 0.002809
0.002088 0.005915 0.002386
0.003183 0.005184 0.002083
0.011506 0.005553 0.003315
0.036225 0.014748 0.011154
0.075451 0.034990 0.026060
0.124544 0.057654 0.042694
0.185438 0.076467 0.056967
0.249153 0.093998 0.070446
0.314148 0.110014 0.082902
0.382813 0.125261 0.094972
0.457533 0.140803 0.108412
0.529096 0.156332 0.125365
0.597433 0.174252 0.149392
0.662301 0.196690 0.181614
0.723092 0.225277 0.221840
0.775518 0.260381 0.267479
0.801665 0.299692 0.316423
0.822752 0.345181 0.370996
0.842514 0.397187 0.431341
0.862608 0.458756 0.498250
0.882490 0.527163 0.563034
0.900418 0.591206 0.623830
0.916231 0.653498 0.679722
0.928989 0.709441 0.728211
0.939048 0.758248 0.771078
0.946967 0.801512 0.808512
0.953075 0.839125 0.840691
0.957686 0.871482 0.866216
0.960905 0.895300 0.884818
0.963152 0.911752 0.898084
0.008730 0.027236 0.015167
0.007813 0.024410 0.013187
0.006948 0.021739 0.011347
0.006146 0.019260 0.009669
0.005469 0.017167 0.008242
0.008074 0.015762 0.006629
0.031254 0.017120 0.010035
0.071348 0.033853 0.024747
0.120135 0.056244 0.041539
0.180766 0.075180 0.055939
0.245340 0.093084 0.069689
0.310999 0.109428 0.082345
0.380177 0.125066 0.094550
0.455504 0.141156 0.108000
0.527770 0.157234 0.124872
0.596525 0.175658 0.148801
0.661737 0.198434 0.181035
0.722755 0.227217 0.221356
0.775397 0.262275 0.267146
0.801716 0.301394 0.316174
0.822827 0.346766 0.370838
0.842587 0.398581 0.431217
0.862694 0.459998 0.498186
0.882571 0.528092 0.562998
0.900485 0.591873 0.623796
0.916284 0.653974 0.679702
0.929026 0.709758 0.728193
0.939075 0.758467 0.771065
0.946986 0.801660 0.808503
0.953089 0.839226 0.840686
0.957695 0.871545 0.866215
0.960909 0.895336 0.884817
0.963154 0.911773 0.898084
0.018922 0.058584 0.037770
0.017884 0.055390 0.035501
0.016845 0.052194 0.033221
0.015814 0.049022 0.030929
0.014811 0.045940 0.028699
0.013983 0.043401 0.026769
0.013615 0.042824 0.019431
0.064697 0.044809 0.024015
0.114928 0.059307 0.041172
0.176207 0.075333 0.055192
0.240941 0.092440 0.068881
0.307189 0.109047 0.081720
0.376960 0.125209 0.094095
0.453001 0.141928 0.107556
0.526150 0.158662 0.124320
0.595419 0.177644 0.148108
0.661053 0.200770 0.180338
0.722349 0.229738 0.220768
0.775254 0.264694 0.266738
0.801788 0.303557 0.315870
0.822924 0.348768 0.370645
0.842680 0.400342 0.431068
0.862803 0.461562 0.498109
0.882671 0.529259 0.562955
0.900569 0.592711 0.623755
0.916351 0.654571 0.679677
0.929072 0.710155 0.728171
0.939109 0.758741 0.771049
0.947010 0.801845 0.808491
0.953106 0.839352 0.840680
0.957705 0.871625 0.866213
0.960915 0.895381 0.884816
0.963158 0.911798 0.898083
0.032937 0.101992 0.062935
0.032011 0.099009 0.061538
0.031035 0.096012 0.060105
0.030014 0.093011 0.058643
0.029132 0.090011 0.057200
0.028231 0.087133 0.055754
0.027212 0.084249 0.053916
0.037837 0.086289 0.038833
0.107710 0.086448 0.041546
0.171406 0.091293 0.056156
0.236530 0.100111 0.069382
0.302460 0.111444 0.081385
0.372737 0.126970 0.093731
0.449615 0.144001 0.107122
0.523976 0.161398 0.123691
0.593936 0.180926 0.147229
0.660140 0.204367 0.179416
0.721814 0.233462 0.219974
0.775072 0.268180 0.266181
0.801902 0.306656 0.315455
0.823069 0.351614 0.370383
0.842816 0.402844 0.430868
0.862957 0.463770 0.498007
0.882811 0.530902 0.562898
0.900685 0.593892 0.623700
0.916443 0.655411 0.679643
0.929136 0.710715 0.728142
0.939155 0.759127 0.771027
0.947043 0.802106 0.808474
0.953130 0.839529 0.840671
0.957720 0.871737 0.866210
0.960924 0.895444 0.884815
0.963163 0.911834 0.898083
0.049125 0.152810 0.084618
0.048356 0.150266 0.083639
0.047358 0.147730 0.082569
0.046739 0.145139 0.081615
0.045900 0.142570 0.080577
0.045061 0.140020 0.079535
0.043963 0.136998 0.078229
0.043313 0.134713 0.074336
0.093801 0.135374 0.054354
0.163660 0.134571 0.058485
0.234871 0.131844 0.068286
0.299520 0.133396 0.083445
0.368433 0.136707 0.094430
0.445608 0.150075 0.107105
0.521373 0.166884 0.123191
0.592137 0.186360 0.146256
0.659035 0.209789 0.178306
0.721175 0.238759 0.218981
0.774864 0.272973 0.265474
0.802082 0.310883 0.314928
0.823278 0.355451 0.370052
0.843005 0.406217 0.430619
0.863163 0.466726 0.497882
0.882995 0.533091 0.562829
0.900837 0.595466 0.623632
0.916564 0.656529 0.679601
0.929219 0.711458 0.728104
0.939217 0.759640 0.770999
0.947087 0.802452 0.808453
0.953161 0.839763 0.840659
0.957740 0.871885 0.866206
0.960935 0.895528 0.884813
0.963169 0.911881 0.898082
0.066867 0.208925 0.104243
0.066157 0.206878 0.103574
0.065432 0.204816 0.102890
0.064703 0.202743 0.102193
0.064223 0.200631 0.101590
0.063461 0.198545 0.100871
0.062657 0.195934 0.100018
0.061642 0.192528 0.098695
0.061396 0.193380 0.083188
0.154523 0.189681 0.070904
0.225380 0.188612 0.076204
0.298985 0.180934 0.082668
0.368815 0.174584 0.095729
0.442539 0.170404 0.108617
0.518793 0.179265 0.123295
0.590185 0.196047 0.145360
0.657815 0.218338 0.177046
0.720476 0.246477 0.217771
0.774658 0.279641 0.264578
0.802375 0.316705 0.314267
0.823585 0.360655 0.369637
0.843272 0.410787 0.430319
0.863440 0.470691 0.497736
0.883237 0.536012 0.562748
0.901037 0.597569 0.623550
0.916722 0.658020 0.679549
0.929329 0.712449 0.728056
0.939297 0.760322 0.770962
0.947145 0.802913 0.808425
0.953203 0.840075 0.840644
0.957765 0.872082 0.866201
0.960949 0.895639 0.884811
0.963177 0.911944 0.898082
0.085069 0.266943 0.120377
0.084496 0.265400 0.119955
0.083914 0.263845 0.119526
0.083669 0.262245 0.119247
0.083068 0.260671 0.118801
0.082462 0.259090 0.118349
0.081956 0.257079 0.117890
0.081031 0.254298 0.117119
0.080270 0.251520 0.114106
0.118068 0.252882 0.096964
0.221055 0.247233 0.089043
0.290490 0.246059 0.094158
0.367265 0.236505 0.099996
0.445897 0.223061 0.107074
0.519012 0.211045 0.124209
0.588971 0.215323 0.144874
0.656830 0.232639 0.175744
0.719881 0.258087 0.216344
0.774530 0.289089 0.263456
0.802873 0.324833 0.313454
0.824054 0.367766 0.369128
0.843662 0.417020 0.429970
0.863817 0.476029 0.497573
0.883555 0.539915 0.562660
0.901296 0.600385 0.623454
0.916927 0.660010 0.679488
0.929471 0.713771 0.727997
0.939402 0.761232 0.770917
0.947220 0.803526 0.808389
0.953257 0.840490 0.840625
0.957799 0.872343 0.866195
0.960968 0.895786 0.884808
0.963188 0.912027 0.898081
0.103713 0.326275 0.133133
0.103023 0.325063 0.132734
0.102738 0.323805 0.132557
0.102448 0.322544 0.132376
0.102155 0.321279 0.132191
0.101455 0.320052 0.131781
0.100985 0.318473 0.131486
0.100588 0.316233 0.131194
0.099427 0.313409 0.130256
0.099111 0.312582 0.118604
0.183039 0.312067 0.113580
0.289360 0.305228 0.106415
0.360937 0.303881 0.111826
0.442125 0.294219 0.117953
0.523627 0.277247 0.124539
0.592537 0.257360 0.142576
0.657390 0.258287 0.174211
0.719889 0.276241 0.214635
0.774693 0.302842 0.262041
0.803766 0.336384 0.312460
0.824803 0.377579 0.368507
0.844251 0.425586 0.429584
0.864339 0.483240 0.497407
0.883973 0.545139 0.562574
0.901633 0.604166 0.623353
0.917190 0.662673 0.679421
0.929655 0.715538 0.727927
0.939538 0.762445 0.770860
0.947318 0.804343 0.808344
0.953329 0.841042 0.840600
0.957844 0.872690 0.866187
0.960994 0.895981 0.884804
0.963203 0.912137 0.898080
0.123024 0.389158 0.143075
0.123000 0.388141 0.143120
0.122504 0.387172 0.142854
0.122476 0.386154 0.142894
0.121980 0.385183 0.142627
0.121486 0.384213 0.142359
0.121340 0.382951 0.142326
0.120971 0.381202 0.142154
0.120040 0.378960 0.141536
0.119040 0.376326 0.139380
0.146032 0.375980 0.128263
0.250869 0.374876 0.128287
0.360095 0.366738 0.124791
0.436482 0.364840 0.130264
0.520855 0.354434 0.136697
0.597237 0.332443 0.141521
0.664263 0.306840 0.167029
0.722062 0.306075 0.211756
0.775826 0.324111 0.260112
0.805480 0.353197 0.311178
0.826074 0.391286 0.367721
0.845203 0.437455 0.429170
0.865086 0.493015 0.497260
0.884526 0.552139 0.562510
0.902067 0.609262 0.623261
0.917526 0.666247 0.679357
0.929890 0.717907 0.727849
0.939713 0.764069 0.770793
0.947445 0.805434 0.808287
0.953421 0.841779 0.840568
0.957901 0.873151 0.866177
0.961027 0.896241 0.884799
0.963222 0.912283 0.898079
0.144338 0.457118 0.151970
0.144000 0.456331 0.151791
0.144202 0.455486 0.152028
0.143865 0.454694 0.151847
0.143529 0.453901 0.151667
0.143198 0.453106 0.151486
0.142792 0.452109 0.151260
0.142254 0.450706 0.150943
0.141692 0.448844 0.150531
0.141329 0.446453 0.149630
0.140408 0.444319 0.142803
0.204684 0.443098 0.144442
0.317676 0.441730 0.141376
0.434007 0.432049 0.144061
0.516953 0.429518 0.150168
0.594914 0.418576 0.155807
0.670964 0.392400 0.159739
0.732362 0.362138 0.198456
0.780077 0.359318 0.255737
0.809080 0.378416 0.308976
0.828417 0.410724 0.366506
0.846870 0.454026 0.428657
0.866222 0.506284 0.497129
0.885274 0.561512 0.562488
0.902628 0.616150 0.623211
0.917950 0.671054 0.679315
0.930187 0.721092 0.727771
0.939935 0.766249 0.770719
0.947607 0.806896 0.808220
0.953541 0.842763 0.840530
0.957977 0.873765 0.866164
0.961070 0.896585 0.884793
0.963247 0.912477 0.898078
0.165740 0.525013 0.161881
0.165560 0.524454 0.161759
0.165384 0.523893 0.161637
0.165214 0.523331 0.161515
0.165053 0.522768 0.161393
0.164901 0.522202 0.161272
0.164733 0.521494 0.161122
0.164554 0.520497 0.160914
0.163882 0.519237 0.160122
0.163181 0.517619 0.158753
0.162549 0.515745 0.155285
0.178517 0.513393 0.154694
0.263885 0.513617 0.158998
0.388056 0.512404 0.159211
0.513932 0.502532 0.165015
0.595672 0.498832 0.171932
0.665740 0.489539 0.176667
0.739851 0.458784 0.179679
0.793457 0.422073 0.233728
0.817545 0.417800 0.302021
0.833472 0.439830 0.363608
0.850119 0.477201 0.427473
0.868129 0.524204 0.496833
0.886352 0.574077 0.562519
0.903367 0.625483 0.623257
0.918480 0.677537 0.679333
0.930556 0.725390 0.727714
0.940212 0.769182 0.770647
0.947811 0.808858 0.808144
0.953694 0.844081 0.840485
0.958073 0.874582 0.866150
0.961125 0.897043 0.884786
0.963280 0.912735 0.898076
0.186790 0.585926 0.172609
0.186065 0.585612 0.171879
0.186027 0.585228 0.171789
0.186004 0.584843 0.171701
0.185996 0.584457 0.171613
0.186008 0.584072 0.171528
0.185381 0.583660 0.170784
0.185516 0.582983 0.170642
0.185181 0.582159 0.169823
0.186011 0.580982 0.169613
0.187624 0.579526 0.168780
0.194823 0.577661 0.168798
0.221407 0.576167 0.168792
0.322336 0.577874 0.172438
0.461587 0.576522 0.179842
0.590413 0.567193 0.187473
0.666436 0.563287 0.193537
0.727848 0.558163 0.198133
0.800895 0.528362 0.200285
0.837771 0.489843 0.269224
0.845706 0.484524 0.351226
0.857178 0.509138 0.422588
0.871800 0.547887 0.495301
0.888150 0.591099 0.562482
0.904404 0.638103 0.623435
0.919144 0.686281 0.679470
0.931007 0.731209 0.727721
0.940550 0.773148 0.770600
0.948064 0.811505 0.808070
0.953886 0.845853 0.840436
0.958197 0.875674 0.866136
0.961197 0.897653 0.884778
0.963322 0.913077 0.898075
0.210245 0.640619 0.188367
0.209608 0.640441 0.187568
0.209702 0.640185 0.187472
0.209810 0.639929 0.187378
0.209934 0.639673 0.187285
0.209362 0.639495 0.186489
0.209570 0.639176 0.186377
0.209908 0.638730 0.186220
0.210497 0.638142 0.186025
0.211566 0.637372 0.185791
0.213696 0.636375 0.185545
0.218457 0.635123 0.185366
0.230599 0.633727 0.185530
0.267667 0.633248 0.185946
0.384195 0.636033 0.191268
0.538075 0.634295 0.199986
0.657246 0.625328 0.206889
0.729762 0.621129 0.212637
0.785079 0.618219 0.217522
0.844856 0.593889 0.237222
0.864862 0.559572 0.312766
0.871812 0.552440 0.402697
0.879544 0.577590 0.488025
0.891743 0.613678 0.561219
0.906106 0.654928 0.623532
0.920029 0.697999 0.679764
0.931557 0.739098 0.727862
0.940951 0.778525 0.770625
0.948367 0.815087 0.808019
0.954122 0.848244 0.840394
0.958351 0.877134 0.866125
0.961288 0.898465 0.884771
0.963376 0.913532 0.898075
0.231234 0.688179 0.204606
0.230685 0.688102 0.203761
0.230900 0.687942 0.203657
0.231130 0.687783 0.203555
0.230631 0.687708 0.202709
0.230897 0.687550 0.202609
0.230511 0.687436 0.201737
0.230327 0.687244 0.200815
0.231161 0.686886 0.200598
0.232474 0.686419 0.200329
0.234684 0.685819 0.200018
0.239353 0.684985 0.200510
0.247279 0.684101 0.200366
0.265363 0.683339 0.200563
0.312870 0.683968 0.201787
0.448495 0.687647 0.208673
0.608240 0.684903 0.217807
0.718269 0.676730 0.224714
0.785267 0.673028 0.229815
0.834377 0.671822 0.234709
0.867044 0.656209 0.283355
0.884685 0.626547 0.369596
0.893804 0.617173 0.463052
0.899754 0.642127 0.553203
0.909617 0.676409 0.621924
0.921451 0.713331 0.679948
0.932273 0.749732 0.728201
0.941418 0.785824 0.770805
0.948715 0.819954 0.808042
0.954401 0.851484 0.840383
0.958538 0.879090 0.866127
0.961402 0.899549 0.884768
0.963445 0.914137 0.898077
0.250545 0.729529 0.222631
0.250089 0.729523 0.221769
0.250416 0.729428 0.221658
0.249988 0.729422 0.220793
0.250344 0.729328 0.220684
0.249946 0.729323 0.219817
0.249664 0.729296 0.218920
0.249623 0.729223 0.217968
0.249905 0.729100 0.216955
0.249928 0.729003 0.215090
0.250769 0.728831 0.213134
0.254502 0.728403 0.212745
0.261689 0.727812 0.213144
0.273748 0.727321 0.212698
0.299041 0.727110 0.213567
0.357148 0.728664 0.216064
0.517310 0.732491 0.223922
0.670426 0.727235 0.232968
0.769530 0.719457 0.238905
0.832250 0.717105 0.244530
0.872896 0.716555 0.248305
0.884772 0.710449 0.335591
0.900823 0.689139 0.432886
0.912253 0.679947 0.527173
0.917282 0.701808 0.611978
0.924465 0.732243 0.678168
0.933460 0.763699 0.728472
0.941999 0.795637 0.771210
0.949101 0.826571 0.808228
0.954712 0.855886 0.840453
0.958757 0.881714 0.866163
0.961539 0.900997 0.884776
0.963530 0.914943 0.898085
0.266038 0.762918 0.242765
0.266450 0.762875 0.242653
0.266091 0.762925 0.241817
0.266525 0.762884 0.241706
0.266191 0.762934 0.240867
0.265869 0.762986 0.240025
0.266462 0.762935 0.239888
0.265770 0.763050 0.238222
0.266205 0.763053 0.237228
0.266385 0.763124 0.235403
0.265826 0.763350 0.231936
0.268884 0.763276 0.230623
0.274801 0.763102 0.229959
0.284389 0.762967 0.229197
0.300901 0.763017 0.228451
0.331735 0.763689 0.228061
0.402055 0.766841 0.228576
0.581881 0.769969 0.238036
0.725148 0.762238 0.246215
0.813299 0.755450 0.251940
0.868572 0.755408 0.256852
0.898307 0.755980 0.277066
0.903067 0.756326 0.393328
0.914640 0.744209 0.500739
0.926144 0.735911 0.587484
0.931066 0.754187 0.667526
0.936194 0.780778 0.726525
0.942992 0.808354 0.771499
0.949560 0.835494 0.808667
0.955037 0.861852 0.840696
0.958996 0.885231 0.866275
0.961699 0.902934 0.884814
0.963633 0.916018 0.898104
0.282678 0.787745 0.269242
0.283164 0.787734 0.269144
0.283656 0.787723 0.269047
0.284156 0.787713 0.268951
0.284663 0.787704 0.268854
0.285177 0.787695 0.268759
0.285832 0.787684 0.268640
0.286771 0.787670 0.268474
0.288053 0.787653 0.268256
0.289821 0.787635 0.267972
0.292290 0.787619 0.267604
0.295798 0.787612 0.267130
0.300892 0.787630 0.266532
0.308505 0.787710 0.265795
0.320386 0.787936 0.264938
0.339983 0.788516 0.264054
0.376696 0.790132 0.263530
0.459330 0.795039 0.262362
0.641473 0.798028 0.248837
0.772934 0.788974 0.256692
0.849926 0.783520 0.261993
0.902835 0.798099 0.314156
0.914303 0.803195 0.408286
0.920074 0.797939 0.457870
0.925676 0.793032 0.563031
0.936786 0.786328 0.646459
0.941875 0.800139 0.715106
0.945465 0.823319 0.769023
0.950401 0.846908 0.808912
0.955395 0.869741 0.841171
0.959236 0.889897 0.866535
0.961870 0.905520 0.884915
0.963751 0.917451 0.898149
0.315195 0.805527 0.312529
0.315666 0.805533 0.312448
0.316142 0.805538 0.312367
0.316622 0.805544 0.312286
0.317108 0.805551 0.312206
0.317598 0.805558 0.312126
0.318218 0.805567 0.312027
0.319100 0.805580 0.311889
0.320293 0.805599 0.311707
0.321915 0.805628 0.311468
0.324139 0.805671 0.311158
0.327220 0.805738 0.310756
0.331543 0.805845 0.310239
0.337706 0.806019 0.309585
0.346757 0.806318 0.308780
0.360914 0.806886 0.307862
0.384397 0.808037 0.306955
0.426993 0.810608 0.306365
0.522129 0.817019 0.302077
0.697658 0.818849 0.257926
0.817325 0.809731 0.265361
0.883638 0.809740 0.271310
0.919323 0.838262 0.459098
0.927064 0.842164 0.513666
0.932422 0.838982 0.549642
0.935812 0.834616 0.622064
0.944843 0.830052 0.698065
0.949983 0.840106 0.756984
0.952647 0.859682 0.805733
0.956075 0.879329 0.841283
0.959491 0.895875 0.866968
0.962040 0.908932 0.885133
0.963877 0.919356 0.898246
0.353183 0.819613 0.362720
0.353613 0.819628 0.362655
0.354046 0.819643 0.362590
0.354482 0.819658 0.362525
0.354921 0.819674 0.362461
0.355363 0.819690 0.362397
0.355921 0.819710 0.362317
0.356711 0.819739 0.362206
0.357772 0.819778 0.362059
0.359206 0.819833 0.361867
0.361153 0.819909 0.361617
0.363820 0.820018 0.361292
0.367512 0.820176 0.360874
0.372700 0.820411 0.360343
0.380132 0.820772 0.359684
0.391066 0.821351 0.358893
0.407736 0.822326 0.358006
0.435231 0.824150 0.357190
0.485867 0.828028 0.356736
0.582447 0.834852 0.348291
0.748502 0.835063 0.277014
0.856257 0.826301 0.271978
0.912680 0.846008 0.417242
0.929985 0.865063 0.543330
0.936946 0.871364 0.593161
0.941781 0.871542 0.627118
0.944690 0.867625 0.674699
0.950895 0.866392 0.742987
0.955802 0.874018 0.794213
0.957918 0.889086 0.837604
0.959994 0.902823 0.866992
0.962222 0.913277 0.885482
0.963999 0.921856 0.898434
0.397678 0.833232 0.421560
0.398071 0.833251 0.421512
0.398467 0.833269 0.421464
0.398864 0.833288 0.421416
0.399262 0.833307 0.421368
0.399663 0.833326 0.421320
0.400166 0.833350 0.421261
0.400877 0.833384 0.421178
0.401828 0.833430 0.421068
0.403102 0.833492 0.420924
0.404818 0.833577 0.420735
0.407139 0.833695 0.420489
0.410300 0.833859 0.420169
0.414646 0.834092 0.419758
0.420715 0.834432 0.419237
0.429523 0.834956 0.418607
0.442690 0.835801 0.417887
0.462998 0.837219 0.417138
0.495334 0.839700 0.416440
0.547446 0.844065 0.415412
0.641995 0.850194 0.402636
0.796329 0.848239 0.336315
0.888631 0.841047 0.293680
0.926423 0.870060 0.522297
0.938002 0.884589 0.606447
0.944182 0.892052 0.652881
0.948700 0.894867 0.687126
0.951403 0.892337 0.720373
0.955544 0.894167 0.782392
0.959827 0.899733 0.827651
0.961360 0.909576 0.863737
0.962606 0.918285 0.885464
0.964132 0.925017 0.898710
0.448772 0.847508 0.482446
0.449142 0.847532 0.482424
0.449512 0.847555 0.482403
0.449884 0.847579 0.482381
0.450257 0.847603 0.482360
0.450631 0.847627 0.482339
0.451102 0.847657 0.482312
0.451765 0.847700 0.482275
0.452650 0.847757 0.482227
0.453833 0.847834 0.482164
0.455421 0.847938 0.482082
0.457559 0.848080 0.481977
0.460452 0.848274 0.481842
0.464395 0.848544 0.481673
0.469813 0.848922 0.481465
0.477339 0.849463 0.481219
0.487933 0.850251 0.480942
0.503079 0.851427 0.480653
0.525055 0.853222 0.480372
0.557083 0.855981 0.480005
0.606970 0.860473 0.478928
0.697429 0.865821 0.464253
0.839271 0.861847 0.407153
0.911542 0.861401 0.419510
0.935907 0.887764 0.593953
0.944217 0.899297 0.656598
0.949821 0.907356 0.701484
0.953683 0.910940 0.733074
0.956242 0.910064 0.761297
0.959194 0.913164 0.816866
0.962625 0.917016 0.855721
0.963659 0.923088 0.882748
0.964406 0.928635 0.898708
0.507595 0.862122 0.539750
0.507908 0.862146 0.539744
0.508223 0.862171 0.539737
0.508538 0.862195 0.539730
0.508853 0.862219 0.539724
0.509169 0.862244 0.539718
0.509565 0.862274 0.539710
0.510122 0.862317 0.539699
0.510862 0.862375 0.539684
0.511847 0.862452 0.539666
0.513160 0.862554 0.539642
0.514912 0.862692 0.539611
0.517255 0.862877 0.539573
0.520400 0.863128 0.539526
0.524634 0.863469 0.539471
0.530360 0.863936 0.539408
0.538141 0.864582 0.539340
0.548766 0.865483 0.539270
0.563331 0.866747 0.539197
0.584259 0.868632 0.539176
0.615605 0.871577 0.539197
0.664010 0.876128 0.538173
0.746781 0.880317 0.522542
0.875338 0.875353 0.475114
0.928261 0.883913 0.542098
0.942772 0.901016 0.647351
0.949145 0.910595 0.697946
0.954052 0.918375 0.739751
0.957457 0.922310 0.769494
0.959786 0.922958 0.797183
0.962023 0.926215 0.846408
0.964298 0.928494 0.877224
0.964533 0.932362 0.898285
0.566297 0.876662 0.594795
0.566524 0.876682 0.594794
0.566751 0.876701 0.594794
0.566979 0.876721 0.594794
0.567207 0.876740 0.594793
0.567435 0.876760 0.594793
0.567721 0.876785 0.594793
0.568123 0.876819 0.594792
0.568657 0.876865 0.594792
0.569367 0.876926 0.594792
0.570312 0.877008 0.594792
0.571572 0.877117 0.594794
0.573255 0.877264 0.594797
0.575509 0.877461 0.594803
0.578537 0.877727 0.594817
0.582624 0.878090 0.594841
0.588173 0.878587 0.594887
