color-grading/luts/03_combined_slog3/BNC_SLog3_L04_TealOrange.cube
TITLE "BNC SLog3 L04 TealOrange"
# BNC Grade v1.0 - S-Log3/S-Gamut3.Cine -> BNC Base -> Complementary teal shadows against warm orange skin tones -- the modern high-contrast blockbuster look.
# Input: S-Log3 / S-Gamut3.Cine | Output: Rec.709 Gamma 2.4
LUT_3D_SIZE 5
DOMAIN_MIN 0.0 0.0 0.0
DOMAIN_MAX 1.0 1.0 1.0
0.002711 0.002877 0.002908
0.161226 0.088955 0.080122
0.717417 0.128701 0.173208
0.943083 0.573860 0.614253
0.966252 0.887860 0.879136
0.022748 0.182839 0.149259
0.032246 0.179037 0.141404
0.710500 0.166965 0.161626
0.943631 0.579348 0.612203
0.966240 0.888115 0.879171
0.143274 0.679289 0.483663
0.143501 0.676724 0.480759
0.626707 0.661626 0.012447
0.948058 0.627579 0.594520
0.966330 0.889874 0.879157
0.129110 0.911843 0.661228
0.134739 0.912203 0.659911
0.165432 0.915840 0.645026
0.935183 0.895912 0.375156
0.966887 0.906901 0.879662
0.775973 0.947545 0.843672
0.776299 0.947551 0.843611
0.778867 0.947594 0.843129
0.805610 0.947859 0.837358
0.964573 0.948382 0.852221
0.000055 0.056680 0.078466
0.152010 0.077212 0.182775
0.715934 0.121305 0.215674
0.942917 0.572509 0.620477
0.966249 0.887821 0.879317
0.006637 0.154982 0.153606
0.006305 0.145598 0.161963
0.708785 0.158418 0.203362
0.943473 0.577990 0.618464
0.966238 0.888076 0.879351
0.136548 0.675747 0.484414
0.138341 0.673009 0.481559
0.625931 0.656707 0.022382
0.947995 0.626207 0.601116
0.966328 0.889835 0.879338
0.126801 0.912000 0.663933
0.128162 0.912408 0.662456
0.161880 0.916015 0.648125
0.935617 0.896378 0.383017
0.966881 0.906883 0.879872
0.775952 0.947554 0.843886
0.776278 0.947560 0.843826
0.778844 0.947604 0.843345
0.805582 0.947872 0.837594
0.964574 0.948417 0.852608
0.009974 0.265558 0.416192
0.009054 0.263391 0.454021
0.688142 0.016571 0.640006
0.941152 0.561375 0.671341
0.966231 0.887509 0.880720
0.012055 0.271000 0.418401
0.012901 0.269655 0.440440
0.682967 0.019237 0.639713
0.941770 0.566790 0.669669
0.966257 0.887716 0.880698
0.039511 0.662906 0.624193
0.056027 0.659042 0.623785
0.660677 0.644862 0.634806
0.946988 0.614762 0.655327
0.966313 0.889531 0.880751
0.044458 0.913824 0.685200
0.057088 0.914190 0.684182
0.164318 0.917141 0.675678
0.939499 0.900281 0.442863
0.966923 0.906631 0.881295
0.775800 0.947628 0.845566
0.776124 0.947634 0.845508
0.778677 0.947681 0.845042
0.805359 0.947976 0.839442
0.964675 0.948571 0.854108
0.528571 0.495843 0.928185
0.544390 0.492591 0.927404
0.669610 0.467715 0.914268
0.917612 0.446399 0.889588
0.966086 0.884037 0.893491
0.521552 0.504829 0.928533
0.537549 0.501551 0.927917
0.664357 0.476137 0.915423
0.918111 0.450799 0.889753
0.966078 0.884303 0.893524
0.462605 0.581736 0.925509
0.479310 0.578688 0.926553
0.616347 0.551269 0.924759
0.922656 0.489240 0.891260
0.966191 0.886127 0.893593
0.390088 0.918555 0.883672
0.393472 0.918651 0.883816
0.424362 0.919616 0.885151
0.968165 0.936949 0.908897
0.967013 0.904093 0.894855
0.775648 0.948242 0.862176
0.775946 0.948252 0.862141
0.778301 0.948333 0.861856
0.803664 0.948948 0.857964
0.965584 0.950265 0.870812
0.947612 0.875122 0.929370
0.947857 0.874992 0.929327
0.949723 0.873967 0.928994
0.963569 0.863250 0.925823
0.962201 0.835515 0.917844
0.947549 0.875532 0.929414
0.947794 0.875402 0.929371
0.949664 0.874378 0.929038
0.963547 0.863672 0.925864
0.962185 0.835795 0.917857
0.947045 0.878733 0.929759
0.947294 0.878604 0.929716
0.949197 0.877588 0.929383
0.963372 0.866965 0.926189
0.962321 0.837522 0.918056
0.940983 0.908332 0.933136
0.941275 0.908222 0.933095
0.943512 0.907348 0.932767
0.960791 0.897973 0.929412
0.963647 0.855542 0.920267
0.778664 0.947780 0.920887
0.778958 0.947795 0.920906
0.781268 0.947915 0.921054
0.804947 0.949131 0.922753
0.970175 0.960545 0.953217
