color-grading/luts/03_combined_slog3/BNC_SLog3_L11_Acros.cube
TITLE "BNC SLog3 L11 Acros"
# BNC Grade v1.0 - S-Log3/S-Gamut3.Cine -> BNC Base -> Fujifilm Acros-style fine-grain black & white with punchy contrast and a gentle toe.
# Input: S-Log3 / S-Gamut3.Cine | Output: Rec.709 Gamma 2.4
LUT_3D_SIZE 33
DOMAIN_MIN 0.0 0.0 0.0
DOMAIN_MAX 1.0 1.0 1.0
0.001404 0.001404 0.001404
0.001404 0.001404 0.001404
0.001616 0.001616 0.001616
0.005241 0.005241 0.005241
0.013093 0.013093 0.013093
0.026421 0.026421 0.026421
0.048842 0.048842 0.048842
0.079929 0.079929 0.079929
0.116781 0.116781 0.116781
0.159531 0.159531 0.159531
0.208103 0.208103 0.208103
0.259962 0.259962 0.259962
0.315146 0.315146 0.315146
0.376187 0.376187 0.376187
0.435754 0.435754 0.435754
0.494653 0.494653 0.494653
0.551702 0.551702 0.551702
0.606274 0.606274 0.606274
0.659304 0.659304 0.659304
0.693054 0.693054 0.693054
0.724837 0.724837 0.724837
0.756284 0.756284 0.756284
0.788418 0.788417 0.788417
0.820948 0.820948 0.820948
0.851225 0.851225 0.851225
0.879605 0.879605 0.879605
0.902769 0.902769 0.902769
0.919758 0.919758 0.919758
0.931771 0.931771 0.931771
0.940013 0.940013 0.940013
0.945869 0.945869 0.945869
0.949822 0.949822 0.949822
0.952497 0.952497 0.952497
0.001404 0.001404 0.001404
0.001404 0.001404 0.001404
0.001404 0.001404 0.001404
0.003666 0.003666 0.003666
0.009874 0.009874 0.009874
0.021572 0.021572 0.021572
0.042790 0.042790 0.042790
0.074631 0.074631 0.074631
0.112136 0.112136 0.112136
0.155661 0.155661 0.155661
0.204887 0.204887 0.204887
0.257563 0.257563 0.257563
0.313159 0.313159 0.313159
0.374720 0.374720 0.374720
0.434805 0.434805 0.434805
0.494030 0.494030 0.494030
0.551344 0.551344 0.551344
0.606086 0.606086 0.606086
0.659229 0.659229 0.659229
0.693180 0.693180 0.693180
0.725001 0.725001 0.725001
0.756458 0.756458 0.756458
0.788606 0.788606 0.788606
0.821111 0.821111 0.821111
0.851353 0.851353 0.851353
0.879701 0.879701 0.879700
0.902829 0.902829 0.902828
0.919794 0.919794 0.919794
0.931791 0.931791 0.931791
0.940024 0.940024 0.940024
0.945876 0.945876 0.945876
0.949826 0.949826 0.949826
0.952499 0.952499 0.952499
0.001404 0.001404 0.001404
0.001404 0.001404 0.001404
0.001404 0.001404 0.001404
0.002477 0.002477 0.002477
0.007337 0.007337 0.007337
0.017273 0.017273 0.017273
0.036972 0.036972 0.036972
0.069379 0.069379 0.069379
0.107595 0.107595 0.107595
0.151882 0.151882 0.151881
0.201753 0.201753 0.201753
0.255224 0.255224 0.255224
0.311230 0.311230 0.311230
0.373287 0.373287 0.373287
0.433887 0.433887 0.433887
0.493428 0.493428 0.493428
0.551001 0.551001 0.551001
0.605909 0.605909 0.605909
0.659162 0.659162 0.659162
0.693312 0.693312 0.693312
0.725170 0.725170 0.725170
0.756635 0.756635 0.756635
0.788797 0.788797 0.788797
0.821275 0.821275 0.821275
0.851481 0.851481 0.851481
0.879797 0.879797 0.879797
0.902888 0.902888 0.902888
0.919829 0.919829 0.919829
0.931811 0.931811 0.931811
0.940036 0.940036 0.940036
0.945883 0.945883 0.945883
0.949830 0.949830 0.949830
0.952502 0.952501 0.952501
0.003833 0.003833 0.003833
0.003342 0.003342 0.003342
0.002889 0.002889 0.002889
0.002553 0.002553 0.002553
0.005873 0.005873 0.005873
0.013952 0.013952 0.013952
0.031951 0.031951 0.031951
0.064449 0.064449 0.064449
0.103369 0.103369 0.103369
0.148304 0.148304 0.148304
0.198771 0.198771 0.198771
0.252980 0.252980 0.252980
0.309381 0.309381 0.309381
0.371899 0.371899 0.371899
0.433006 0.433006 0.433006
0.492852 0.492852 0.492851
0.550673 0.550673 0.550673
0.605744 0.605744 0.605744
0.659103 0.659103 0.659103
0.693451 0.693451 0.693451
0.725343 0.725343 0.725343
0.756815 0.756815 0.756815
0.788990 0.788990 0.788990
0.821440 0.821440 0.821440
0.851610 0.851610 0.851610
0.879893 0.879893 0.879893
0.902948 0.902948 0.902948
0.919865 0.919865 0.919865
0.931831 0.931831 0.931831
0.940048 0.940048 0.940047
0.945890 0.945890 0.945890
0.949834 0.949834 0.949834
0.952504 0.952504 0.952504
0.009885 0.009885 0.009885
0.008882 0.008882 0.008882
0.007971 0.007971 0.007971
0.007147 0.007147 0.007147
0.008473 0.008473 0.008473
0.015409 0.015409 0.015409
0.031612 0.031612 0.031612
0.061536 0.061536 0.061536
0.100073 0.100073 0.100073
0.145205 0.145205 0.145205
0.196066 0.196066 0.196066
0.250880 0.250880 0.250880
0.307637 0.307637 0.307637
0.370566 0.370566 0.370566
0.432168 0.432168 0.432168
0.492302 0.492302 0.492302
0.550361 0.550361 0.550361
0.605593 0.605593 0.605593
0.659053 0.659053 0.659053
0.693597 0.693597 0.693597
0.725521 0.725521 0.725520
0.756999 0.756999 0.756999
0.789185 0.789185 0.789185
0.821606 0.821606 0.821606
0.851740 0.851740 0.851740
0.879989 0.879989 0.879989
0.903007 0.903007 0.903007
0.919900 0.919900 0.919900
0.931852 0.931851 0.931851
0.940059 0.940059 0.940059
0.945896 0.945896 0.945896
0.949838 0.949838 0.949838
0.952506 0.952506 0.952506
0.020981 0.020981 0.020981
0.019300 0.019300 0.019300
0.017702 0.017702 0.017702
0.016216 0.016216 0.016216
0.015782 0.015782 0.015782
0.021666 0.021666 0.021666
0.037146 0.037146 0.037146
0.065079 0.065079 0.065079
0.100237 0.100237 0.100237
0.143273 0.143273 0.143273
0.193865 0.193865 0.193865
0.249025 0.249025 0.249025
0.306036 0.306036 0.306036
0.369304 0.369304 0.369304
0.431380 0.431380 0.431380
0.491783 0.491783 0.491783
0.550069 0.550069 0.550069
0.605455 0.605455 0.605455
0.659011 0.659011 0.659011
0.693749 0.693749 0.693749
0.725702 0.725702 0.725702
0.757186 0.757186 0.757186
0.789382 0.789382 0.789382
0.821773 0.821773 0.821773
0.851870 0.851870 0.851870
0.880086 0.880086 0.880086
0.903067 0.903067 0.903067
0.919936 0.919936 0.919936
0.931872 0.931872 0.931871
0.940071 0.940071 0.940071
0.945903 0.945903 0.945903
0.949842 0.949842 0.949842
0.952509 0.952509 0.952509
0.041005 0.041005 0.041005
0.038794 0.038794 0.038794
0.036627 0.036627 0.036627
0.034548 0.034548 0.034548
0.032843 0.032843 0.032843
0.035922 0.035922 0.035922
0.049183 0.049183 0.049183
0.073656 0.073656 0.073656
0.106289 0.106289 0.106289
0.145540 0.145540 0.145540
0.192660 0.192660 0.192660
0.247280 0.247280 0.247280
0.304313 0.304313 0.304313
0.367851 0.367851 0.367851
0.430479 0.430479 0.430479
0.491183 0.491183 0.491183
0.549732 0.549732 0.549732
0.605303 0.605303 0.605303
0.658972 0.658972 0.658972
0.693949 0.693949 0.693949
0.725936 0.725936 0.725936
0.757425 0.757425 0.757425
0.789631 0.789631 0.789631
0.821983 0.821983 0.821983
0.852033 0.852033 0.852033
0.880208 0.880208 0.880207
0.903142 0.903142 0.903142
0.919980 0.919980 0.919980
0.931897 0.931897 0.931897
0.940085 0.940085 0.940085
0.945911 0.945911 0.945911
0.949847 0.949847 0.949847
0.952512 0.952512 0.952512
0.071589 0.071589 0.071589
0.069528 0.069528 0.069528
0.067469 0.067469 0.067469
0.065443 0.065443 0.065443
0.063577 0.063577 0.063577
0.062716 0.062716 0.062716
0.069902 0.069902 0.069902
0.089166 0.089166 0.089166
0.118159 0.118159 0.118159
0.154416 0.154416 0.154416
0.197251 0.197251 0.197251
0.246906 0.246906 0.246906
0.302692 0.302692 0.302692
0.366168 0.366168 0.366168
0.429413 0.429413 0.429413
0.490449 0.490449 0.490449
0.549323 0.549323 0.549323
0.605133 0.605133 0.605133
0.658942 0.658942 0.658942
0.694249 0.694249 0.694249
0.726277 0.726277 0.726277
0.757771 0.757771 0.757771
0.789986 0.789986 0.789986
0.822279 0.822279 0.822279
0.852264 0.852264 0.852264
0.880378 0.880378 0.880378
0.903248 0.903247 0.903247
0.920043 0.920043 0.920043
0.931932 0.931932 0.931932
0.940106 0.940106 0.940106
0.945923 0.945923 0.945923
0.949854 0.949854 0.949853
0.952516 0.952516 0.952516
0.107241 0.107241 0.107241
0.105474 0.105474 0.105474
0.103719 0.103719 0.103719
0.102000 0.102000 0.102000
0.100375 0.100375 0.100375
0.099057 0.099057 0.099057
0.099462 0.099462 0.099462
0.112230 0.112230 0.112230
0.136270 0.136270 0.136270
0.168606 0.168606 0.168606
0.207844 0.207844 0.207844
0.253155 0.253155 0.253155
0.303379 0.303379 0.303379
0.364987 0.364987 0.364987
0.428482 0.428482 0.428482
0.489712 0.489712 0.489712
0.548914 0.548913 0.548913
0.604992 0.604992 0.604992
0.658953 0.658953 0.658953
0.694683 0.694683 0.694682
0.726751 0.726751 0.726751
0.758247 0.758247 0.758247
0.790467 0.790466 0.790466
0.822677 0.822677 0.822677
0.852572 0.852572 0.852572
0.880606 0.880606 0.880606
0.903388 0.903387 0.903387
0.920126 0.920126 0.920126
0.931979 0.931979 0.931979
0.940133 0.940133 0.940133
0.945939 0.945939 0.945939
0.949863 0.949863 0.949863
0.952522 0.952522 0.952521
0.148019 0.148019 0.148019
0.146533 0.146533 0.146533
0.145061 0.145061 0.145061
0.143619 0.143619 0.143619
0.142244 0.142244 0.142244
0.141014 0.141014 0.141014
0.139963 0.139963 0.139963
0.142736 0.142736 0.142736
0.160507 0.160507 0.160507
0.188074 0.188074 0.188074
0.223017 0.223017 0.223017
0.264400 0.264400 0.264400
0.311710 0.311710 0.311710
0.366859 0.366859 0.366859
0.428511 0.428511 0.428511
0.489295 0.489295 0.489295
0.548665 0.548665 0.548664
0.604978 0.604978 0.604978
0.659066 0.659066 0.659066
0.695326 0.695326 0.695326
0.727422 0.727422 0.727422
0.758911 0.758911 0.758911
0.791121 0.791121 0.791120
0.823211 0.823211 0.823211
0.852986 0.852986 0.852986
0.880909 0.880909 0.880909
0.903574 0.903574 0.903574
0.920236 0.920236 0.920236
0.932041 0.932041 0.932041
0.940169 0.940169 0.940169
0.945960 0.945960 0.945960
0.949875 0.949875 0.949875
0.952529 0.952529 0.952529
0.193744 0.193744 0.193744
0.192513 0.192513 0.192513
0.191300 0.191300 0.191300
0.190116 0.190116 0.190116
0.188979 0.188979 0.188979
0.187917 0.187917 0.187917
0.186776 0.186776 0.186776
0.186091 0.186091 0.186091
0.192288 0.192288 0.192288
0.213781 0.213781 0.213781
0.243351 0.243351 0.243351
0.280215 0.280215 0.280215
0.324908 0.324908 0.324908
0.376918 0.376918 0.376918
0.432623 0.432623 0.432623
0.490310 0.490310 0.490310
0.549039 0.549039 0.549039
0.605335 0.605335 0.605335
0.659421 0.659421 0.659421
0.696312 0.696312 0.696312
0.728391 0.728391 0.728391
0.759851 0.759851 0.759851
0.792019 0.792019 0.792019
0.823931 0.823931 0.823931
0.853543 0.853543 0.853543
0.881314 0.881314 0.881314
0.903822 0.903822 0.903822
0.920382 0.920382 0.920382
0.932124 0.932124 0.932124
0.940216 0.940216 0.940216
0.945987 0.945987 0.945987
0.949891 0.949891 0.949891
0.952539 0.952539 0.952539
0.243835 0.243835 0.243835
0.242886 0.242886 0.242885
0.241949 0.241949 0.241949
0.241031 0.241031 0.241031
0.240139 0.240139 0.240139
0.239289 0.239289 0.239289
0.238319 0.238319 0.238319
0.237270 0.237270 0.237270
0.237229 0.237228 0.237228
0.246550 0.246550 0.246550
0.270075 0.270075 0.270075
0.302144 0.302144 0.302144
0.343360 0.343360 0.343360
0.392083 0.392083 0.392083
0.446108 0.446108 0.446108
0.496687 0.496687 0.496687
0.551451 0.551451 0.551451
0.606688 0.606688 0.606688
0.660359 0.660359 0.660359
0.697887 0.697887 0.697887
0.729829 0.729829 0.729829
0.761211 0.761211 0.761211
0.793267 0.793267 0.793267
0.824908 0.824908 0.824908
0.854296 0.854296 0.854296
0.881857 0.881857 0.881857
0.904152 0.904152 0.904152
0.920577 0.920577 0.920577
0.932234 0.932233 0.932233
0.940279 0.940279 0.940279
0.946024 0.946024 0.946024
0.949912 0.949912 0.949912
0.952552 0.952552 0.952552
0.296057 0.296057 0.296057
0.295313 0.295313 0.295313
0.294585 0.294585 0.294585
0.293876 0.293876 0.293876
0.293189 0.293189 0.293189
0.292533 0.292533 0.292533
0.291766 0.291766 0.291766
0.290836 0.290836 0.290836
0.290061 0.290061 0.290061
0.291073 0.291073 0.291073
0.304015 0.304015 0.304015
0.331170 0.331170 0.331170
0.367921 0.367921 0.367921
0.412840 0.412840 0.412840
0.465015 0.465015 0.465015
0.514006 0.514006 0.514006
0.560922 0.560922 0.560922
0.610897 0.610897 0.610897
0.662683 0.662683 0.662683
0.700538 0.700538 0.700537
0.732038 0.732038 0.732038
0.763228 0.763228 0.763228
0.795026 0.795026 0.795026
0.826244 0.826244 0.826244
0.855321 0.855321 0.855321
0.882586 0.882586 0.882586
0.904595 0.904595 0.904594
0.920836 0.920836 0.920836
0.932379 0.932379 0.932379
0.940363 0.940363 0.940363
0.946072 0.946072 0.946072
0.949940 0.949940 0.949940
0.952569 0.952569 0.952569
0.354272 0.354272 0.354272
0.353677 0.353677 0.353677
0.353093 0.353093 0.353093
0.352522 0.352522 0.352522
0.351965 0.351965 0.351965
0.351425 0.351425 0.351425
0.350780 0.350780 0.350780
0.349952 0.349952 0.349952
0.349079 0.349079 0.349079
0.348590 0.348590 0.348590
0.350554 0.350554 0.350554
0.366996 0.366996 0.366996
0.398239 0.398239 0.398239
0.438892 0.438892 0.438892
0.488485 0.488485 0.488485
0.537190 0.537190 0.537190
0.583182 0.583182 0.583182
0.623962 0.623962 0.623962
0.668490 0.668490 0.668490
0.705318 0.705318 0.705318
0.735599 0.735599 0.735599
0.766323 0.766323 0.766323
0.797551 0.797551 0.797551
0.828084 0.828084 0.828084
0.856728 0.856728 0.856728
0.883571 0.883571 0.883571
0.905187 0.905187 0.905187
0.921182 0.921182 0.921182
0.932573 0.932573 0.932573
0.940475 0.940475 0.940475
0.946136 0.946136 0.946136
0.949978 0.949978 0.949978
0.952592 0.952592 0.952592
0.414494 0.414494 0.414494
0.414093 0.414093 0.414093
0.413701 0.413701 0.413701
0.413319 0.413319 0.413319
0.412949 0.412949 0.412949
0.412591 0.412591 0.412591
0.412166 0.412166 0.412166
0.411618 0.411618 0.411618
0.411004 0.411003 0.411003
0.410469 0.410469 0.410469
0.410577 0.410577 0.410577
0.414215 0.414215 0.414215
0.434978 0.434978 0.434978
0.471708 0.471708 0.471708
0.517602 0.517602 0.517602
0.566232 0.566232 0.566232
0.611035 0.611034 0.611034
0.650256 0.650256 0.650256
0.683833 0.683833 0.683833
0.714814 0.714814 0.714814
0.742024 0.742023 0.742023
0.771267 0.771267 0.771267
0.801259 0.801259 0.801259
0.830665 0.830665 0.830665
0.858683 0.858682 0.858682
0.884907 0.884907 0.884907
0.905984 0.905984 0.905984
0.921644 0.921644 0.921644
0.932831 0.932831 0.932831
0.940624 0.940624 0.940623
0.946222 0.946222 0.946222
0.950027 0.950027 0.950027
0.952623 0.952623 0.952623
0.470545 0.470545 0.470545
0.470304 0.470304 0.470304
0.470070 0.470069 0.470069
0.469843 0.469843 0.469843
0.469624 0.469624 0.469624
0.469415 0.469415 0.469415
0.469167 0.469167 0.469166
0.468848 0.468848 0.468848
0.468487 0.468487 0.468487
0.468147 0.468147 0.468147
0.468070 0.468070 0.468070
0.469108 0.469108 0.469108
0.474708 0.474708 0.474708
0.500970 0.500970 0.500970
0.543691 0.543691 0.543691
0.593454 0.593454 0.593453
0.638894 0.638894 0.638894
0.679477 0.679477 0.679477
0.713472 0.713472 0.713472
0.737689 0.737689 0.737689
0.754778 0.754778 0.754777
0.779546 0.779546 0.779546
0.806843 0.806843 0.806843
0.834445 0.834445 0.834445
0.861436 0.861435 0.861435
0.886731 0.886731 0.886731
0.907062 0.907062 0.907062
0.922263 0.922263 0.922263
0.933176 0.933176 0.933176
0.940822 0.940822 0.940821
0.946335 0.946335 0.946335
0.950093 0.950093 0.950093
0.952663 0.952663 0.952663
0.522751 0.522751 0.522751
0.522622 0.522622 0.522622
0.522498 0.522498 0.522498
0.522379 0.522379 0.522379
0.522265 0.522265 0.522265
0.522157 0.522157 0.522157
0.522032 0.522032 0.522032
0.521878 0.521878 0.521878
0.521716 0.521716 0.521715
0.521588 0.521588 0.521588
0.521616 0.521616 0.521616
0.522132 0.522132 0.522132
0.524158 0.524158 0.524158
0.532046 0.532046 0.532046
0.564831 0.564831 0.564831
0.614282 0.614282 0.614282
0.662221 0.662221 0.662221
0.704939 0.704939 0.704938
0.740618 0.740618 0.740618
0.770951 0.770951 0.770951
0.780447 0.780447 0.780447
0.793939 0.793939 0.793938
0.815439 0.815439 0.815439
0.840175 0.840175 0.840175
0.865383 0.865383 0.865383
0.889241 0.889241 0.889241
0.908526 0.908526 0.908526
0.923096 0.923096 0.923096
0.933636 0.933636 0.933636
0.941086 0.941086 0.941086
0.946486 0.946486 0.946486
0.950181 0.950181 0.950181
0.952717 0.952717 0.952717
0.569158 0.569158 0.569157
0.569116 0.569116 0.569116
0.569079 0.569079 0.569079
0.569045 0.569045 0.569045
0.569017 0.569017 0.569016
0.568992 0.568992 0.568992
0.568969 0.568969 0.568969
0.568949 0.568949 0.568949
0.568950 0.568950 0.568950
0.569003 0.569003 0.569003
0.569182 0.569182 0.569182
0.569656 0.569656 0.569656
0.570851 0.570851 0.570850
0.574138 0.574138 0.574137
0.584994 0.584994 0.584994
0.625371 0.625371 0.625371
0.678990 0.678990 0.678990
0.725084 0.725084 0.725084
0.763358 0.763358 0.763358
0.795735 0.795735 0.795735
0.814860 0.814860 0.814860
0.819986 0.819986 0.819986
0.829990 0.829990 0.829989
0.849205 0.849205 0.849205
0.871163 0.871163 0.871163
0.892720 0.892720 0.892720
0.910531 0.910531 0.910531
0.924220 0.924220 0.924220
0.934253 0.934253 0.934253
0.941439 0.941439 0.941439
0.946688 0.946688 0.946688
0.950299 0.950299 0.950298
0.952789 0.952789 0.952789
0.610320 0.610320 0.610320
0.610331 0.610331 0.610331
0.610344 0.610344 0.610344
0.610361 0.610361 0.610361
0.610380 0.610380 0.610380
0.610403 0.610403 0.610403
0.610436 0.610436 0.610436
0.610490 0.610490 0.610490
0.610579 0.610579 0.610579
0.610728 0.610728 0.610728
0.610988 0.610988 0.610988
0.611469 0.611469 0.611469
0.612411 0.612411 0.612411
0.614403 0.614403 0.614403
0.619171 0.619171 0.619171
0.633789 0.633789 0.633789
0.682809 0.682809 0.682809
0.736039 0.736039 0.736039
0.778572 0.778572 0.778572
0.813543 0.813543 0.813543
0.843228 0.843228 0.843227
0.853301 0.853301 0.853301
0.856241 0.856241 0.856241
0.863997 0.863997 0.863997
0.879789 0.879789 0.879789
0.897587 0.897587 0.897587
0.913299 0.913299 0.913299
0.925745 0.925745 0.925745
0.935083 0.935083 0.935083
0.941914 0.941914 0.941914
0.946956 0.946956 0.946956
0.950455 0.950455 0.950455
0.952885 0.952885 0.952885
0.647127 0.647127 0.647126
0.647169 0.647169 0.647169
0.647214 0.647214 0.647214
0.647261 0.647261 0.647261
0.647310 0.647310 0.647310
0.647361 0.647361 0.647361
0.647429 0.647429 0.647429
0.647530 0.647530 0.647529
0.647675 0.647675 0.647675
0.647890 0.647890 0.647890
0.648217 0.648217 0.648217
0.648734 0.648734 0.648734
0.649593 0.649593 0.649592
0.651113 0.651113 0.651113
0.654054 0.654054 0.654054
0.660714 0.660714 0.660714
0.679591 0.679591 0.679591
0.735256 0.735256 0.735256
0.786784 0.786784 0.786784
0.825267 0.825267 0.825267
0.857314 0.857314 0.857314
0.879288 0.879288 0.879288
0.886064 0.886064 0.886064
0.887647 0.887647 0.887647
0.892719 0.892719 0.892718
0.904626 0.904626 0.904626
0.917154 0.917154 0.917154
0.927825 0.927825 0.927825
0.936210 0.936210 0.936210
0.942553 0.942553 0.942553
0.947316 0.947316 0.947316
0.950664 0.950664 0.950664
0.953012 0.953012 0.953012
0.680645 0.680645 0.680645
0.680708 0.680708 0.680707
0.680771 0.680771 0.680771
0.680837 0.680837 0.680837
0.680904 0.680904 0.680904
0.680972 0.680972 0.680972
0.681060 0.681060 0.681060
0.681188 0.681188 0.681188
0.681365 0.681365 0.681365
0.681615 0.681615 0.681615
0.681975 0.681975 0.681975
0.682505 0.682505 0.682504
0.683312 0.683312 0.683312
0.684599 0.684599 0.684599
0.686804 0.686804 0.686804
0.690990 0.690990 0.690990
0.699945 0.699945 0.699945
0.723706 0.723706 0.723706
0.782409 0.782409 0.782409
0.830409 0.830409 0.830409
0.865580 0.865580 0.865580
0.894105 0.894105 0.894105
0.907275 0.907275 0.907275
0.911871 0.911871 0.911870
0.912019 0.912019 0.912019
0.914864 0.914864 0.914864
0.922554 0.922554 0.922554
0.930677 0.930677 0.930677
0.937754 0.937754 0.937754
0.943417 0.943417 0.943417
0.947798 0.947798 0.947798
0.950945 0.950945 0.950945
0.953183 0.953183 0.953183
0.711907 0.711906 0.711906
0.711981 0.711981 0.711981
0.712057 0.712056 0.712056
0.712133 0.712133 0.712133
0.712211 0.712211 0.712211
0.712291 0.712290 0.712290
0.712391 0.712391 0.712391
0.712536 0.712536 0.712536
0.712735 0.712734 0.712734
0.713008 0.713008 0.713008
0.713392 0.713392 0.713392
0.713939 0.713939 0.713939
0.714738 0.714738 0.714737
0.715939 0.715939 0.715939
0.717823 0.717823 0.717823
0.720945 0.720945 0.720945
0.726530 0.726530 0.726529
0.737802 0.737802 0.737802
0.766844 0.766844 0.766844
0.825059 0.825059 0.825059
0.868832 0.868832 0.868832
0.899050 0.899050 0.899050
0.920723 0.920723 0.920723
0.926889 0.926889 0.926889
0.929463 0.929463 0.929463
0.928896 0.928896 0.928896
0.930049 0.930049 0.930049
0.934596 0.934596 0.934596
0.939882 0.939882 0.939882
0.944590 0.944590 0.944590
0.948446 0.948446 0.948446
0.951324 0.951324 0.951324
0.953411 0.953411 0.953411
0.738914 0.738914 0.738914
0.739005 0.739005 0.739005
0.739098 0.739098 0.739098
0.739191 0.739191 0.739191
0.739285 0.739285 0.739285
0.739380 0.739380 0.739380
0.739500 0.739500 0.739500
0.739671 0.739671 0.739671
0.739901 0.739901 0.739901
0.740214 0.740214 0.740213
0.740641 0.740641 0.740641
0.741233 0.741233 0.741233
0.742064 0.742064 0.742064
0.743251 0.743251 0.743251
0.744992 0.744992 0.744992
0.747637 0.747637 0.747637
0.751850 0.751850 0.751850
0.759261 0.759261 0.759260
0.774326 0.774326 0.774326
0.805936 0.805936 0.805936
0.861817 0.861817 0.861817
0.900007 0.900007 0.900007
0.922664 0.922664 0.922664
0.936064 0.936064 0.936064
0.939669 0.939669 0.939669
0.940961 0.940961 0.940961
0.940050 0.940050 0.940050
0.940058 0.940058 0.940058
0.942821 0.942821 0.942821
0.946188 0.946188 0.946188
0.949318 0.949318 0.949318
0.951834 0.951834 0.951834
0.953719 0.953719 0.953719
0.763365 0.763365 0.763365
0.763456 0.763456 0.763456
0.763547 0.763547 0.763547
0.763639 0.763639 0.763638
0.763731 0.763731 0.763731
0.763823 0.763823 0.763823
0.763940 0.763940 0.763940
0.764105 0.764105 0.764105
0.764327 0.764327 0.764327
0.764625 0.764625 0.764625
0.765028 0.765028 0.765028
0.765578 0.765578 0.765578
0.766334 0.766334 0.766334
0.767387 0.767387 0.767387
0.768882 0.768882 0.768882
0.771106 0.771106 0.771106
0.774546 0.774546 0.774546
0.780103 0.780103 0.780103
0.789548 0.789548 0.789548
0.806223 0.806223 0.806223
0.838420 0.838420 0.838420
0.891612 0.891612 0.891611
0.922131 0.922131 0.922131
0.937282 0.937282 0.937282
0.945475 0.945475 0.945474
0.947653 0.947653 0.947653
0.948338 0.948338 0.948338
0.947232 0.947232 0.947232
0.946827 0.946827 0.946827
0.948360 0.948360 0.948360
0.950504 0.950504 0.950504
0.952527 0.952527 0.952527
0.954135 0.954135 0.954135
0.788220 0.788220 0.788220
0.788312 0.788312 0.788312
0.788405 0.788404 0.788404
0.788497 0.788497 0.788497
0.788590 0.788590 0.788590
0.788684 0.788684 0.788684
0.788802 0.788802 0.788802
0.788968 0.788968 0.788968
0.789191 0.789191 0.789190
0.789489 0.789489 0.789489
0.789891 0.789891 0.789891
0.790435 0.790435 0.790435
0.791177 0.791177 0.791177
0.792198 0.792198 0.792198
0.793619 0.793619 0.793619
0.795627 0.795627 0.795627
0.798521 0.798521 0.798521
0.802791 0.802791 0.802791
0.809262 0.809262 0.809262
0.819267 0.819266 0.819266
0.836163 0.836163 0.836163
0.867807 0.867807 0.867807
0.913103 0.913103 0.913103
0.936153 0.936153 0.936153
0.946614 0.946614 0.946614
0.951569 0.951569 0.951568
0.952956 0.952956 0.952956
0.953064 0.953064 0.953064
0.951954 0.951954 0.951954
0.951285 0.951285 0.951285
0.952147 0.952147 0.952146
0.953478 0.953477 0.953477
0.954700 0.954700 0.954700
0.814272 0.814272 0.814272
0.814356 0.814356 0.814356
0.814440 0.814440 0.814440
0.814524 0.814524 0.814524
0.814608 0.814608 0.814608
0.814693 0.814693 0.814693
0.814799 0.814799 0.814799
0.814948 0.814948 0.814948
0.815147 0.815147 0.815147
0.815412 0.815412 0.815412
0.815766 0.815766 0.815766
0.816241 0.816241 0.816241
0.816879 0.816879 0.816879
0.817741 0.817741 0.817741
0.818912 0.818912 0.818912
0.820514 0.820514 0.820514
0.822727 0.822727 0.822727
0.825813 0.825813 0.825813
0.830164 0.830164 0.830164
0.836671 0.836671 0.836671
0.846986 0.846986 0.846986
0.864075 0.864075 0.864075
0.892473 0.892473 0.892473
0.928223 0.928223 0.928223
0.944561 0.944561 0.944561
0.952520 0.952520 0.952520
0.955617 0.955617 0.955617
0.956399 0.956399 0.956399
0.956274 0.956274 0.956274
0.955174 0.955174 0.955174
0.954418 0.954418 0.954418
0.954787 0.954787 0.954786
0.955471 0.955471 0.955471
0.839797 0.839797 0.839796
0.839860 0.839860 0.839860
0.839924 0.839924 0.839924
0.839988 0.839988 0.839988
0.840053 0.840052 0.840052
0.840117 0.840117 0.840117
0.840197 0.840197 0.840197
0.840311 0.840311 0.840311
0.840462 0.840462 0.840461
0.840662 0.840662 0.840662
0.840930 0.840930 0.840930
0.841288 0.841288 0.841288
0.841768 0.841768 0.841768
0.842413 0.842413 0.842413
0.843286 0.843286 0.843286
0.844474 0.844474 0.844474
0.846104 0.846104 0.846104
0.848369 0.848369 0.848369
0.851561 0.851561 0.851561
0.856147 0.856147 0.856147
