color-grading/luts/03_combined_slog3/BNC_SLog3_L07_Eterna.cube
TITLE "BNC SLog3 L07 Eterna"
# BNC Grade v1.0 - S-Log3/S-Gamut3.Cine -> BNC Base -> Fujifilm Eterna-style flat, low-contrast cinema stock emulation with soft highlights and gentle desaturation.
# Input: S-Log3 / S-Gamut3.Cine | Output: Rec.709 Gamma 2.4
LUT_3D_SIZE 9
DOMAIN_MIN 0.0 0.0 0.0
DOMAIN_MAX 1.0 1.0 1.0
0.031468 0.037310 0.039257
0.099027 0.054101 0.054444
0.220175 0.096364 0.091910
0.412498 0.169321 0.163557
0.644213 0.275833 0.276759
0.791622 0.415087 0.436261
0.863646 0.603364 0.632477
0.908962 0.750136 0.767560
0.930202 0.829978 0.838476
0.000106 0.103250 0.075261
0.060055 0.091387 0.065783
0.203352 0.103555 0.087596
0.404290 0.175245 0.159631
0.642316 0.281001 0.274611
0.791811 0.418752 0.435267
0.863864 0.604864 0.632212
0.909026 0.750482 0.767511
0.930217 0.830051 0.838467
0.059558 0.231191 0.146324
0.063561 0.224042 0.142271
0.186096 0.220003 0.123670
0.394889 0.209826 0.158950
0.639571 0.291724 0.271662
0.792162 0.424958 0.433754
0.864214 0.607276 0.631794
0.909127 0.751031 0.767434
0.930241 0.830166 0.838451
0.155896 0.419078 0.253774
0.157553 0.415758 0.251788
0.167205 0.410755 0.248951
0.371866 0.406063 0.209390
0.637251 0.371496 0.271830
0.793731 0.448083 0.429603
0.865351 0.615094 0.630508
0.909445 0.752759 0.767192
0.930315 0.830526 0.838404
0.266337 0.648429 0.393336
0.268172 0.647534 0.392673
0.271988 0.646138 0.391662
0.298504 0.642298 0.389193
0.610772 0.641870 0.323044
0.807014 0.586891 0.427904
0.869290 0.642243 0.626695
0.910446 0.758232 0.766438
0.930546 0.831647 0.838256
0.370625 0.793564 0.508854
0.372088 0.793466 0.508676
0.374565 0.793318 0.508403
0.383788 0.792924 0.507644
0.440094 0.793156 0.506781
0.777779 0.796758 0.423874
0.883341 0.755711 0.613477
0.913718 0.776694 0.763989
0.931269 0.835194 0.837784
0.505635 0.861607 0.631767
0.506621 0.861655 0.631764
0.508212 0.861733 0.631762
0.513420 0.861995 0.631776
0.531993 0.863000 0.632012
0.616185 0.868430 0.633293
0.867714 0.876863 0.554082
0.923491 0.849391 0.751338
0.933580 0.847033 0.836116
0.664810 0.899004 0.743557
0.665110 0.899028 0.743578
0.665585 0.899066 0.743610
0.667077 0.899185 0.743712
0.671756 0.899559 0.744028
0.687091 0.900801 0.745023
0.748945 0.906029 0.747413
0.915222 0.914515 0.692903
0.940010 0.892637 0.825464
0.767407 0.918131 0.811582
0.767473 0.918138 0.811589
0.767576 0.918148 0.811599
0.767899 0.918179 0.811632
0.768900 0.918277 0.811733
0.772051 0.918586 0.812049
0.782389 0.919597 0.813031
0.821933 0.923439 0.815297
0.936104 0.930055 0.778999
0.030360 0.039585 0.076400
0.094221 0.052539 0.086634
0.217504 0.094289 0.109475
0.411095 0.167454 0.176585
0.643807 0.274476 0.284941
0.791546 0.414240 0.440833
0.863601 0.603023 0.634001
0.908950 0.750059 0.767889
0.930200 0.829963 0.838545
0.018404 0.083141 0.079485
0.054002 0.067817 0.072372
0.199277 0.096741 0.098669
0.402674 0.172367 0.171363
0.641879 0.279477 0.282594
0.791734 0.417874 0.439821
0.863819 0.604521 0.633737
0.909014 0.750405 0.767840
0.930215 0.830035 0.838535
0.056623 0.221281 0.145221
0.059103 0.213698 0.140467
0.181439 0.209061 0.121178
0.392379 0.201914 0.167340
0.639066 0.289816 0.279290
0.792080 0.424029 0.438275
0.864170 0.606929 0.633322
0.909115 0.750954 0.767763
0.930239 0.830150 0.838520
0.154560 0.414523 0.254522
0.155954 0.411168 0.252420
0.164820 0.406043 0.249381
0.369793 0.401020 0.209723
0.636228 0.366437 0.277708
0.793637 0.446965 0.434008
0.865310 0.614738 0.632043
0.909434 0.752682 0.767523
0.930313 0.830511 0.838473
0.266275 0.647204 0.395163
0.268060 0.646296 0.394474
0.271759 0.644878 0.393422
0.297758 0.640959 0.390830
0.610364 0.640415 0.324969
0.806914 0.584935 0.431735
0.869261 0.641861 0.628252
0.910436 0.758155 0.766771
0.930544 0.831631 0.838325
0.370768 0.793424 0.510499
0.372219 0.793325 0.510317
0.374677 0.793176 0.510038
0.383834 0.792775 0.509260
0.439823 0.792979 0.508363
0.777892 0.796598 0.425764
0.883407 0.755347 0.615108
0.913713 0.776615 0.764330
0.931267 0.835179 0.837854
0.505653 0.861633 0.632625
0.506637 0.861681 0.632623
0.508225 0.861759 0.632622
0.513423 0.862020 0.632641
0.531971 0.863024 0.632895
0.616143 0.868456 0.634282
0.867850 0.876916 0.555368
0.923515 0.849332 0.751724
0.933580 0.847018 0.836189
0.664796 0.899015 0.743762
0.665096 0.899039 0.743783
0.665572 0.899076 0.743816
0.667064 0.899195 0.743918
0.671743 0.899570 0.744237
0.687079 0.900813 0.745237
0.748942 0.906042 0.747664
0.915264 0.914541 0.693236
0.940016 0.892626 0.825547
0.767404 0.918134 0.811624
0.767469 0.918141 0.811631
0.767573 0.918151 0.811641
0.767895 0.918182 0.811674
0.768897 0.918280 0.811776
0.772048 0.918589 0.812092
0.782386 0.919601 0.813075
0.821934 0.923443 0.815350
0.936115 0.930062 0.779071
0.026130 0.061729 0.179642
0.087125 0.065701 0.183709
0.215491 0.094059 0.200549
0.409462 0.164797 0.221346
0.643218 0.272393 0.300782
0.791426 0.412911 0.448435
0.863528 0.602481 0.636434
0.908931 0.749937 0.768411
0.930196 0.829938 0.838654
0.022473 0.072021 0.176292
0.049499 0.068580 0.174833
0.195962 0.092205 0.191087
0.400745 0.168347 0.213835
0.641241 0.277137 0.298103
0.791610 0.416496 0.447385
0.863747 0.603976 0.636172
0.908995 0.750283 0.768363
0.930211 0.830011 0.838645
0.072859 0.207178 0.198781
0.071945 0.198723 0.195221
0.178821 0.192411 0.197010
0.389273 0.191278 0.204290
0.638330 0.286904 0.294217
0.791951 0.422570 0.445791
0.864099 0.606379 0.635760
0.909097 0.750832 0.768287
0.930235 0.830126 0.838630
0.155734 0.407464 0.264455
0.156594 0.403982 0.262026
0.163927 0.398606 0.258450
0.367225 0.393141 0.220852
0.634719 0.358759 0.289714
0.793489 0.445210 0.441350
0.865242 0.614173 0.634493
0.909416 0.752559 0.768047
0.930310 0.830486 0.838582
0.266529 0.645276 0.399084
0.268228 0.644347 0.398354
0.271743 0.642893 0.397234
0.296878 0.638849 0.394447
0.609819 0.638135 0.329392
0.806764 0.581815 0.438198
0.869211 0.641256 0.630739
0.910420 0.758032 0.767299
0.930541 0.831607 0.838435
0.371060 0.793213 0.513300
0.372492 0.793112 0.513112
0.374919 0.792959 0.512823
0.383968 0.792547 0.512016
0.439445 0.792707 0.511068
0.778092 0.796358 0.428996
0.883511 0.754770 0.617722
0.913704 0.776491 0.764872
0.931264 0.835154 0.837965
0.505686 0.861675 0.633993
0.506667 0.861722 0.633993
0.508250 0.861800 0.633994
0.513434 0.862061 0.634021
0.531940 0.863063 0.634303
0.616079 0.868497 0.635861
0.868070 0.877001 0.557435
0.923553 0.849240 0.752336
0.933579 0.846994 0.836304
0.664775 0.899031 0.744088
0.665075 0.899055 0.744109
0.665551 0.899093 0.744142
0.667043 0.899212 0.744246
0.671724 0.899587 0.744567
0.687061 0.900830 0.745578
0.748938 0.906063 0.748062
0.915331 0.914583 0.693764
0.940026 0.892610 0.825678
0.767399 0.918139 0.811691
0.767464 0.918145 0.811698
0.767567 0.918155 0.811709
0.767890 0.918187 0.811741
0.768891 0.918285 0.811843
0.772043 0.918594 0.812160
0.782382 0.919606 0.813146
0.821934 0.923449 0.815433
0.936131 0.930073 0.779184
0.076270 0.115805 0.340090
0.104451 0.116076 0.341069
0.207224 0.124052 0.350180
0.404525 0.163372 0.370649
0.641845 0.266770 0.388286
0.791048 0.408875 0.476660
0.863287 0.600787 0.644168
0.908870 0.749555 0.770051
0.930185 0.829861 0.838996
0.070994 0.122736 0.338417
0.092768 0.121858 0.338540
0.186309 0.126682 0.345442
0.395298 0.164196 0.366512
0.639750 0.270741 0.384860
0.791222 0.412311 0.475412
0.863507 0.602272 0.643915
0.908935 0.749900 0.770004
0.930200 0.829934 0.838986
0.076121 0.161493 0.342780
0.087533 0.155597 0.341039
0.149703 0.150334 0.342151
0.381469 0.172844 0.360876
0.636598 0.278912 0.379553
0.791548 0.418132 0.473492
0.863862 0.604660 0.643516
0.909037 0.750449 0.769929
0.930224 0.830049 0.838971
0.173909 0.389157 0.371527
0.173598 0.385239 0.370030
0.176754 0.379074 0.367808
0.368126 0.373322 0.375093
0.631106 0.337718 0.367026
0.793030 0.439852 0.468041
0.865016 0.612406 0.642291
0.909358 0.752176 0.769693
0.930298 0.830409 0.838924
0.273505 0.639790 0.428682
0.274862 0.638789 0.427809
0.277724 0.637218 0.426465
0.299416 0.632756 0.423109
0.610067 0.631895 0.367235
0.806343 0.571953 0.461888
0.869040 0.639359 0.638669
0.910367 0.757648 0.768958
0.930530 0.831530 0.838778
0.372587 0.792642 0.523857
0.373958 0.792535 0.523651
0.376283 0.792371 0.523334
0.384978 0.791926 0.522443
0.438758 0.791949 0.521382
0.778947 0.795743 0.441585
0.883842 0.752963 0.626122
0.913675 0.776100 0.766572
0.931255 0.835077 0.838311
0.505825 0.861812 0.638336
0.506796 0.861859 0.638340
0.508364 0.861936 0.638348
0.513500 0.862195 0.638399
0.531877 0.863192 0.638777
0.615901 0.868634 0.640893
0.868785 0.877290 0.564152
0.923671 0.848950 0.754255
0.933576 0.846919 0.836663
0.664711 0.899082 0.745110
0.665011 0.899106 0.745132
0.665487 0.899144 0.745166
0.666981 0.899263 0.745272
0.671665 0.899639 0.745603
0.687006 0.900885 0.746648
0.748926 0.906130 0.749310
0.915540 0.914715 0.695425
0.940055 0.892558 0.826089
0.767382 0.918154 0.811901
0.767447 0.918160 0.811908
0.767551 0.918170 0.811918
0.767873 0.918202 0.811951
0.768875 0.918300 0.812054
0.772027 0.918609 0.812372
0.782369 0.919622 0.813366
0.821934 0.923469 0.815691
0.936181 0.930108 0.779536
0.177773 0.205254 0.557580
0.192407 0.205005 0.558068
0.222762 0.205171 0.559503
0.389954 0.215007 0.571799
0.635057 0.259208 0.592454
0.788976 0.397739 0.600253
0.862397 0.595509 0.669298
0.908668 0.748362 0.775206
0.930148 0.829622 0.840053
0.173982 0.210591 0.557223
0.187593 0.210119 0.557584
0.215722 0.209867 0.558741
0.380523 0.218147 0.570369
0.632582 0.261240 0.591278
0.789123 0.400703 0.599347
0.862621 0.596961 0.669084
0.908734 0.748707 0.775161
0.930163 0.829695 0.840044
0.169512 0.221967 0.557284
0.181487 0.221069 0.557436
0.206355 0.220072 0.558166
0.364976 0.225390 0.568417
0.628692 0.265501 0.589526
0.789405 0.405731 0.597934
0.862982 0.599298 0.668746
0.908837 0.749255 0.775090
0.930187 0.829810 0.840029
0.180868 0.308911 0.568487
0.186532 0.304928 0.567664
0.199895 0.299046 0.566654
0.315555 0.287088 0.569319
0.617982 0.295002 0.586112
0.790740 0.424556 0.593775
0.864159 0.606884 0.667709
0.909163 0.750981 0.774867
0.930262 0.830170 0.839984
0.300232 0.627532 0.604445
0.300904 0.626321 0.604058
0.302494 0.624407 0.603467
0.316261 0.618688 0.602047
0.623647 0.621501 0.619874
0.804369 0.540685 0.587593
0.868325 0.633389 0.664676
0.910190 0.756448 0.774171
0.930495 0.831291 0.839841
0.388826 0.792720 0.587419
0.389962 0.792592 0.587196
0.391896 0.792397 0.586856
0.399213 0.791847 0.585912
0.446066 0.791469 0.585448
0.786250 0.796884 0.527875
0.884844 0.747275 0.654390
0.913567 0.774881 0.771922
0.931225 0.834839 0.839385
0.506837 0.862366 0.653225
0.507773 0.862411 0.653235
0.509287 0.862484 0.653255
0.514256 0.862734 0.653344
0.532154 0.863707 0.653894
0.615610 0.869166 0.657523
0.871279 0.878393 0.587421
0.924035 0.848047 0.760277
0.933565 0.846687 0.837777
0.664532 0.899247 0.748325
0.664833 0.899271 0.748349
0.665310 0.899309 0.748386
0.666806 0.899429 0.748502
0.671502 0.899808 0.748863
0.686858 0.901063 0.750010
0.748901 0.906346 0.753231
0.916202 0.915137 0.700694
0.940146 0.892397 0.827362
0.767332 0.918200 0.812551
0.767398 0.918206 0.812558
0.767501 0.918216 0.812569
0.767824 0.918248 0.812603
0.768826 0.918346 0.812707
0.771980 0.918656 0.813032
0.782330 0.919672 0.814050
0.821937 0.923530 0.816494
0.936338 0.930216 0.780631
0.335504 0.329539 0.737856
0.342881 0.329308 0.738119
0.355622 0.329020 0.738598
0.405287 0.328911 0.740696
0.623700 0.338215 0.751377
0.780504 0.371033 0.760237
0.858109 0.578763 0.758994
0.907899 0.744545 0.792034
0.930025 0.828874 0.843366
0.333460 0.333048 0.738073
0.340659 0.332779 0.738321
0.353098 0.332429 0.738776
0.401665 0.332100 0.740788
0.620903 0.340827 0.751430
0.780442 0.372812 0.760305
0.858321 0.580091 0.758938
0.907967 0.744888 0.791998
0.930040 0.828947 0.843358
0.330462 0.339049 0.738491
0.337377 0.338716 0.738716
0.349339 0.338262 0.739132
0.396172 0.337573 0.741004
0.616384 0.345307 0.751557
0.780366 0.375827 0.760439
0.858665 0.582230 0.758853
0.908074 0.745433 0.791941
0.930065 0.829062 0.843344
0.323360 0.362532 0.740591
0.329381 0.361941 0.740734
0.339843 0.361071 0.741015
0.381234 0.359000 0.742415
0.601623 0.362671 0.752400
0.780357 0.387103 0.761108
0.859796 0.589189 0.758614
0.908412 0.747149 0.791762
0.930141 0.829422 0.843302
0.340061 0.524177 0.762754
0.343164 0.522084 0.762538
0.348632 0.518803 0.762227
0.371408 0.508945 0.761586
0.554864 0.486670 0.766204
0.784951 0.453839 0.767927
0.863924 0.613734 0.758157
0.909483 0.752594 0.791209
0.930378 0.830543 0.843170
0.401408 0.791249 0.770909
0.402270 0.791080 0.770925
0.403738 0.790815 0.770955
0.409311 0.790031 0.771105
0.445452 0.788576 0.772697
0.809843 0.802928 0.797683
0.884611 0.726211 0.759244
0.913051 0.770954 0.789438
0.931121 0.834091 0.842749
0.515950 0.865897 0.715929
0.516798 0.865935 0.715977
0.518170 0.865998 0.716058
0.522695 0.866213 0.716350
0.539246 0.867093 0.717664
0.620097 0.872646 0.726862
0.882846 0.884891 0.693148
0.925123 0.845161 0.780032
0.933520 0.845956 0.841264
0.664173 0.899824 0.758877
0.664476 0.899849 0.758906
0.664956 0.899888 0.758953
0.666462 0.900010 0.759097
0.671191 0.900398 0.759553
0.686612 0.901681 0.761027
0.748948 0.907096 0.766025
0.918420 0.916592 0.718460
0.940426 0.891893 0.831365
0.767189 0.918346 0.814597
0.767255 0.918353 0.814604
0.767358 0.918363 0.814616
0.767682 0.918395 0.814652
0.768686 0.918494 0.814762
0.771846 0.918806 0.815108
0.782221 0.919831 0.816199
0.821953 0.923723 0.819015
0.936828 0.930557 0.784076
0.561846 0.517452 0.821758
0.564665 0.517254 0.821848
0.569191 0.516943 0.821993
0.584023 0.516013 0.822473
0.636701 0.513516 0.824191
0.791348 0.504559 0.827771
0.846057 0.528082 0.832116
0.904025 0.731254 0.850827
0.929534 0.826446 0.854212
0.561101 0.519494 0.822029
0.563917 0.519292 0.822118
0.568422 0.518975 0.822262
0.583180 0.518026 0.822737
0.635653 0.515465 0.824440
0.791294 0.506359 0.828025
0.846201 0.529155 0.832264
0.904094 0.731584 0.850832
0.929550 0.826518 0.854205
0.559934 0.522779 0.822467
0.562745 0.522572 0.822556
0.567226 0.522246 0.822697
0.581867 0.521265 0.823164
0.634009 0.518603 0.824843
0.791211 0.509260 0.828435
0.846433 0.530879 0.832503
0.904202 0.732108 0.850838
0.929576 0.826633 0.854194
0.556395 0.533433 0.823905
0.559184 0.533211 0.823991
0.563634 0.532861 0.824129
0.577934 0.531789 0.824573
0.629011 0.528822 0.826182
0.790992 0.518740 0.829794
0.847198 0.536460 0.833285
0.904545 0.733758 0.850860
0.929655 0.826992 0.854160
0.546566 0.569966 0.828975
0.549250 0.569708 0.829057
0.553548 0.569302 0.829188
0.567310 0.568045 0.829609
0.614928 0.564332 0.831053
0.785809 0.551887 0.834612
0.849965 0.555755 0.836069
0.905639 0.739005 0.850936
0.929902 0.828110 0.854054
0.532702 0.727671 0.850659
0.534729 0.727304 0.850740
0.538014 0.726725 0.850873
0.548854 0.724949 0.851331
0.587751 0.719711 0.853100
0.763174 0.702435 0.859138
0.864634 0.644280 0.850187
0.909393 0.756823 0.851238
0.930681 0.831653 0.853719
0.497165 0.870264 0.855568
0.497880 0.870291 0.855626
0.499033 0.870335 0.855720
0.502804 0.870485 0.856024
0.516347 0.871093 0.857112
0.593730 0.875966 0.863459
0.902743 0.893743 0.886916
0.925798 0.833022 0.851774
0.933242 0.843549 0.852572
0.664091 0.902820 0.801027
0.664410 0.902844 0.801065
0.664916 0.902884 0.801126
0.666503 0.903007 0.801318
0.671497 0.903399 0.801937
0.687798 0.904720 0.804080
0.751491 0.910490 0.813883
0.927458 0.923208 0.793087
0.941273 0.890250 0.844464
0.766854 0.918846 0.821324
0.766919 0.918853 0.821332
0.767024 0.918863 0.821345
0.767349 0.918896 0.821387
0.768360 0.918997 0.821518
0.771541 0.919316 0.821926
0.781994 0.920369 0.823246
0.822076 0.924382 0.827249
0.938421 0.931689 0.795432
0.749708 0.708635 0.880780
0.750371 0.708569 0.880792
0.751423 0.708464 0.880812
0.754730 0.708134 0.880873
0.765181 0.707087 0.881047
0.799974 0.703482 0.881438
0.872100 0.685094 0.879533
0.893957 0.690750 0.880638
0.926768 0.817425 0.894877
0.749536 0.709150 0.880862
0.750198 0.709084 0.880875
0.751250 0.708979 0.880895
0.754555 0.708648 0.880955
0.765000 0.707601 0.881131
0.799771 0.703994 0.881524
0.872156 0.685595 0.879622
0.894009 0.691022 0.880686
0.926785 0.817496 0.894878
0.749265 0.709968 0.880993
0.749926 0.709902 0.881006
0.750976 0.709797 0.881026
0.754279 0.709466 0.881087
0.764714 0.708417 0.881264
0.799451 0.704808 0.881660
0.872245 0.686390 0.879765
0.894092 0.691454 0.880762
0.926811 0.817607 0.894879
0.748421 0.712541 0.881405
0.749080 0.712475 0.881418
0.750128 0.712369 0.881438
0.753420 0.712037 0.881501
0.763827 0.710985 0.881681
0.798456 0.707367 0.882088
0.872526 0.688895 0.880214
0.894353 0.692815 0.881002
0.926893 0.817955 0.894883
0.745856 0.720686 0.882706
0.746509 0.720619 0.882720
0.747546 0.720512 0.882742
0.750809 0.720177 0.882809
0.761125 0.719117 0.883004
0.795429 0.715475 0.883449
0.873421 0.696838 0.881647
0.895188 0.697150 0.881768
0.927149 0.819038 0.894895
0.738247 0.747841 0.886984
0.738880 0.747774 0.887003
0.739886 0.747667 0.887032
0.743052 0.747331 0.887121
0.753076 0.746268 0.887385
0.786497 0.742634 0.888028
0.876478 0.723639 0.886566
0.898084 0.711958 0.884421
0.927963 0.822481 0.894933
0.712800 0.847322 0.899212
0.713369 0.847281 0.899257
0.714272 0.847216 0.899329
0.717119 0.847012 0.899555
0.726172 0.846388 0.900275
0.756966 0.844453 0.902687
0.877930 0.831677 0.907398
0.911377 0.776270 0.896498
0.930730 0.834148 0.895031
0.632084 0.904838 0.895695
0.632413 0.904864 0.895724
0.632936 0.904905 0.895769
0.634583 0.905035 0.895914
0.639819 0.905454 0.896377
0.657553 0.906913 0.897977
0.729488 0.913413 0.904955
0.942161 0.932535 0.925232
0.942148 0.882745 0.893412
0.766245 0.921169 0.848130
0.766315 0.921176 0.848141
0.766425 0.921187 0.848157
0.766768 0.921220 0.848208
0.767835 0.921323 0.848369
0.771193 0.921649 0.848880
0.782224 0.922741 0.850636
0.823829 0.927113 0.857896
0.944602 0.936441 0.842612
0.854338 0.822225 0.911724
0.854474 0.822206 0.911724
0.854689 0.822175 0.911725
0.855362 0.822079 0.911728
0.857454 0.821777 0.911734
0.864067 0.820797 0.911735
0.886026 0.817150 0.911521
0.915859 0.797352 0.907976
0.919912 0.789928 0.906532
0.854300 0.822337 0.911744
0.854435 0.822317 0.911745
0.854651 0.822287 0.911746
0.855324 0.822190 0.911748
0.857415 0.821889 0.911755
0.864027 0.820909 0.911756
0.885984 0.817265 0.911543
0.915880 0.797468 0.907999
0.919925 0.789987 0.906544
0.854239 0.822513 0.911776
0.854375 0.822494 0.911777
0.854590 0.822463 0.911778
0.855263 0.822367 0.911781
0.857354 0.822066 0.911788
0.863965 0.821087 0.911790
0.885917 0.817446 0.911578
0.915912 0.797651 0.908036
0.919946 0.790081 0.906563
0.854051 0.823064 0.911878
0.854187 0.823045 0.911878
0.854402 0.823014 0.911879
0.855074 0.822919 0.911882
0.857164 0.822618 0.911890
0.863769 0.821643 0.911894
0.885708 0.818012 0.911688
0.916014 0.798224 0.908152
0.920013 0.790376 0.906621
0.853469 0.824770 0.912190
0.853605 0.824751 0.912191
0.853819 0.824721 0.912192
0.854490 0.824626 0.912196
0.856575 0.824329 0.912206
0.863166 0.823363 0.912217
0.885062 0.819767 0.912029
0.916330 0.800003 0.908513
0.920221 0.791291 0.906803
0.851659 0.830096 0.913159
0.851793 0.830078 0.913160
0.852006 0.830049 0.913162
0.852672 0.829957 0.913168
0.854743 0.829670 0.913186
0.861290 0.828736 0.913219
0.883055 0.825255 0.913094
0.917321 0.805600 0.909649
0.920879 0.794189 0.907380
0.845825 0.847211 0.916153
0.845957 0.847195 0.916157
0.846166 0.847169 0.916162
0.846820 0.847089 0.916179
0.848854 0.846835 0.916227
0.855280 0.846009 0.916354
0.876658 0.842901 0.916491
0.920540 0.823886 0.913398
0.923105 0.803935 0.909333
0.818602 0.904345 0.921963
0.818734 0.904341 0.921976
0.818944 0.904335 0.921998
0.819602 0.904315 0.922064
0.821642 0.904252 0.922268
0.828065 0.904056 0.922912
0.849143 0.903356 0.924994
0.929531 0.893298 0.928052
0.932822 0.845702 0.917896
0.745476 0.923579 0.915670
0.745551 0.923586 0.915678
0.745670 0.923598 0.915690
0.746040 0.923636 0.915729
0.747190 0.923752 0.915849
0.750807 0.924118 0.916229
0.762818 0.925349 0.917502
0.811110 0.930514 0.922811
0.955808 0.946014 0.938584
