color-grading/luts/03_combined_slog3/BNC_SLog3_L02_Print2383.cube
TITLE "BNC SLog3 L02 Print2383"
# BNC Grade v1.0 — S-Log3/S-Gamut3.Cine -> BNC Base -> Kodak 2383 print-stock emulation: punchy contrast, a crushed toe, cool-leaning shadows against warm highlights, and an overall desaturated, filmic roll-off.
# Input: S-Log3 / S-Gamut3.Cine | Output: Rec.709 Gamma 2.4
LUT_3D_SIZE 5
DOMAIN_MIN 0.0 0.0 0.0
DOMAIN_MAX 1.0 1.0 1.0
0.000551 0.000553 0.000553
0.149530 0.065659 0.048750
0.664675 0.190626 0.184103
0.900146 0.588558 0.623974
0.963140 0.911671 0.898085
0.049125 0.152810 0.084618
0.093801 0.135374 0.054354
0.659035 0.209789 0.178306
0.900837 0.595466 0.623632
0.963169 0.911881 0.898082
0.210245 0.640619 0.188367
0.210497 0.638142 0.186025
0.657246 0.625328 0.206889
0.906106 0.654928 0.623532
0.963376 0.913532 0.898075
0.448772 0.847508 0.482446
0.452650 0.847757 0.482227
0.487933 0.850251 0.480942
0.935907 0.887764 0.593953
0.964406 0.928635 0.898708
0.828721 0.933530 0.814716
0.829003 0.933555 0.814741
0.831209 0.933755 0.814941
0.853180 0.935744 0.816930
0.963162 0.942175 0.831515
0.013636 0.039699 0.060263
0.143956 0.057742 0.115268
0.664972 0.182814 0.214680
0.900437 0.585900 0.628772
0.963132 0.911609 0.898229
0.039270 0.119011 0.104555
0.072536 0.099409 0.098286
0.658324 0.202304 0.206929
0.901205 0.592749 0.628352
0.963161 0.911818 0.898227
0.208905 0.638059 0.199185
0.208082 0.635511 0.195688
0.655164 0.621023 0.205600
0.906508 0.652808 0.628201
0.963372 0.913466 0.898218
0.448513 0.848165 0.487291
0.452390 0.848414 0.487084
0.487706 0.850916 0.485901
0.936167 0.888191 0.595806
0.964408 0.928611 0.898876
0.828679 0.933554 0.814935
0.828960 0.933579 0.814960
0.831169 0.933780 0.815161
0.853159 0.935770 0.817159
0.963178 0.942215 0.831749
0.080064 0.231989 0.420223
0.065708 0.196061 0.473635
0.625032 0.170212 0.572628
0.898443 0.568466 0.672136
0.963050 0.911143 0.899359
0.081652 0.236210 0.419388
0.076875 0.223660 0.445261
0.619579 0.169486 0.571106
0.899902 0.574439 0.671406
0.963082 0.911349 0.899356
0.224276 0.645073 0.609481
0.222806 0.641377 0.608784
0.673231 0.663253 0.651011
0.910455 0.630607 0.667137
0.963321 0.912969 0.899339
0.445981 0.853955 0.528815
0.449873 0.854204 0.528650
0.485584 0.856731 0.527962
0.938623 0.892469 0.614500
0.964403 0.928396 0.900194
0.828339 0.933743 0.816656
0.828623 0.933768 0.816682
0.830845 0.933970 0.816888
0.852988 0.935976 0.818960
0.963284 0.942428 0.832783
0.531322 0.472743 0.866195
0.543128 0.470743 0.865604
0.643046 0.454030 0.857312
0.848309 0.439094 0.837892
0.961850 0.906438 0.909050
0.527363 0.481354 0.867551
0.539214 0.479347 0.867043
0.639419 0.462494 0.859100
0.849287 0.443668 0.838621
0.961888 0.906657 0.909066
0.495551 0.555995 0.876151
0.507538 0.554180 0.876526
0.609281 0.537467 0.874373
0.858283 0.483969 0.845212
0.962183 0.908361 0.909189
0.364914 0.884762 0.859040
0.368362 0.885020 0.859301
0.399969 0.887540 0.861799
0.964491 0.952421 0.932126
0.964305 0.924267 0.910688
0.824289 0.935552 0.833964
0.824587 0.935580 0.833995
0.826930 0.935797 0.834240
0.850523 0.937959 0.836876
0.964389 0.944766 0.844817
0.941993 0.904228 0.931078
0.942161 0.904136 0.931047
0.943420 0.903406 0.930814
0.952046 0.895066 0.928313
0.950715 0.852704 0.919541
0.941982 0.904575 0.931151
0.942151 0.904483 0.931121
0.943418 0.903756 0.930886
0.952077 0.895454 0.928394
0.950760 0.852944 0.919586
0.941866 0.907249 0.931725
0.942043 0.907160 0.931694
0.943369 0.906456 0.931455
0.952310 0.898458 0.929017
0.951109 0.854834 0.919935
0.937315 0.929169 0.936064
0.937580 0.929121 0.936079
0.939615 0.928722 0.936154
0.953450 0.923496 0.934557
0.954554 0.874026 0.923485
0.773231 0.935823 0.913464
0.773550 0.935860 0.913505
0.776055 0.936153 0.913830
0.801778 0.939136 0.917181
0.966243 0.962069 0.955895
