color-grading/luts/03_combined_slog3/BNC_SLog3_L07_Eterna.cube
TITLE "BNC SLog3 L07 Eterna"
# BNC Grade v1.0 - S-Log3/S-Gamut3.Cine -> BNC Base -> Fujifilm Eterna-style flat, low-contrast cinema stock emulation with soft highlights and gentle desaturation.
# Input: S-Log3 / S-Gamut3.Cine | Output: Rec.709 Gamma 2.4
LUT_3D_SIZE 33
DOMAIN_MIN 0.0 0.0 0.0
DOMAIN_MAX 1.0 1.0 1.0
0.031468 0.037310 0.039257
0.031468 0.037310 0.039257
0.035740 0.037786 0.039766
0.070631 0.045103 0.046674
0.099027 0.054101 0.054444
0.124018 0.062454 0.061613
0.151563 0.071776 0.069632
0.184030 0.083231 0.079831
0.220175 0.096364 0.091910
0.260562 0.111350 0.106247
0.306261 0.128527 0.122808
0.357158 0.147896 0.141927
0.412498 0.169321 0.163557
0.473309 0.193594 0.188404
0.532067 0.219060 0.215103
0.589465 0.246411 0.244750
0.644213 0.275833 0.276759
0.695320 0.307322 0.311946
0.742620 0.341488 0.350435
0.769113 0.375936 0.391374
0.791622 0.415087 0.436261
0.811850 0.457918 0.484902
0.830518 0.505809 0.537245
0.848124 0.556598 0.586597
0.863646 0.603364 0.632477
0.877859 0.647650 0.674040
0.890007 0.686765 0.709692
0.900218 0.720560 0.740859
0.908962 0.750136 0.767560
0.916137 0.775427 0.790613
0.922271 0.797366 0.809898
0.926968 0.815261 0.825543
0.930202 0.829978 0.838476
0.031468 0.037310 0.039257
0.031468 0.037310 0.039257
0.031468 0.037310 0.039257
0.060016 0.042333 0.044124
0.089974 0.051275 0.051949
0.116303 0.060552 0.059491
0.144874 0.070418 0.067625
0.178667 0.082492 0.078067
0.215700 0.096095 0.090321
0.256893 0.111595 0.104798
0.303130 0.129041 0.121486
0.354645 0.148711 0.140762
0.410392 0.170300 0.162471
0.471717 0.194756 0.187479
0.530998 0.220267 0.214309
0.588716 0.247666 0.244081
0.643730 0.277034 0.276206
0.695014 0.308452 0.311481
0.742440 0.342535 0.350045
0.769124 0.376929 0.391051
0.791667 0.415986 0.436010
0.811914 0.458678 0.484685
0.830595 0.506491 0.537097
0.848192 0.557117 0.586503
0.863700 0.603738 0.632411
0.877901 0.647920 0.674000
0.890037 0.686946 0.709664
0.900241 0.720686 0.740841
0.908978 0.750223 0.767547
0.916149 0.775486 0.790605
0.922279 0.797407 0.809893
0.926973 0.815288 0.825539
0.930206 0.829996 0.838474
0.031468 0.037310 0.039257
0.031468 0.037310 0.039257
0.031468 0.037310 0.039257
0.048440 0.039852 0.041767
0.080756 0.048831 0.049540
0.108352 0.059141 0.057448
0.138091 0.069738 0.065821
0.173277 0.082465 0.076498
0.211274 0.096521 0.088915
0.253268 0.112394 0.103479
0.300046 0.130026 0.120275
0.352160 0.149870 0.139667
0.408314 0.171566 0.161445
0.470137 0.196110 0.186587
0.529942 0.221615 0.213541
0.587976 0.249015 0.243428
0.643253 0.278293 0.275663
0.694712 0.309623 0.311024
0.742262 0.343610 0.349659
0.769138 0.377941 0.390732
0.791714 0.416896 0.435761
0.811978 0.459446 0.484470
0.830671 0.507178 0.536949
0.848260 0.557637 0.586409
0.863754 0.604112 0.632344
0.877944 0.648191 0.673959
0.890068 0.687127 0.709636
0.900263 0.720813 0.740822
0.908994 0.750309 0.767535
0.916160 0.775546 0.790597
0.922286 0.797447 0.809888
0.926979 0.815314 0.825536
0.930210 0.830014 0.838471
0.016801 0.071006 0.057116
0.020769 0.066330 0.054462
0.024032 0.061385 0.051681
0.033456 0.056956 0.049355
0.072251 0.058218 0.050954
0.100747 0.062691 0.056955
0.131676 0.072043 0.064839
0.168066 0.084336 0.075417
0.207039 0.098402 0.087852
0.249754 0.114096 0.102373
0.297048 0.131706 0.119226
0.349720 0.151484 0.138668
0.406276 0.173186 0.160492
0.468574 0.197683 0.185735
0.528903 0.223122 0.212803
0.587246 0.250466 0.242792
0.642782 0.279614 0.275132
0.694416 0.310837 0.310574
0.742088 0.344712 0.349278
0.769153 0.378972 0.390415
0.791762 0.417818 0.435513
0.812043 0.460221 0.484255
0.830749 0.507869 0.536802
0.848328 0.558159 0.586315
0.863809 0.604488 0.632278
0.877987 0.648462 0.673919
0.890098 0.687308 0.709608
0.900286 0.720940 0.740804
0.909010 0.750395 0.767523
0.916172 0.775605 0.790589
0.922294 0.797487 0.809883
0.926984 0.815341 0.825532
0.930213 0.830033 0.838469
0.000106 0.103250 0.075261
0.000102 0.099541 0.073208
0.000098 0.095847 0.071143
0.000095 0.092364 0.068950
0.060055 0.091387 0.065783
0.095674 0.091343 0.063909
0.127996 0.091921 0.068672
0.164038 0.093927 0.076280
0.203352 0.103555 0.087596
0.246500 0.117616 0.101693
0.294201 0.134443 0.118422
0.347355 0.153716 0.137798
0.404290 0.175245 0.159631
0.467034 0.199512 0.184929
0.527882 0.224806 0.212098
0.586527 0.252025 0.242176
0.642316 0.281001 0.274611
0.694124 0.312097 0.310132
0.741916 0.345844 0.348902
0.769171 0.380025 0.390102
0.791811 0.418752 0.435267
0.812110 0.461007 0.484042
0.830827 0.508565 0.536656
0.848397 0.558682 0.586222
0.863864 0.604864 0.632212
0.878030 0.648733 0.673879
0.890129 0.687490 0.709580
0.900308 0.721066 0.740786
0.909026 0.750482 0.767511
0.916183 0.775665 0.790581
0.922302 0.797528 0.809878
0.926990 0.815367 0.825528
0.930217 0.830051 0.838467
0.000135 0.130986 0.090204
0.000131 0.127762 0.088436
0.000128 0.124521 0.086592
0.000125 0.121441 0.084565
0.045361 0.119045 0.083420
0.086375 0.118938 0.077839
0.124334 0.118420 0.075253
0.162252 0.118332 0.081523
0.201325 0.118549 0.089893
0.243823 0.124848 0.101908
0.291615 0.138848 0.118007
0.345113 0.156929 0.137133
0.402376 0.177851 0.158886
0.465522 0.201639 0.184180
0.526884 0.226690 0.211431
0.585821 0.253704 0.241580
0.641858 0.282460 0.274104
0.693838 0.313405 0.309698
0.741747 0.347006 0.348532
0.769191 0.381097 0.389792
0.791862 0.419698 0.435023
0.812177 0.461801 0.483830
0.830906 0.509265 0.536510
0.848465 0.559207 0.586128
0.863918 0.605242 0.632146
0.878072 0.649005 0.673839
0.890160 0.687672 0.709552
0.900331 0.721193 0.740768
0.909042 0.750569 0.767499
0.916194 0.775724 0.790573
0.922310 0.797568 0.809873
0.926995 0.815394 0.825525
0.930221 0.830069 0.838464
0.016040 0.160179 0.106045
0.016341 0.157481 0.104522
0.018259 0.154762 0.102994
0.023597 0.152056 0.101497
0.036583 0.149532 0.100180
0.074293 0.148524 0.099405
0.115259 0.148526 0.090996
0.158732 0.147624 0.088663
0.199831 0.146799 0.095877
0.242371 0.145502 0.105205
0.289102 0.148911 0.118540
0.342593 0.163027 0.136744
0.400120 0.182102 0.158166
0.463686 0.204793 0.183338
0.525674 0.229368 0.210659
0.584958 0.255987 0.240867
0.641296 0.284397 0.273489
0.693488 0.315112 0.309168
0.741540 0.348504 0.348077
0.769220 0.382470 0.389410
0.791928 0.420899 0.434721
0.812264 0.462809 0.483567
0.831005 0.510147 0.536328
0.848552 0.559867 0.586012
0.863987 0.605716 0.632063
0.878126 0.649346 0.673789
0.890198 0.687900 0.709517
0.900359 0.721352 0.740745
0.909062 0.750677 0.767483
0.916209 0.775799 0.790563
0.922320 0.797619 0.809866
0.927002 0.815427 0.825520
0.930226 0.830092 0.838461
0.039299 0.194363 0.125393
0.039328 0.192152 0.124130
0.040045 0.189925 0.122866
0.041950 0.187698 0.121615
0.046847 0.185524 0.120431
0.060732 0.183654 0.119525
0.101517 0.182989 0.118435
0.148792 0.182780 0.106712
0.196263 0.181313 0.103999
0.240865 0.179736 0.112199
0.287871 0.177360 0.122986
0.339981 0.177815 0.137623
0.397335 0.190602 0.157719
0.461266 0.210517 0.182410
0.524066 0.233836 0.209714
0.583794 0.259574 0.239937
0.640532 0.287347 0.272667
0.693014 0.317649 0.308449
0.741258 0.350692 0.347455
0.769267 0.384453 0.388882
0.792025 0.422618 0.434301
0.812389 0.464247 0.483202
0.831147 0.511397 0.536073
0.848674 0.560796 0.585848
0.864084 0.606385 0.631947
0.878202 0.649825 0.673718
0.890252 0.688220 0.709468
0.900398 0.721576 0.740713
0.909090 0.750829 0.767462
0.916229 0.775904 0.790549
0.922334 0.797690 0.809858
0.927011 0.815474 0.825514
0.930232 0.830124 0.838457
0.059558 0.231191 0.146324
0.059595 0.229400 0.145293
0.060040 0.227604 0.144266
0.061189 0.225812 0.143253
0.063561 0.224042 0.142271
0.068752 0.222352 0.141375
0.086266 0.220694 0.140635
0.134858 0.220351 0.138675
0.186096 0.220003 0.123670
0.236990 0.218084 0.120696
0.285996 0.215925 0.130278
0.338883 0.212531 0.142774
0.394889 0.209826 0.158950
0.458516 0.221554 0.181881
0.522151 0.241359 0.208785
0.582352 0.265133 0.238856
0.639571 0.291724 0.271662
0.692419 0.321288 0.307546
0.740902 0.353758 0.346661
0.769342 0.387190 0.388201
0.792162 0.424958 0.433754
0.812561 0.466200 0.482725
0.831337 0.513075 0.535738
0.848836 0.562036 0.585633
0.864214 0.607276 0.631794
0.878303 0.650463 0.673625
0.890324 0.688646 0.709403
0.900451 0.721873 0.740671
0.909127 0.751031 0.767434
0.916255 0.776043 0.790530
0.922352 0.797784 0.809846
0.927024 0.815536 0.825506
0.930241 0.830166 0.838451
0.080613 0.271331 0.169162
0.080732 0.269858 0.168311
0.081109 0.268384 0.167465
0.081857 0.266913 0.166628
0.083289 0.265454 0.165810
0.085898 0.264025 0.165028
0.092110 0.262336 0.164154
0.117286 0.260721 0.163480
0.170639 0.260573 0.160216
0.225965 0.259867 0.141910
0.281601 0.257410 0.138688
0.336603 0.254754 0.150138
0.394145 0.250372 0.164633
0.456268 0.245626 0.183275
0.520153 0.255169 0.208360
0.580678 0.274270 0.237768
0.638414 0.298505 0.270513
0.691699 0.326662 0.306451
0.740462 0.358139 0.345663
0.769466 0.391020 0.387333
0.792356 0.428172 0.433045
0.812800 0.468871 0.482105
0.831595 0.515338 0.535298
0.849053 0.563693 0.585348
0.864387 0.608466 0.631592
0.878437 0.651312 0.673501
0.890420 0.689213 0.709317
0.900521 0.722267 0.740615
0.909177 0.751299 0.767396
0.916290 0.776227 0.790505
0.922377 0.797909 0.809830
0.927041 0.815618 0.825494
0.930253 0.830222 0.838444
0.103494 0.315573 0.194423
0.103643 0.314333 0.193698
0.103997 0.313095 0.192977
0.104622 0.311861 0.192265
0.105616 0.310635 0.191565
0.107117 0.309423 0.190882
0.110094 0.307942 0.190068
0.118686 0.306031 0.189096
0.152418 0.304631 0.188489
0.209684 0.304568 0.183594
0.269624 0.303467 0.161880
0.331390 0.300514 0.158656
0.391941 0.297171 0.172119
0.455581 0.291682 0.189119
0.519112 0.284136 0.210178
0.579106 0.290942 0.237252
0.637160 0.309670 0.269411
0.690892 0.334924 0.305212
0.739949 0.364596 0.344454
0.769676 0.396481 0.386248
0.792641 0.432640 0.432138
0.813137 0.472562 0.481307
0.831947 0.518406 0.534722
0.849345 0.565914 0.584972
0.864619 0.610060 0.631324
0.878615 0.652445 0.673337
0.890547 0.689967 0.709203
0.900613 0.722791 0.740540
0.909242 0.751656 0.767346
0.916337 0.776472 0.790472
0.922409 0.798075 0.809810
0.927063 0.815727 0.825480
0.930268 0.830297 0.838434
0.128868 0.365259 0.222776
0.129089 0.364228 0.222168
0.129434 0.363198 0.221563
0.129932 0.362169 0.220963
0.130620 0.361144 0.220370
0.131586 0.360124 0.219786
0.133359 0.358865 0.219078
0.137455 0.357152 0.218148
0.148561 0.355111 0.217145
0.190312 0.353879 0.216513
0.251865 0.353773 0.209994
0.317816 0.352170 0.184529
0.386702 0.348496 0.180901
0.453037 0.344190 0.196788
0.519871 0.336927 0.216668
0.578907 0.325747 0.239363
0.636240 0.329802 0.269024
0.690157 0.348397 0.304057
0.739425 0.374588 0.343105
0.770043 0.404466 0.384942
0.793068 0.438956 0.430997
0.813622 0.477731 0.480292
0.832431 0.522595 0.533971
0.849737 0.568899 0.584477
0.864930 0.612202 0.630972
0.878854 0.653958 0.673119
0.890717 0.690973 0.709052
0.900736 0.723489 0.740442
0.909329 0.752129 0.767280
0.916399 0.776797 0.790428
0.922452 0.798295 0.809783
0.927093 0.815872 0.825460
0.930288 0.830395 0.838421
0.155896 0.419078 0.253774
0.156150 0.418243 0.253271
0.156499 0.417411 0.252771
0.156959 0.416582 0.252277
0.157553 0.415758 0.251788
0.158309 0.414938 0.251306
0.159537 0.413923 0.250715
0.161964 0.412526 0.249918
0.167205 0.410755 0.248951
0.181865 0.408738 0.247992
0.231372 0.407839 0.247310
0.298051 0.407899 0.239117
0.371866 0.406063 0.209390
0.446687 0.401799 0.205892
0.518182 0.396595 0.224858
0.580586 0.386702 0.246569
0.637251 0.371496 0.271830
0.690055 0.372675 0.303813
0.739074 0.390942 0.341889
0.770713 0.416559 0.383485
0.793731 0.448083 0.429603
0.814334 0.485096 0.479027
0.833104 0.528367 0.532997
0.850267 0.572928 0.583826
0.865351 0.615094 0.630508
0.879173 0.655986 0.672831
0.890943 0.692319 0.708852
0.900901 0.724420 0.740311
0.909445 0.752759 0.767192
0.916481 0.777230 0.790369
0.922509 0.798587 0.809746
0.927132 0.816064 0.825434
0.930315 0.830526 0.838404
0.184724 0.478742 0.288448
0.185030 0.478054 0.288023
0.185397 0.477366 0.287600
0.185835 0.476679 0.287180
0.186352 0.475994 0.286763
0.186961 0.475310 0.286350
0.187873 0.474458 0.285838
0.189527 0.473272 0.285137
0.192729 0.471732 0.284253
0.199658 0.469792 0.283201
0.217610 0.467618 0.282187
0.274717 0.466775 0.281296
0.348441 0.466749 0.271016
0.429229 0.464240 0.237012
0.511671 0.459201 0.233773
0.579975 0.452482 0.255143
0.640449 0.440906 0.279889
0.692209 0.422227 0.307235
0.739372 0.419780 0.341671
0.771986 0.435776 0.382161
0.794805 0.461688 0.427999
0.815410 0.495825 0.477505
0.834051 0.536413 0.531748
0.850986 0.578391 0.582971
0.865923 0.619022 0.629898
0.879602 0.658712 0.672447
0.891246 0.694123 0.708587
0.901120 0.725664 0.740137
0.909600 0.753599 0.767075
0.916591 0.777806 0.790292
0.922585 0.798975 0.809698
0.927184 0.816319 0.825399
0.930351 0.830700 0.838381
0.213533 0.540012 0.324989
0.213886 0.539520 0.324669
0.214288 0.539028 0.324351
0.214744 0.538536 0.324035
0.215259 0.538046 0.323721
0.215840 0.537556 0.323409
0.216672 0.536945 0.323023
0.218063 0.536092 0.322491
0.220396 0.534975 0.321807
0.224617 0.533531 0.320951
0.233179 0.531731 0.319951
0.255478 0.529867 0.319107
0.320861 0.529735 0.318217
0.403395 0.530469 0.305756
0.492656 0.528017 0.267282
0.574755 0.522239 0.264403
0.640009 0.514074 0.288467
0.695314 0.499220 0.315502
0.741306 0.475394 0.345047
0.774573 0.468467 0.381806
0.796751 0.483720 0.426533
0.817084 0.511880 0.475785
0.835402 0.547785 0.530164
0.851973 0.585889 0.581855
0.866706 0.624398 0.629100
0.880179 0.662394 0.671937
0.891654 0.696552 0.708235
0.901413 0.727330 0.739906
0.909805 0.754719 0.766920
0.916737 0.778574 0.790189
0.922686 0.799492 0.809634
0.927254 0.816659 0.825353
0.930399 0.830931 0.838350
0.240301 0.596478 0.359886
0.240728 0.596140 0.359654
0.241188 0.595803 0.359423
0.241682 0.595466 0.359194
0.242214 0.595129 0.358966
0.242785 0.594794 0.358740
0.243560 0.594375 0.358459
0.244773 0.593791 0.358072
0.246635 0.593024 0.357570
0.249638 0.592024 0.356929
0.255013 0.590749 0.356148
0.266015 0.589220 0.355299
0.292853 0.587799 0.354705
0.368653 0.588563 0.353662
0.460060 0.590086 0.337739
0.555002 0.587576 0.295659
0.632562 0.581647 0.294714
0.693404 0.573685 0.322119
0.743639 0.558607 0.352383
0.780551 0.532504 0.385338
0.800483 0.521880 0.426103
0.819756 0.536616 0.474070
0.837352 0.564083 0.528183
0.853377 0.596519 0.580442
0.867786 0.631832 0.628056
0.880960 0.667394 0.671257
0.892203 0.699839 0.707770
0.901805 0.729570 0.739599
0.910080 0.756219 0.766714
0.916931 0.779600 0.790052
0.922819 0.800180 0.809548
0.927346 0.817110 0.825292
0.930462 0.831238 0.838310
0.266337 0.648429 0.393336
0.266764 0.648205 0.393169
0.267212 0.647981 0.393003
0.267681 0.647757 0.392837
0.268172 0.647534 0.392673
0.268689 0.647312 0.392509
0.269378 0.647034 0.392307
0.270428 0.646647 0.392026
0.271988 0.646138 0.391662
0.274395 0.645474 0.391196
0.278310 0.644618 0.390612
0.285164 0.643545 0.389917
0.298504 0.642298 0.389193
0.330524 0.641348 0.388802
0.418416 0.643057 0.387054
0.519633 0.645174 0.365542
0.610772 0.641870 0.323044
0.684916 0.635564 0.324221
0.740135 0.627218 0.354980
0.785834 0.612379 0.389707
0.807014 0.586891 0.427904
0.823987 0.575308 0.472735
0.840150 0.587631 0.525708
0.855414 0.611939 0.578685
0.869290 0.642243 0.626695
0.882021 0.674232 0.670346
0.892947 0.704317 0.707152
0.902333 0.732597 0.739189
0.910446 0.758232 0.766438
0.917190 0.780973 0.789870
0.922997 0.801097 0.809434
0.927468 0.817712 0.825211
0.930546 0.831647 0.838256
0.292025 0.693781 0.424332
0.292460 0.693643 0.424217
0.292911 0.693505 0.424103
0.293379 0.693368 0.423990
0.293863 0.693231 0.423877
0.294365 0.693095 0.423765
0.295019 0.692925 0.423626
0.295988 0.692688 0.423434
0.297370 0.692377 0.423184
0.299391 0.691971 0.422861
0.302452 0.691446 0.422452
0.307308 0.690778 0.421949
0.315568 0.689965 0.421369
0.331602 0.689111 0.420837
0.369733 0.688843 0.420739
0.470053 0.691827 0.417769
0.575565 0.694312 0.390859
0.662570 0.690591 0.349053
0.730148 0.684228 0.353030
0.780570 0.676177 0.388310
0.813049 0.661315 0.428184
0.830342 0.636260 0.472182
0.844383 0.623998 0.522864
0.858402 0.634872 0.576458
0.871401 0.657039 0.624915
0.883465 0.683654 0.669110
0.893961 0.710473 0.706330
0.903046 0.736711 0.738640
0.910938 0.760945 0.766069
0.917538 0.782819 0.789625
0.923234 0.802325 0.809281
0.927632 0.818516 0.825102
0.930658 0.832191 0.838184
0.317718 0.732656 0.453273
0.318137 0.732573 0.453190
0.318566 0.732490 0.453109
0.319004 0.732408 0.453028
0.319454 0.732325 0.452947
0.319914 0.732243 0.452867
0.320505 0.732141 0.452768
0.321365 0.731999 0.452630
0.322562 0.731812 0.452451
0.324255 0.731569 0.452218
0.326708 0.731253 0.451920
0.330408 0.730851 0.451549
0.336279 0.730357 0.451107
0.346310 0.729796 0.450632
0.365543 0.729329 0.450278
0.411254 0.729796 0.450423
0.524521 0.734047 0.444876
0.626458 0.735972 0.413366
0.706845 0.731646 0.373710
0.768751 0.725375 0.381583
0.814448 0.718001 0.422487
0.835788 0.704325 0.468788
0.850543 0.681812 0.519526
0.862715 0.669664 0.573479
0.874345 0.678358 0.622527
0.885432 0.696782 0.667403
0.895352 0.719040 0.705227
0.904012 0.742346 0.737901
0.911599 0.764623 0.765572
0.918003 0.785310 0.789297
0.923551 0.803970 0.809074
0.927849 0.819593 0.824957
0.930806 0.832918 0.838087
0.343597 0.765611 0.481070
0.343984 0.765564 0.481010
0.344378 0.765517 0.480951
0.344779 0.765471 0.480893
0.345188 0.765424 0.480834
0.345603 0.765379 0.480777
0.346134 0.765322 0.480705
0.346899 0.765242 0.480605
0.347951 0.765139 0.480475
0.349417 0.765004 0.480307
0.351493 0.764831 0.480092
0.354508 0.764612 0.479821
0.359032 0.764345 0.479491
0.366154 0.764039 0.479114
0.378195 0.763756 0.478749
0.401348 0.763747 0.478596
0.454719 0.765058 0.478867
0.575586 0.770359 0.469864
0.672405 0.771690 0.435110
0.745111 0.767016 0.398426
0.801363 0.761071 0.411230
0.837221 0.754090 0.458806
0.855056 0.741607 0.511590
0.868243 0.721162 0.568596
0.878303 0.709278 0.619060
0.888167 0.715784 0.665027
0.897269 0.731143 0.703725
0.905326 0.750142 0.736890
0.912496 0.769673 0.764902
0.918630 0.788691 0.788854
0.923974 0.806183 0.808793
0.928140 0.821038 0.824762
0.931005 0.833890 0.837958
0.370625 0.793564 0.508854
0.370984 0.793539 0.508809
0.371347 0.793514 0.508764
0.371715 0.793490 0.508720
0.372088 0.793466 0.508676
0.372466 0.793442 0.508632
0.372945 0.793412 0.508577
0.373631 0.793371 0.508502
0.374565 0.793318 0.508403
0.375847 0.793249 0.508275
0.377629 0.793162 0.508111
0.380147 0.793054 0.507902
0.383788 0.792924 0.507644
0.389226 0.792781 0.507338
0.397804 0.792660 0.507012
0.412481 0.792674 0.506760
0.440094 0.793156 0.506781
0.501413 0.795372 0.506912
0.622392 0.801108 0.493876
0.711787 0.801660 0.457863
0.777779 0.796758 0.423874
0.829251 0.791370 0.443097
0.856013 0.785063 0.497236
0.872060 0.774390 0.558157
0.883341 0.755711 0.613477
0.891886 0.743995 0.661483
0.899890 0.748531 0.701588
0.907111 0.761058 0.735473
0.913718 0.776694 0.763989
0.919474 0.793314 0.788247
0.924539 0.809175 0.808409
0.928530 0.822988 0.824499
0.931269 0.835194 0.837784
0.399753 0.817489 0.537868
0.400080 0.817479 0.537835
0.400411 0.817470 0.537803
0.400745 0.817460 0.537771
0.401082 0.817451 0.537739
0.401424 0.817441 0.537707
0.401855 0.817430 0.537668
0.402471 0.817415 0.537613
0.403303 0.817395 0.537542
0.404439 0.817371 0.537450
0.406001 0.817342 0.537332
0.408178 0.817309 0.537182
0.411264 0.817276 0.536997
0.415737 0.817252 0.536776
0.422426 0.817261 0.536530
0.432863 0.817362 0.536298
0.450135 0.817696 0.536172
0.481528 0.818672 0.536313
0.550501 0.821865 0.535978
0.665309 0.827509 0.519062
0.746500 0.827341 0.483175
0.805792 0.822322 0.451578
0.852877 0.817610 0.477940
0.872435 0.812094 0.540123
0.886598 0.802490 0.602331
0.896351 0.785348 0.655258
0.903328 0.773819 0.698240
0.909504 0.776559 0.733378
0.915385 0.786585 0.762707
0.920614 0.799690 0.787400
0.925296 0.813240 0.807873
0.929053 0.825634 0.824140
0.931622 0.836951 0.837547
0.431468 0.835553 0.567181
0.431776 0.835558 0.567162
0.432086 0.835564 0.567142
0.432399 0.835570 0.567123
0.432714 0.835576 0.567104
0.433031 0.835582 0.567086
0.433430 0.835590 0.567062
0.433997 0.835602 0.567030
0.434758 0.835618 0.566988
0.435785 0.835641 0.566934
0.437181 0.835673 0.566865
0.439092 0.835719 0.566779
0.441737 0.835788 0.566673
0.445454 0.835893 0.566548
0.450781 0.836059 0.566413
0.458625 0.836333 0.566288
0.470611 0.836807 0.566226
0.490482 0.837725 0.566373
0.527481 0.839761 0.566932
0.595953 0.844133 0.566006
0.702629 0.849445 0.546452
0.776541 0.848757 0.511643
0.829990 0.843751 0.482223
0.869654 0.839747 0.515634
0.886763 0.835363 0.584020
0.899026 0.826642 0.643167
0.907363 0.810744 0.692184
0.912645 0.799312 0.730041
0.917623 0.800718 0.760798
0.922143 0.808571 0.786173
0.926306 0.818798 0.807105
0.929751 0.829251 0.823644
0.932096 0.839331 0.837222
0.466834 0.849328 0.598969
0.467104 0.849337 0.598956
0.467376 0.849346 0.598944
0.467648 0.849355 0.598931
0.467922 0.849364 0.598919
0.468197 0.849374 0.598907
0.468543 0.849386 0.598891
0.469032 0.849402 0.598870
0.469685 0.849425 0.598843
0.470562 0.849456 0.598807
0.471742 0.849498 0.598762
0.473341 0.849556 0.598704
0.475523 0.849638 0.598632
0.478527 0.849754 0.598545
0.482732 0.849924 0.598447
0.488859 0.850189 0.598360
0.498067 0.850619 0.598324
0.512382 0.851349 0.598413
0.535453 0.852644 0.598717
0.573277 0.854996 0.599034
0.638773 0.859597 0.596868
0.735930 0.866468 0.576193
0.802885 0.866611 0.543352
0.850070 0.861472 0.515642
0.883670 0.858278 0.557593
0.898786 0.854440 0.624045
0.909621 0.846624 0.680394
0.916201 0.832098 0.723815
0.920457 0.821033 0.757588
0.924145 0.821036 0.784275
0.927652 0.826506 0.805969
0.930681 0.834240 0.822942
0.932730 0.842575 0.836768
0.505635 0.861607 0.631767
0.505880 0.861619 0.631767
0.506126 0.861631 0.631766
0.506373 0.861643 0.631765
0.506621 0.861655 0.631764
0.506870 0.861667 0.631764
0.507182 0.861683 0.631763
0.507623 0.861704 0.631763
0.508212 0.861733 0.631762
0.509000 0.861772 0.631762
0.510058 0.861825 0.631764
0.511485 0.861897 0.631767
0.513420 0.861995 0.631776
0.516062 0.862132 0.631793
0.519706 0.862324 0.631828
0.524790 0.862598 0.631893
0.531993 0.863000 0.632012
0.542378 0.863601 0.632220
0.557632 0.864525 0.632559
0.580247 0.865967 0.633000
0.616185 0.868430 0.633293
0.677697 0.873064 0.630603
0.765333 0.879386 0.609525
0.825812 0.881001 0.579684
0.867714 0.876863 0.554082
0.895648 0.874127 0.598303
0.909267 0.870650 0.661817
0.918044 0.863067 0.712105
0.923491 0.849391 0.751338
0.926611 0.838632 0.781030
0.929435 0.837473 0.804203
0.931925 0.841203 0.821908
0.933580 0.847033 0.836116
0.548422 0.872813 0.663039
0.548626 0.872825 0.663044
0.548830 0.872837 0.663048
0.549034 0.872849 0.663053
0.549239 0.872861 0.663058
0.549444 0.872873 0.663062
0.549701 0.872888 0.663068
0.550063 0.872909 0.663077
0.550544 0.872937 0.663088
0.551184 0.872975 0.663104
0.552039 0.873025 0.663124
0.553181 0.873093 0.663153
0.554712 0.873184 0.663191
0.556770 0.873308 0.663245
0.559551 0.873476 0.663320
0.563328 0.873707 0.663425
0.568490 0.874028 0.663573
0.575594 0.874476 0.663781
0.585435 0.875111 0.664063
0.599787 0.876068 0.664484
0.621737 0.877601 0.665079
0.656339 0.880161 0.665456
0.711606 0.884537 0.662529
0.791140 0.890360 0.641971
0.845015 0.891681 0.615097
0.882773 0.889841 0.593200
0.906120 0.887285 0.636209
0.917693 0.883914 0.694690
0.925048 0.876691 0.739945
0.929302 0.863817 0.774863
0.931666 0.853258 0.801160
0.933556 0.851038 0.820280
0.934710 0.853221 0.835141
0.590134 0.882930 0.693078
0.590279 0.882939 0.693083
0.590423 0.882949 0.693089
0.590568 0.882958 0.693094
0.590713 0.882968 0.693099
0.590858 0.882977 0.693105
0.591039 0.882989 0.693111
0.591295 0.883006 0.693121
0.591635 0.883029 0.693134
0.592087 0.883059 0.693150
0.592689 0.883099 0.693173
0.593493 0.883153 0.693204
0.594569 0.883225 0.693245
0.596012 0.883322 0.693301
0.597956 0.883453 0.693378
0.600589 0.883632 0.693485
0.604182 0.883878 0.693634
0.609129 0.884222 0.693844
0.616025 0.884708 0.694142
