color-grading/luts/03_combined_slog3/BNC_SLog3_L05_Chrome.cube
TITLE "BNC SLog3 L05 Chrome"
# BNC Grade v1.0 - S-Log3/S-Gamut3.Cine -> BNC Base -> Muted, cross-processed 'chrome' look: rotated primaries, reduced saturation and cool highlights.
# Input: S-Log3 / S-Gamut3.Cine | Output: Rec.709 Gamma 2.4
LUT_3D_SIZE 5
DOMAIN_MIN 0.0 0.0 0.0
DOMAIN_MAX 1.0 1.0 1.0
0.001307 0.001311 0.001316
0.160222 0.074382 0.061908
0.652186 0.273969 0.196922
0.898012 0.620437 0.642021
0.957358 0.904630 0.906116
0.092340 0.165908 0.079701
0.123096 0.149098 0.082628
0.647674 0.283907 0.188405
0.897379 0.627228 0.641064
0.957382 0.904837 0.906094
0.424122 0.647574 0.180142
0.423689 0.644820 0.178758
0.644200 0.656767 0.241178
0.894318 0.681492 0.635732
0.957546 0.906476 0.905879
0.618489 0.866951 0.511207
0.620892 0.867069 0.510882
0.642940 0.868375 0.508660
0.911766 0.903437 0.502116
0.956671 0.923359 0.903324
0.846350 0.937040 0.825627
0.846588 0.937052 0.825636
0.848446 0.937149 0.825704
0.866503 0.938183 0.826301
0.953505 0.947263 0.814267
0.000044 0.045864 0.078080
0.161371 0.055540 0.140882
0.651447 0.271481 0.232935
0.899537 0.617166 0.647410
0.957356 0.904583 0.906284
0.011429 0.136914 0.131677
0.100538 0.112650 0.125546
0.645254 0.281894 0.222668
0.899092 0.623840 0.646320
0.957381 0.904788 0.906263
0.421153 0.644715 0.196564
0.420551 0.641826 0.194524
0.641778 0.652774 0.247587
0.894785 0.679981 0.641185
0.957550 0.906420 0.906059
0.617612 0.867554 0.516072
0.620025 0.867670 0.515758
0.642177 0.868965 0.513612
0.912219 0.903931 0.506984
0.956679 0.923339 0.903532
0.846261 0.937070 0.825848
0.846499 0.937082 0.825857
0.848360 0.937178 0.825926
0.866446 0.938212 0.826532
0.953528 0.947289 0.814528
0.000237 0.244947 0.447452
0.000220 0.224613 0.512335
0.664132 0.189915 0.611627
0.902452 0.599921 0.692743
0.957322 0.904232 0.907546
0.000242 0.250286 0.446635
0.000234 0.241470 0.479827
0.656214 0.195165 0.608028
0.903410 0.604955 0.692103
0.957349 0.904435 0.907533
0.263474 0.655956 0.625100
0.262968 0.652088 0.624038
0.657343 0.654636 0.650267
0.908232 0.655028 0.684373
0.957554 0.906026 0.907412
0.608790 0.873040 0.557737
0.611325 0.873140 0.557470
0.634672 0.874299 0.555753
0.916361 0.908467 0.550276
0.956816 0.923101 0.905084
0.845542 0.937303 0.827585
0.845783 0.937316 0.827594
0.847668 0.937411 0.827669
0.865988 0.938436 0.828344
0.953710 0.947495 0.816580
0.540828 0.521880 0.856934
0.552542 0.519367 0.858409
0.654719 0.499869 0.863297
0.873427 0.503106 0.860486
0.956740 0.900497 0.918424
0.536818 0.529796 0.856858
0.548456 0.527312 0.858439
0.650545 0.507270 0.864434
0.874102 0.506823 0.861083
0.956772 0.900711 0.918430
0.509040 0.596466 0.855311
0.519771 0.594723 0.857061
0.615774 0.575572 0.871334
0.880284 0.539884 0.866553
0.957019 0.902385 0.918469
0.455115 0.907871 0.890714
0.457494 0.908023 0.890912
0.479776 0.909523 0.892789
0.954824 0.949296 0.939322
0.959249 0.918075 0.918378
0.836595 0.939765 0.845274
0.836865 0.939777 0.845288
0.838979 0.939868 0.845396
0.859825 0.940822 0.846632
0.955554 0.949584 0.837639
0.929069 0.899545 0.942502
0.929329 0.899444 0.942480
0.931278 0.898679 0.942305
0.944720 0.891105 0.940583
0.948281 0.852783 0.933497
0.929007 0.899907 0.942567
0.929269 0.899806 0.942545
0.931231 0.899037 0.942371
0.944724 0.891480 0.940651
0.948316 0.852994 0.933534
0.928482 0.902733 0.943065
0.928756 0.902629 0.943046
0.930817 0.901835 0.942883
0.944742 0.894394 0.941175
0.948592 0.854657 0.933826
0.920888 0.927649 0.944951
0.921218 0.927597 0.945001
0.923759 0.927120 0.945395
0.943905 0.919897 0.945962
0.951391 0.871837 0.936809
0.776894 0.944488 0.933783
0.777157 0.944512 0.933809
0.779223 0.944698 0.934019
0.800459 0.946603 0.936176
0.965816 0.961326 0.953067
