color-grading/luts/03_combined_slog3/BNC_SLog3_L10_Faded.cube
TITLE "BNC SLog3 L10 Faded"
# BNC Grade v1.0 — S-Log3/S-Gamut3.Cine -> BNC Base -> Faded, lifted-black low-contrast look with a soft highlight shoulder, like a sun-faded print.
# Input: S-Log3 / S-Gamut3.Cine | Output: Rec.709 Gamma 2.4
LUT_3D_SIZE 9
DOMAIN_MIN 0.0 0.0 0.0
DOMAIN_MAX 1.0 1.0 1.0
0.080566 0.062900 0.053219
0.149502 0.064212 0.054168
0.271437 0.090971 0.080646
0.462183 0.163327 0.157900
0.690348 0.279755 0.286497
0.835650 0.427410 0.451620
0.903658 0.619149 0.640716
0.945397 0.765499 0.766174
0.964140 0.844199 0.831248
0.109686 0.125537 0.046851
0.123115 0.113694 0.054810
0.254982 0.108294 0.074895
0.453860 0.173384 0.152848
0.688212 0.286178 0.283965
0.835762 0.431324 0.450219
0.903843 0.620663 0.640241
0.945450 0.765841 0.766073
0.964152 0.844269 0.831228
0.179848 0.249626 0.011346
0.179389 0.242565 0.022069
0.243577 0.240930 0.090477
0.443246 0.218910 0.150131
0.684954 0.299165 0.280376
0.835981 0.437932 0.448013
0.904140 0.623096 0.639484
0.945535 0.766383 0.765912
0.964170 0.844380 0.831196
0.277735 0.436879 0.073466
0.278560 0.433510 0.072819
0.284687 0.428353 0.075686
0.417981 0.428656 0.176026
0.678523 0.388677 0.277284
0.837065 0.462352 0.441246
0.905109 0.630977 0.637096
0.945800 0.768090 0.765408
0.964227 0.844726 0.831094
0.420574 0.662594 0.125292
0.421731 0.661664 0.124984
0.424224 0.660195 0.124891
0.442675 0.655838 0.131286
0.657809 0.663528 0.265282
0.848056 0.605128 0.421032
0.908492 0.658280 0.629391
0.946632 0.773494 0.763821
0.964405 0.845801 0.830779
0.538608 0.804484 0.250359
0.539766 0.804335 0.250077
0.541718 0.804102 0.249674
0.548921 0.803407 0.248850
0.591865 0.802137 0.255764
0.828575 0.816634 0.352922
0.921391 0.772479 0.598858
0.949349 0.791713 0.758559
0.964958 0.849202 0.829777
0.632265 0.873108 0.467387
0.633217 0.873102 0.467308
0.634749 0.873093 0.467190
0.639729 0.873077 0.466875
0.657099 0.873152 0.466529
0.729550 0.875720 0.475115
0.913978 0.893576 0.502877
0.957909 0.863701 0.735324
0.966717 0.860536 0.826348
0.751301 0.909983 0.644307
0.751609 0.909988 0.644310
0.752096 0.909995 0.644316
0.753622 0.910020 0.644337
0.758365 0.910105 0.644442
0.773468 0.910487 0.645186
0.827619 0.913925 0.653766
0.953808 0.928008 0.660671
0.971971 0.904570 0.809587
0.834310 0.927913 0.745623
0.834374 0.927916 0.745629
0.834475 0.927920 0.745638
0.834791 0.927935 0.745667
0.835769 0.927979 0.745760
0.838815 0.928127 0.746074
0.848483 0.928695 0.747324
0.881241 0.932036 0.754226
0.970512 0.941346 0.754873
0.081892 0.065445 0.092772
0.144574 0.066068 0.095889
0.268629 0.089179 0.107783
0.460734 0.161070 0.175095
0.689932 0.278167 0.295889
0.835574 0.426495 0.456664
0.903621 0.618804 0.642402
0.945389 0.765425 0.766541
0.964139 0.844185 0.831324
0.098633 0.107177 0.083362
0.110773 0.091197 0.080577
0.250728 0.099613 0.095045
0.452245 0.169811 0.168779
0.687774 0.284406 0.293163
0.835684 0.430379 0.455250
0.903806 0.620316 0.641929
0.945442 0.765767 0.766440
0.964151 0.844255 0.831304
0.173345 0.240397 0.061481
0.172351 0.232850 0.059706
0.237553 0.230244 0.098021
0.441006 0.209708 0.162655
0.684471 0.296975 0.289232
0.835899 0.436935 0.453022
0.904104 0.622746 0.641176
0.945527 0.766309 0.766280
0.964169 0.844366 0.831271
0.273966 0.432740 0.095884
0.274717 0.429323 0.094606
0.280534 0.424023 0.095231
0.415070 0.423845 0.181402
0.677685 0.383249 0.284600
0.836971 0.461168 0.446182
0.905074 0.630618 0.638799
0.945792 0.768015 0.765777
0.964227 0.844712 0.831170
0.418674 0.661683 0.140842
0.419820 0.660738 0.140425
0.422276 0.659243 0.140082
0.440593 0.654791 0.144666
0.656939 0.662191 0.270004
0.847928 0.603110 0.425714
0.908464 0.657895 0.631127
0.946626 0.773419 0.764193
0.964404 0.845787 0.830855
0.537822 0.804532 0.256127
0.538981 0.804381 0.255829
0.540934 0.804144 0.255402
0.548138 0.803438 0.254481
0.591080 0.802112 0.260756
0.828535 0.816496 0.355913
0.921424 0.772085 0.600700
0.949346 0.791636 0.758940
0.964958 0.849188 0.829854
0.631833 0.873234 0.469169
0.632786 0.873227 0.469090
0.634320 0.873218 0.468970
0.639306 0.873200 0.468651
0.656704 0.873268 0.468285
0.729328 0.875801 0.476763
0.914043 0.893624 0.504483
0.957924 0.863636 0.735745
0.966718 0.860522 0.826428
0.751194 0.910017 0.644674
0.751502 0.910022 0.644677
0.751991 0.910029 0.644682
0.753518 0.910053 0.644703
0.758266 0.910138 0.644806
0.773384 0.910518 0.645544
0.827590 0.913946 0.654110
0.953835 0.928030 0.661045
0.971975 0.904558 0.809676
0.834294 0.927920 0.745692
0.834357 0.927923 0.745698
0.834459 0.927927 0.745707
0.834775 0.927941 0.745736
0.835753 0.927986 0.745829
0.838800 0.928134 0.746143
0.848471 0.928701 0.747392
0.881238 0.932040 0.754294
0.970519 0.941352 0.754951
0.093851 0.083906 0.195492
0.139675 0.083242 0.198745
0.265870 0.093150 0.211750
0.458796 0.158471 0.228244
0.689299 0.275738 0.313822
0.835454 0.425058 0.465027
0.903561 0.618258 0.645092
0.945377 0.765308 0.767124
0.964138 0.844163 0.831444
0.094927 0.096543 0.191855
0.109070 0.091669 0.190254
0.246586 0.096821 0.202377
0.450077 0.165354 0.219925
0.687108 0.281693 0.310778
0.835561 0.428893 0.463584
0.903746 0.619767 0.644622
0.945430 0.765649 0.767024
0.964150 0.844233 0.831424
0.136624 0.232947 0.208120
0.136684 0.224457 0.205175
0.231358 0.214734 0.205896
0.438002 0.197519 0.208890
0.683740 0.293633 0.306288
0.835771 0.435369 0.461324
0.904045 0.622192 0.643875
0.945515 0.766192 0.766864
0.964168 0.844344 0.831392
0.264585 0.427363 0.152126
0.265372 0.423777 0.149999
0.271168 0.418136 0.147740
0.410672 0.416454 0.205319
0.676434 0.374978 0.299027
0.836824 0.459307 0.454377
0.905017 0.630049 0.641515
0.945781 0.767898 0.766362
0.964225 0.844689 0.831291
0.415294 0.660363 0.166301
0.416429 0.659392 0.165747
0.418843 0.657855 0.165101
0.437006 0.653244 0.167440
0.655594 0.660106 0.279396
0.847732 0.599890 0.433536
0.908420 0.657284 0.633898
0.946616 0.773301 0.764783
0.964403 0.845765 0.830976
0.536512 0.804638 0.265606
0.537672 0.804483 0.265287
0.539628 0.804241 0.264821
0.546839 0.803515 0.263754
0.589797 0.802099 0.269045
0.828482 0.816290 0.360949
0.921476 0.771460 0.603648
0.949341 0.791515 0.759545
0.964957 0.849166 0.829976
0.631141 0.873435 0.472011
0.632096 0.873428 0.471930
0.633632 0.873418 0.471809
0.638627 0.873397 0.471483
0.656068 0.873456 0.471086
0.728973 0.875932 0.479398
0.914147 0.893702 0.507060
0.957948 0.863533 0.736415
0.966718 0.860500 0.826554
0.751025 0.910071 0.645257
0.751333 0.910075 0.645260
0.751822 0.910083 0.645265
0.753352 0.910107 0.645285
0.758109 0.910191 0.645385
0.773251 0.910567 0.646113
0.827542 0.913979 0.654657
0.953877 0.928064 0.661639
0.971981 0.904539 0.809816
0.834267 0.927930 0.745802
0.834331 0.927933 0.745807
0.834432 0.927938 0.745817
0.834748 0.927952 0.745846
0.835727 0.927996 0.745938
0.838776 0.928144 0.746252
0.848451 0.928710 0.747500
0.881234 0.932047 0.754401
0.970531 0.941361 0.755073
0.138096 0.133328 0.362944
0.160773 0.132356 0.363802
0.257011 0.133165 0.372063
0.452489 0.157880 0.391481
0.687466 0.269239 0.409924
0.835078 0.420666 0.495853
0.903364 0.616553 0.653636
0.945337 0.764942 0.768954
0.964134 0.844094 0.831820
0.134755 0.142244 0.361237
0.151420 0.140455 0.361266
0.236812 0.139613 0.367434
0.443308 0.161099 0.387146
0.685196 0.274329 0.406195
0.835176 0.424352 0.494233
0.903551 0.618052 0.653179
0.945391 0.765283 0.768854
0.964146 0.844164 0.831800
0.139675 0.185178 0.365549
0.148584 0.178708 0.363755
0.202700 0.170765 0.364500
0.429372 0.175930 0.381319
0.681674 0.284508 0.400388
0.835372 0.430577 0.491682
0.903851 0.620461 0.652451
0.945476 0.765825 0.768696
0.964164 0.844274 0.831768
0.190265 0.417316 0.392882
0.191809 0.413334 0.391317
0.198908 0.407056 0.389001
0.402500 0.397088 0.394240
0.673193 0.352115 0.385824
0.836371 0.453604 0.483880
0.904831 0.628270 0.650151
0.945743 0.767530 0.768199
0.964221 0.844620 0.831667
0.397187 0.658751 0.274589
0.398402 0.657686 0.273674
0.400942 0.655991 0.272302
0.419779 0.650749 0.269641
0.652149 0.654516 0.338898
0.847163 0.589697 0.461551
0.908271 0.655371 0.642725
0.946582 0.772932 0.766634
0.964399 0.845695 0.831353
0.531761 0.805260 0.298373
0.532933 0.805094 0.297992
0.534906 0.804834 0.297419
0.542178 0.804044 0.295939
0.585391 0.802320 0.298372
0.828427 0.815773 0.379772
0.921646 0.769504 0.613099
0.949325 0.791135 0.761444
0.964954 0.849096 0.830357
0.628906 0.874087 0.481029
0.629865 0.874079 0.480944
0.631410 0.874066 0.480815
0.636436 0.874038 0.480466
0.654015 0.874065 0.479983
0.727829 0.876365 0.487796
0.914489 0.893963 0.515382
0.958021 0.863210 0.738513
0.966720 0.860431 0.826948
0.750489 0.910241 0.647093
0.750799 0.910246 0.647095
0.751291 0.910253 0.647099
0.752829 0.910276 0.647116
0.757611 0.910357 0.647206
0.772831 0.910721 0.647904
0.827393 0.914085 0.656376
0.954009 0.928171 0.663508
0.971999 0.904481 0.810253
0.834184 0.927964 0.746144
0.834248 0.927967 0.746150
0.834349 0.927971 0.746159
0.834666 0.927985 0.746188
0.835646 0.928029 0.746280
0.838700 0.928176 0.746592
0.848392 0.928740 0.747837
0.881220 0.932069 0.754738
0.970566 0.941388 0.755458
0.226427 0.219622 0.595011
0.240291 0.218887 0.595454
0.269420 0.218003 0.596802
0.434244 0.220731 0.608897
0.679602 0.257500 0.629981
0.833285 0.408129 0.629048
0.902658 0.611257 0.681327
0.945205 0.763802 0.774699
0.964121 0.843879 0.832984
0.222568 0.226019 0.594677
0.235461 0.225100 0.594993
0.262418 0.223900 0.596064
0.424706 0.225420 0.607436
0.677018 0.260420 0.628721
0.833359 0.411354 0.627869
0.902846 0.612724 0.680920
0.945259 0.764143 0.774602
0.964132 0.843949 0.832964
0.217595 0.239201 0.594805
0.228999 0.237914 0.594912
0.252862 0.236113 0.595556
0.408893 0.235366 0.605468
0.672911 0.266291 0.626832
0.833514 0.416806 0.625995
0.903151 0.615084 0.680271
0.945346 0.764684 0.774449
0.964151 0.844060 0.832932
0.217156 0.332792 0.606413
0.223804 0.328561 0.605550
0.238461 0.322215 0.604468
0.355813 0.307068 0.606662
0.660771 0.303051 0.622872
0.834375 0.437019 0.620108
0.904146 0.622738 0.678221
0.945617 0.766387 0.773967
0.964209 0.844405 0.832832
0.289496 0.657223 0.627577
0.290742 0.655996 0.627290
0.293437 0.654051 0.626849
0.313191 0.648140 0.625746
0.650523 0.642356 0.633492
0.845084 0.557435 0.602169
0.907685 0.649391 0.671582
0.946470 0.771783 0.772450
0.964387 0.845480 0.832523
0.499999 0.813088 0.455867
0.501345 0.812882 0.455330
0.503605 0.812555 0.454486
0.511889 0.811536 0.451922
0.560281 0.808556 0.446230
0.830607 0.816876 0.492184
0.922181 0.763383 0.644684
0.949265 0.789956 0.767415
0.964946 0.848881 0.831539
0.620933 0.876482 0.511946
0.621913 0.876468 0.511832
0.623493 0.876447 0.511656
0.628640 0.876387 0.511152
0.646745 0.876298 0.510106
0.723848 0.877969 0.515663
0.915716 0.894940 0.543706
0.958248 0.862209 0.745095
0.966725 0.860217 0.828169
0.748769 0.910790 0.652914
0.749084 0.910794 0.652914
0.749584 0.910800 0.652915
0.751148 0.910820 0.652922
0.756013 0.910892 0.652982
0.771481 0.911221 0.653582
0.826915 0.914426 0.661812
0.954431 0.928511 0.669423
0.972057 0.904299 0.811610
0.833924 0.928068 0.747208
0.833988 0.928071 0.747214
0.834090 0.928075 0.747223
0.834409 0.928089 0.747252
0.835393 0.928133 0.747342
0.838462 0.928277 0.747650
0.848204 0.928832 0.748884
0.881178 0.932138 0.755785
0.970676 0.941473 0.756649
0.370482 0.346636 0.787974
0.378023 0.346236 0.788198
0.391028 0.345656 0.788609
0.441586 0.344404 0.790426
0.664607 0.347727 0.798608
0.826162 0.376557 0.801181
0.899382 0.594542 0.779530
0.944695 0.760185 0.793388
0.964073 0.843210 0.836626
0.368061 0.350526 0.788182
0.375434 0.350093 0.788392
0.388153 0.349459 0.788779
0.437656 0.348022 0.790512
0.661615 0.350822 0.798626
0.826062 0.378588 0.801151
0.899562 0.595894 0.779323
0.944752 0.760524 0.793303
0.964085 0.843280 0.836606
0.364401 0.357141 0.788577
0.371509 0.356651 0.788765
0.383781 0.355925 0.789116
0.431629 0.354181 0.790715
0.656766 0.356085 0.798687
0.825922 0.382016 0.801118
0.899852 0.598070 0.778992
0.944842 0.761062 0.793167
0.964104 0.843390 0.836576
0.354545 0.382650 0.790511
0.360842 0.381920 0.790623
0.371740 0.380813 0.790848
0.414515 0.377831 0.791997
0.640776 0.376040 0.799183
0.825674 0.394715 0.801136
0.900810 0.605143 0.777950
0.945124 0.762756 0.792740
0.964163 0.843736 0.836480
0.353093 0.551037 0.805385
0.356841 0.548860 0.805285
0.363357 0.545438 0.805142
0.389631 0.535048 0.804862
0.586607 0.508857 0.806920
0.828781 0.467203 0.803412
0.904321 0.629986 0.774603
0.946015 0.768128 0.791395
0.964345 0.844810 0.836182
0.403458 0.820775 0.783817
0.404553 0.820594 0.783837
0.406407 0.820310 0.783872
0.413354 0.819448 0.784013
0.456233 0.817403 0.785056
0.841388 0.818648 0.793907
0.921932 0.742197 0.761174
0.948966 0.786211 0.786928
0.964914 0.848210 0.835236
0.578998 0.888354 0.646029
0.580036 0.888341 0.645882
0.581715 0.888322 0.645648
0.587231 0.888264 0.644921
0.607161 0.888118 0.642722
0.699945 0.888151 0.639063
0.922054 0.900288 0.665558
0.958949 0.859047 0.766662
0.966734 0.859551 0.831992
0.742727 0.912718 0.672559
0.743058 0.912720 0.672553
0.743585 0.912723 0.672543
0.745232 0.912735 0.672515
0.750366 0.912779 0.672468
0.766685 0.913001 0.672718
0.825215 0.915659 0.679979
0.955861 0.929675 0.689245
0.972236 0.903733 0.815872
0.833091 0.928404 0.750586
0.833156 0.928407 0.750591
0.833260 0.928411 0.750600
0.833583 0.928424 0.750627
0.834583 0.928465 0.750713
0.837700 0.928602 0.751006
0.847602 0.929131 0.752203
0.881046 0.932358 0.759096
0.971020 0.941740 0.760395
0.593554 0.539965 0.861325
0.596531 0.539700 0.861350
0.601310 0.539281 0.861389
0.616959 0.537994 0.861510
0.672441 0.534161 0.861811
0.834672 0.520061 0.860650
0.889357 0.542516 0.860913
0.942008 0.747759 0.857403
0.963861 0.841065 0.848504
0.592691 0.542086 0.861449
0.595665 0.541817 0.861474
0.600424 0.541393 0.861513
0.615998 0.540089 0.861634
0.671273 0.536202 0.861933
0.834569 0.521951 0.860761
0.889479 0.543633 0.860966
0.942066 0.748086 0.857368
0.963873 0.841134 0.848487
0.591335 0.545494 0.861649
0.594305 0.545221 0.861674
0.599040 0.544789 0.861713
0.614497 0.543458 0.861832
0.669439 0.539486 0.862130
0.834410 0.524995 0.860941
0.889676 0.545427 0.861052
0.942159 0.748606 0.857311
0.963893 0.841244 0.848460
0.587192 0.556527 0.862294
0.590144 0.556240 0.862319
0.594851 0.555786 0.862359
0.609967 0.554376 0.862476
0.663833 0.550147 0.862772
0.833938 0.534914 0.861536
0.890326 0.551227 0.861333
0.942451 0.750244 0.857132
0.963954 0.841589 0.848374
0.575390 0.594131 0.864439
0.578242 0.593813 0.864468
0.582809 0.593310 0.864514
0.597413 0.591740 0.864649
0.647786 0.586899 0.864985
0.827692 0.569490 0.863729
0.892689 0.571194 0.862348
0.943383 0.755450 0.856569
0.964146 0.842661 0.848107
0.554974 0.754257 0.870781
0.557172 0.753841 0.870848
0.560728 0.753183 0.870956
0.572433 0.751145 0.871311
0.614114 0.744948 0.872533
0.799450 0.722978 0.874427
0.905409 0.661454 0.867602
0.946569 0.773098 0.854672
0.964747 0.846055 0.847261
0.510512 0.896655 0.861030
0.511320 0.896668 0.861070
0.512622 0.896691 0.861134
0.516872 0.896771 0.861343
0.532026 0.897117 0.862071
0.616331 0.900207 0.865977
0.933599 0.905109 0.874090
0.959891 0.847408 0.845129
0.966690 0.857406 0.844380
0.713406 0.921441 0.758005
0.713783 0.921444 0.757975
0.714381 0.921450 0.757928
0.716259 0.921468 0.757781
0.722164 0.921523 0.757337
0.741400 0.921688 0.756105
0.813826 0.922582 0.756381
0.961876 0.934820 0.770895
0.972791 0.901917 0.829782
0.830159 0.929589 0.761995
0.830228 0.929591 0.761999
0.830337 0.929595 0.762006
0.830676 0.929605 0.762027
0.831728 0.929639 0.762095
0.835008 0.929750 0.762335
0.845456 0.930193 0.763381
0.880596 0.933130 0.770154
0.972135 0.942624 0.772699
0.785609 0.729863 0.896078
0.786307 0.729778 0.896073
0.787416 0.729644 0.896065
0.790902 0.729222 0.896039
0.801907 0.727886 0.895938
0.838368 0.723306 0.895409
0.912287 0.702727 0.892702
0.933629 0.707778 0.892437
0.962338 0.833245 0.892139
0.785413 0.730386 0.896114
0.786111 0.730301 0.896109
0.787219 0.730167 0.896101
0.790703 0.729745 0.896075
0.801702 0.728408 0.895975
0.838142 0.723827 0.895449
0.912332 0.703231 0.892739
0.933674 0.708050 0.892455
0.962352 0.833313 0.892132
0.785102 0.731216 0.896171
0.785800 0.731131 0.896166
0.786907 0.730997 0.896159
0.790387 0.730575 0.896133
0.801377 0.729237 0.896035
0.837785 0.724654 0.895514
0.912403 0.704031 0.892798
0.933746 0.708484 0.892485
0.962373 0.833421 0.892119
0.784138 0.733828 0.896350
0.784834 0.733743 0.896346
0.785937 0.733608 0.896339
0.789408 0.733185 0.896315
0.800368 0.731844 0.896222
0.836673 0.727255 0.895716
0.912626 0.706550 0.892983
0.933974 0.709851 0.892577
0.962440 0.833759 0.892081
0.781200 0.742091 0.896911
0.781889 0.742005 0.896908
0.782982 0.741870 0.896903
0.786420 0.741443 0.896886
0.797285 0.740094 0.896811
0.833278 0.735487 0.896357
0.913335 0.714534 0.893574
0.934703 0.714200 0.892873
0.962649 0.834810 0.891962
0.772444 0.769642 0.898692
0.773111 0.769557 0.898694
0.774169 0.769420 0.898698
0.777500 0.768992 0.898707
0.788048 0.767638 0.898712
0.823147 0.763024 0.898478
0.915744 0.741400 0.895624
0.937231 0.729034 0.893908
0.963311 0.838144 0.891579
0.743099 0.869492 0.901430
0.743696 0.869436 0.901462
0.744644 0.869348 0.901513
0.747632 0.869072 0.901673
0.757128 0.868216 0.902182
0.789397 0.865495 0.903863
0.914096 0.848871 0.905115
0.948760 0.793122 0.898821
0.965532 0.849391 0.890233
0.656102 0.926811 0.894593
0.656451 0.926828 0.894610
0.657007 0.926855 0.894637
0.658757 0.926940 0.894723
0.664316 0.927214 0.894996
0.683083 0.928170 0.895941
0.758449 0.932418 0.900039
0.970877 0.940824 0.908101
0.973980 0.895068 0.882022
0.815342 0.935207 0.811270
0.815422 0.935209 0.811268
0.815549 0.935211 0.811265
0.815945 0.935217 0.811256
0.817174 0.935235 0.811229
0.821033 0.935295 0.811165
0.833591 0.935504 0.811200
0.877406 0.937009 0.815333
0.976357 0.946260 0.823002
0.890860 0.840559 0.911447
0.890998 0.840535 0.911444
0.891217 0.840497 0.911439
0.891902 0.840379 0.911423
0.894028 0.840009 0.911372
0.900736 0.838817 0.911198
0.922845 0.834518 0.910487
0.952731 0.814103 0.907949
0.956831 0.806625 0.907148
0.890818 0.840670 0.911458
0.890956 0.840647 0.911455
0.891175 0.840609 0.911450
0.891860 0.840491 0.911434
0.893986 0.840121 0.911383
0.900693 0.838929 0.911209
0.922799 0.834632 0.910499
0.952747 0.814218 0.907959
0.956842 0.806683 0.907153
0.890751 0.840847 0.911476
0.890890 0.840823 0.911473
0.891109 0.840786 0.911468
0.891793 0.840667 0.911452
0.893919 0.840298 0.911401
0.900624 0.839107 0.911227
0.922727 0.834813 0.910518
0.952774 0.814399 0.907976
0.956861 0.806776 0.907161
0.890544 0.841399 0.911530
0.890682 0.841375 0.911527
0.890901 0.841337 0.911522
0.891585 0.841219 0.911506
0.893709 0.840850 0.911456
0.900410 0.839662 0.911284
0.922501 0.835378 0.910577
0.952858 0.814964 0.908028
0.956918 0.807067 0.907186
0.889903 0.843106 0.911699
0.890040 0.843082 0.911696
0.890259 0.843045 0.911691
0.890941 0.842928 0.911676
0.893061 0.842562 0.911627
0.899747 0.841381 0.911458
0.921802 0.837127 0.910761
0.953117 0.816718 0.908191
0.957096 0.807971 0.907265
0.887907 0.848434 0.912225
0.888044 0.848411 0.912223
0.888261 0.848375 0.912218
0.888938 0.848260 0.912204
0.891044 0.847902 0.912160
0.897687 0.846748 0.912004
0.919626 0.842589 0.911338
0.953928 0.822229 0.908704
0.957660 0.810830 0.907517
0.881511 0.865557 0.913875
0.881645 0.865536 0.913873
0.881858 0.865502 0.913871
0.882524 0.865397 0.913865
0.884590 0.865066 0.913843
0.891106 0.863994 0.913747
0.912658 0.860117 0.913211
0.956517 0.840146 0.910412
0.959556 0.820427 0.908370
0.851338 0.921354 0.914877
0.851475 0.921347 0.914886
0.851692 0.921334 0.914901
0.852372 0.921296 0.914947
0.854480 0.921178 0.915090
0.861110 0.920806 0.915542
0.882808 0.919572 0.917045
0.962338 0.906467 0.917153
0.967640 0.861080 0.912169
0.774757 0.941545 0.909302
0.774835 0.941550 0.909307
0.774958 0.941557 0.909314
0.775342 0.941582 0.909337
0.776536 0.941658 0.909408
0.780290 0.941899 0.909630
0.792756 0.942706 0.910337
0.843155 0.946013 0.912330
0.983453 0.953008 0.919858
