color-grading/luts/03_combined_slog3/BNC_SLog3_L10_Faded.cube
TITLE "BNC SLog3 L10 Faded"
# BNC Grade v1.0 — S-Log3/S-Gamut3.Cine -> BNC Base -> Faded, lifted-black low-contrast look with a soft highlight shoulder, like a sun-faded print.
# Input: S-Log3 / S-Gamut3.Cine | Output: Rec.709 Gamma 2.4
LUT_3D_SIZE 33
DOMAIN_MIN 0.0 0.0 0.0
DOMAIN_MAX 1.0 1.0 1.0
0.080566 0.062900 0.053219
0.080566 0.062900 0.053219
0.084511 0.062790 0.053080
0.119837 0.062761 0.052909
0.149502 0.064212 0.054168
0.175011 0.067155 0.057025
0.202662 0.072281 0.061949
0.235246 0.080239 0.069777
0.271437 0.090971 0.080646
0.311733 0.104586 0.095032
0.357152 0.121236 0.112501
0.407550 0.140882 0.133513
0.462183 0.163327 0.157900
0.522098 0.189356 0.186270
0.579920 0.217295 0.216922
0.636404 0.247461 0.250689
0.690348 0.279755 0.286497
0.740935 0.313829 0.324824
0.787960 0.349939 0.364907
0.813813 0.386531 0.406819
0.835650 0.427410 0.451620
0.855058 0.471588 0.499527
0.872699 0.520568 0.550455
0.889185 0.572072 0.597377
0.903658 0.619149 0.640716
0.916855 0.663495 0.679517
0.928070 0.702509 0.712547
0.937437 0.736124 0.741473
0.945397 0.765499 0.766174
0.951863 0.790583 0.787504
0.957322 0.812247 0.805181
0.961423 0.829823 0.819463
0.964140 0.844199 0.831248
0.080566 0.062900 0.053219
0.080566 0.062900 0.053219
0.080566 0.062900 0.053219
0.108837 0.062626 0.052677
0.140091 0.063865 0.053694
0.167319 0.067195 0.055795
0.196014 0.072747 0.060337
0.229928 0.081161 0.068001
0.267005 0.092232 0.078832
0.308101 0.106275 0.093232
0.354044 0.122994 0.110831
0.405042 0.142761 0.132031
0.460064 0.165184 0.156537
0.520474 0.191233 0.185128
0.578806 0.219035 0.215960
0.635601 0.249132 0.249895
0.689811 0.281259 0.285849
0.740579 0.315176 0.324273
0.787743 0.351139 0.364427
0.813798 0.387622 0.406397
0.835676 0.428371 0.451270
0.855105 0.472386 0.499219
0.872761 0.521272 0.550221
0.889242 0.572600 0.597214
0.903704 0.619526 0.640597
0.916891 0.663765 0.679438
0.928096 0.702689 0.712492
0.937456 0.736249 0.741436
0.945410 0.765584 0.766149
0.951872 0.790641 0.787487
0.957328 0.812287 0.805170
0.961427 0.829849 0.819455
0.964143 0.844217 0.831243
0.080566 0.062900 0.053219
0.080566 0.062900 0.053219
0.080566 0.062900 0.053219
0.096989 0.062681 0.052757
0.130540 0.064079 0.053307
0.159376 0.068270 0.054833
0.189332 0.074410 0.058947
0.224620 0.083329 0.066417
0.262642 0.094654 0.077185
0.304517 0.108824 0.091537
0.350980 0.125451 0.109261
0.402555 0.145119 0.130612
0.457964 0.167425 0.155231
0.518855 0.193351 0.184018
0.577699 0.220947 0.215024
0.634802 0.250912 0.249117
0.689275 0.282828 0.285211
0.740226 0.316569 0.323728
0.787527 0.352369 0.363951
0.813785 0.388733 0.405976
0.835703 0.429343 0.450919
0.855154 0.473191 0.498910
0.872823 0.521980 0.549988
0.889299 0.573130 0.597052
0.903750 0.619904 0.640479
0.916927 0.664036 0.679359
0.928122 0.702869 0.712438
0.937474 0.736375 0.741399
0.945424 0.765670 0.766123
0.951882 0.790700 0.787470
0.957334 0.812326 0.805159
0.961431 0.829874 0.819448
0.964146 0.844234 0.831238
0.092248 0.095130 0.052160
0.090148 0.090827 0.052485
0.088281 0.086202 0.052606
0.091699 0.081450 0.052572
0.124204 0.077712 0.053423
0.152386 0.076181 0.054660
0.183239 0.080523 0.058048
0.219580 0.088411 0.065175
0.258506 0.099278 0.075777
0.301051 0.112681 0.090011
0.347996 0.128886 0.107836
0.400103 0.148089 0.129278
0.455893 0.170126 0.153995
0.517243 0.195742 0.182945
0.576601 0.223050 0.214117
0.634008 0.252808 0.248355
0.688742 0.284467 0.284582
0.739875 0.318009 0.323190
0.787313 0.353628 0.363477
0.813774 0.389864 0.405555
0.835732 0.430327 0.450569
0.855203 0.474004 0.498601
0.872886 0.522693 0.549754
0.889356 0.573661 0.596889
0.903796 0.620283 0.640360
0.916964 0.664307 0.679280
0.928148 0.703050 0.712383
0.937493 0.736500 0.741362
0.945437 0.765755 0.766098
0.951891 0.790758 0.787453
0.957341 0.812366 0.805148
0.961435 0.829900 0.819440
0.964149 0.844252 0.831233
0.109686 0.125537 0.046851
0.107714 0.122000 0.047687
0.105804 0.118469 0.048521
0.104668 0.115009 0.049764
0.123115 0.113694 0.054810
0.151014 0.111022 0.056172
0.181040 0.107587 0.058856
0.216030 0.103627 0.064905
0.254982 0.108294 0.074895
0.297851 0.119016 0.088812
0.345151 0.133732 0.106622
0.397711 0.151864 0.128060
0.453860 0.173384 0.152848
0.515643 0.198445 0.181917
0.575514 0.225366 0.213243
0.633220 0.254830 0.247611
0.688212 0.286178 0.283965
0.739527 0.319499 0.322657
0.787100 0.354919 0.363007
0.813765 0.391017 0.405137
0.835762 0.431324 0.450219
0.855253 0.474827 0.498293
0.872950 0.523411 0.549519
0.889414 0.574195 0.596725
0.903843 0.620663 0.640241
0.917000 0.664579 0.679200
0.928174 0.703231 0.712328
0.937512 0.736626 0.741324
0.945450 0.765841 0.766073
0.951900 0.790817 0.787436
0.957347 0.812405 0.805137
0.961440 0.829926 0.819432
0.964152 0.844269 0.831228
0.124993 0.151940 0.039720
0.123334 0.148848 0.040757
0.121819 0.145714 0.041931
0.121026 0.142621 0.043670
0.127639 0.140694 0.050672
0.148678 0.140569 0.058623
0.179534 0.137872 0.060874
0.215197 0.134009 0.066824
0.253243 0.128993 0.075600
0.295224 0.129992 0.088274
0.342544 0.140676 0.105736
0.395419 0.156890 0.127024
0.451880 0.177318 0.151812
0.514059 0.201504 0.180943
0.574440 0.227917 0.212406
0.632439 0.256988 0.246887
0.687685 0.287970 0.283359
0.739183 0.321041 0.322132
0.786890 0.356241 0.362541
0.813757 0.392191 0.404719
0.835793 0.432333 0.449870
0.855305 0.475659 0.497985
0.873014 0.524133 0.549285
0.889471 0.574730 0.596562
0.903889 0.621044 0.640122
0.917037 0.664852 0.679121
0.928200 0.703412 0.712273
0.937531 0.736751 0.741287
0.945464 0.765926 0.766047
0.951910 0.790875 0.787419
0.957353 0.812444 0.805126
0.961444 0.829952 0.819425
0.964155 0.844287 0.831223
0.140996 0.179953 0.031825
0.139814 0.177335 0.032868
0.138794 0.174702 0.034107
0.138325 0.172099 0.035961
0.140016 0.169734 0.040036
0.153490 0.169327 0.054282
0.176452 0.169703 0.065036
0.212900 0.166878 0.069962
0.252084 0.162649 0.078506
0.293719 0.156685 0.089828
0.339917 0.154775 0.105477
0.392775 0.165703 0.126122
0.449502 0.183423 0.150718
0.512110 0.205915 0.179816
0.573119 0.231483 0.211422
0.631473 0.259895 0.246014
0.687031 0.290336 0.282619
0.738756 0.323046 0.321484
0.786629 0.357943 0.361962
0.813751 0.393691 0.404199
0.835833 0.433613 0.449433
0.855371 0.476714 0.497600
0.873095 0.525043 0.548992
0.889544 0.575401 0.596358
0.903948 0.621523 0.639972
0.917083 0.665193 0.679022
0.928233 0.703639 0.712204
0.937555 0.736909 0.741240
0.945480 0.766033 0.766016
0.951921 0.790949 0.787398
0.957361 0.812494 0.805112
0.961449 0.829984 0.819415
0.964158 0.844308 0.831216
0.159837 0.213355 0.021368
0.159029 0.211187 0.022584
0.158407 0.209008 0.024206
0.158135 0.206834 0.026453
0.158860 0.204726 0.030240
0.163176 0.202978 0.038601
0.181306 0.202934 0.060232
0.208454 0.203713 0.075942
0.248809 0.200833 0.083152
0.291826 0.196236 0.094021
0.338090 0.189791 0.108132
0.389770 0.185137 0.126115
0.446441 0.194906 0.149720
0.509471 0.213614 0.178482
0.571319 0.237303 0.210179
0.630142 0.264404 0.244856
0.686126 0.293912 0.281620
0.738169 0.326012 0.320595
0.786269 0.360421 0.361161
0.813747 0.395855 0.403472
0.835894 0.435444 0.448821
0.855466 0.478219 0.497061
0.873211 0.526331 0.548579
0.889646 0.576348 0.596070
0.904030 0.622197 0.639763
0.917147 0.665673 0.678882
0.928279 0.703958 0.712107
0.937588 0.737130 0.741175
0.945504 0.766184 0.765971
0.951938 0.791051 0.787367
0.957372 0.812563 0.805093
0.961457 0.830029 0.819402
0.964163 0.844339 0.831207
0.179848 0.249626 0.011346
0.179336 0.247854 0.012806
0.178988 0.246079 0.014995
0.178930 0.244310 0.018019
0.179389 0.242565 0.022069
0.181095 0.240906 0.028144
0.188571 0.239325 0.042257
0.213357 0.239683 0.071736
0.243577 0.240930 0.090477
0.287193 0.238191 0.099790
0.334995 0.233325 0.113078
0.387393 0.226297 0.129705
0.443246 0.218910 0.150131
0.506256 0.227729 0.177398
0.569064 0.246819 0.208853
0.628436 0.271272 0.243468
0.684954 0.299165 0.280376
0.737412 0.330240 0.319456
0.785803 0.363879 0.360118
0.813753 0.398834 0.402516
0.835981 0.437932 0.448013
0.855598 0.480261 0.496348
0.873367 0.528060 0.548032
0.889783 0.577610 0.595689
0.904140 0.623096 0.639484
0.917233 0.666312 0.678697
0.928340 0.704382 0.711979
0.937632 0.737424 0.741087
0.945535 0.766383 0.765912
0.951959 0.791188 0.787328
0.957387 0.812655 0.805067
0.961467 0.830089 0.819384
0.964170 0.844380 0.831196
0.201199 0.289403 0.019049
0.200928 0.287936 0.019265
0.200784 0.286467 0.020017
0.200826 0.285000 0.021403
0.201216 0.283545 0.023708
0.202208 0.282119 0.027241
0.204977 0.280428 0.033965
0.217925 0.278833 0.053701
0.247803 0.279447 0.086433
0.280940 0.280994 0.107726
0.328789 0.278339 0.119408
0.383052 0.273189 0.135293
0.440495 0.265624 0.154560
0.502842 0.256629 0.178013
0.566395 0.263636 0.207898
0.626312 0.282308 0.241963
0.683464 0.307192 0.278896
0.736451 0.336430 0.318024
0.785207 0.368794 0.358768
0.813781 0.402991 0.401262
0.836107 0.441344 0.446945
0.855782 0.483051 0.495405
0.873578 0.530389 0.547305
0.889965 0.579296 0.595182
0.904287 0.624296 0.639115
0.917347 0.667162 0.678451
0.928421 0.704945 0.711809
0.937691 0.737815 0.740972
0.945576 0.766648 0.765834
0.951988 0.791369 0.787275
0.957407 0.812777 0.805033
0.961480 0.830168 0.819361
0.964179 0.844434 0.831180
0.224278 0.333461 0.036610
0.224159 0.332217 0.036366
0.224160 0.330973 0.036332
0.224320 0.329733 0.036577
0.224692 0.328500 0.037185
0.225357 0.327277 0.038269
0.226819 0.325778 0.040571
0.231441 0.323821 0.047159
0.251078 0.322345 0.069933
0.285396 0.323116 0.103962
0.321744 0.324976 0.127705
0.374967 0.322506 0.142323
0.435393 0.316883 0.160638
0.499463 0.308520 0.182768
0.563780 0.297230 0.208984
0.623871 0.301847 0.240862
0.681647 0.320171 0.277323
0.735274 0.345842 0.316286
0.784464 0.375986 0.357042
0.813857 0.408891 0.399622
0.836298 0.446078 0.445536
0.856044 0.486902 0.494160
0.873867 0.533545 0.546338
0.890211 0.581555 0.594508
0.904485 0.625903 0.638623
0.917500 0.668296 0.678123
0.928529 0.705696 0.711583
0.937769 0.738334 0.740818
0.945631 0.767000 0.765730
0.952026 0.791610 0.787205
0.957433 0.812938 0.804987
0.961498 0.830274 0.819329
0.964191 0.844505 0.831159
0.249925 0.383077 0.054206
0.249942 0.382037 0.053961
0.250039 0.380997 0.053809
0.250232 0.379957 0.053770
0.250547 0.378919 0.053872
0.251039 0.377885 0.054174
0.252014 0.376603 0.054951
0.254399 0.374846 0.057134
0.261161 0.372702 0.063661
0.287698 0.371265 0.088411
0.326592 0.372042 0.123747
0.367017 0.374167 0.150595
0.426260 0.371772 0.168153
0.493256 0.365336 0.189110
0.561231 0.355474 0.214334
0.621703 0.341051 0.242061
0.679677 0.343002 0.276202
0.733940 0.360952 0.314335
0.783591 0.387007 0.354890
0.814033 0.417473 0.397495
0.836592 0.452749 0.443682
0.856423 0.492285 0.492517
0.874266 0.537849 0.545051
0.890541 0.584589 0.593611
0.904750 0.628063 0.637969
0.917703 0.669810 0.677687
0.928674 0.706698 0.711282
0.937873 0.739025 0.740614
0.945703 0.767467 0.765592
0.952077 0.791929 0.787111
0.957467 0.813153 0.804927
0.961521 0.830414 0.819288
0.964207 0.844600 0.831131
0.277735 0.436879 0.073466
0.277829 0.436034 0.073217
0.277989 0.435190 0.073019
0.278228 0.434349 0.072882
0.278560 0.433510 0.072819
0.279003 0.432675 0.072846
0.279753 0.431637 0.073037
0.281283 0.430200 0.073694
0.284687 0.428353 0.075686
0.294444 0.426155 0.082579
0.328057 0.424895 0.108812
0.372053 0.425896 0.145705
0.417981 0.428656 0.176026
0.482245 0.426446 0.196692
0.555329 0.419181 0.220716
0.619648 0.406948 0.247384
0.678523 0.388677 0.277284
0.732781 0.387609 0.312603
0.782685 0.404804 0.352316
0.814420 0.430377 0.394773
0.837065 0.462352 0.441246
0.856988 0.499936 0.490354
0.874823 0.543773 0.543334
0.890989 0.588682 0.592414
0.905109 0.630977 0.637096
0.917976 0.671840 0.677105
0.928866 0.708037 0.710881
0.938011 0.739947 0.740343
0.945800 0.768090 0.765408
0.952145 0.792354 0.786988
0.957513 0.813438 0.804847
0.961552 0.830600 0.819233
0.964227 0.844726 0.831094
0.309332 0.496382 0.091951
0.309475 0.495686 0.091767
0.309663 0.494989 0.091612
0.309902 0.494292 0.091489
0.310200 0.493595 0.091404
0.310565 0.492898 0.091362
0.311130 0.492028 0.091380
0.312194 0.490812 0.091583
0.314333 0.489217 0.092332
0.319091 0.487167 0.094617
0.331662 0.484731 0.102010
0.372230 0.483345 0.130041
0.422414 0.484346 0.169576
0.473324 0.487215 0.202365
0.544503 0.484770 0.225664
0.615365 0.475933 0.251306
0.678479 0.461993 0.280436
0.732975 0.440449 0.312273
0.782088 0.435611 0.349451
0.815265 0.450685 0.391357
0.837859 0.476594 0.438060
0.857851 0.511046 0.487509
0.875611 0.552016 0.541036
0.891597 0.594228 0.590813
0.905597 0.634933 0.635930
0.918342 0.674567 0.676326
0.929124 0.709832 0.710348
0.938195 0.741179 0.739981
0.945928 0.768919 0.765164
0.952234 0.792920 0.786823
0.957573 0.813816 0.804740
0.961593 0.830847 0.819160
0.964255 0.844893 0.831045
0.345465 0.556908 0.105269
0.345641 0.556411 0.105158
0.345854 0.555914 0.105067
0.346107 0.555416 0.104999
0.346406 0.554918 0.104955
0.346754 0.554419 0.104940
0.347268 0.553796 0.104966
0.348155 0.552922 0.105098
0.349694 0.551769 0.105484
0.352567 0.550257 0.106492
0.358558 0.548316 0.109163
0.374597 0.546086 0.117850
0.422255 0.545215 0.148782
0.479439 0.547141 0.191973
0.536740 0.550818 0.226341
0.607511 0.547814 0.251233
0.675822 0.537344 0.279458
0.733965 0.520117 0.311432
0.782622 0.493647 0.346602
0.817169 0.484819 0.387199
0.839366 0.499497 0.433956
0.859217 0.527603 0.483771
0.876744 0.563639 0.537947
0.892436 0.601828 0.588664
0.906267 0.640345 0.634366
0.918836 0.678250 0.675280
0.929470 0.712249 0.709634
0.938442 0.742829 0.739498
0.946099 0.770026 0.764838
0.952353 0.793674 0.786604
0.957654 0.814320 0.804599
0.961648 0.831175 0.819063
0.964292 0.845114 0.830980
0.383401 0.612042 0.113750
0.383642 0.611699 0.113683
0.383906 0.611355 0.113631
0.384197 0.611012 0.113593
0.384514 0.610668 0.113573
0.384862 0.610325 0.113569
0.385341 0.609895 0.113592
0.386105 0.609294 0.113679
0.387305 0.608498 0.113908
0.389291 0.607451 0.114452
0.392955 0.606086 0.115799
0.400685 0.604364 0.119364
0.420048 0.602469 0.130034
0.475366 0.602381 0.166585
0.538340 0.605614 0.213855
0.600159 0.609894 0.246977
0.667230 0.606499 0.272924
0.730811 0.596263 0.305588
0.783434 0.578981 0.341951
0.822015 0.550714 0.382293
0.842403 0.538804 0.428658
0.861443 0.552978 0.478832
0.878395 0.580250 0.533755
0.893636 0.612589 0.585771
0.907194 0.647821 0.632257
0.919505 0.683249 0.673869
0.929938 0.715518 0.708678
0.938773 0.745049 0.738852
0.946327 0.771506 0.764403
0.952512 0.794681 0.786311
0.957761 0.814991 0.804410
0.961720 0.831612 0.818934
0.964340 0.845409 0.830894
0.420574 0.662594 0.125292
0.420841 0.662362 0.125201
0.421122 0.662129 0.125119
0.421418 0.661897 0.125047
0.421731 0.661664 0.124984
0.422062 0.661432 0.124932
0.422507 0.661141 0.124885
0.423193 0.660733 0.124856
0.424224 0.660195 0.124891
0.425838 0.659484 0.125087
0.428507 0.658552 0.125672
0.433259 0.657345 0.127212
0.442675 0.655838 0.131286
0.465731 0.654295 0.143925
0.529240 0.655193 0.186876
0.597933 0.659968 0.237528
0.657809 0.663528 0.265282
0.721756 0.659636 0.293975
0.779264 0.649088 0.331464
0.826493 0.632140 0.373544
0.848056 0.605128 0.421032
0.865075 0.592432 0.472111
0.880802 0.604172 0.527961
0.895391 0.628169 0.581836
0.908492 0.658280 0.629391
0.920415 0.690082 0.671952
0.930571 0.719971 0.707391
0.939217 0.748047 0.737984
0.946632 0.773494 0.763821
0.952724 0.796029 0.785921
0.957903 0.815885 0.804158
0.961817 0.832194 0.818763
0.964405 0.845801 0.830779
0.454688 0.706807 0.144846
0.454984 0.706658 0.144758
0.455290 0.706509 0.144676
0.455609 0.706360 0.144600
0.455939 0.706212 0.144531
0.456282 0.706063 0.144468
0.456731 0.705877 0.144400
0.457396 0.705617 0.144325
0.458349 0.705273 0.144266
0.459750 0.704819 0.144264
0.461883 0.704223 0.144421
0.465290 0.703446 0.144971
0.471132 0.702449 0.146506
0.482592 0.701252 0.150886
0.510173 0.700254 0.165126
0.582134 0.702620 0.212975
0.652968 0.708720 0.262170
0.711076 0.711727 0.284189
0.769070 0.707610 0.315486
0.821061 0.697405 0.358987
0.853829 0.680775 0.408126
0.870851 0.654288 0.462152
0.884549 0.640999 0.519732
0.898004 0.651298 0.576285
0.910324 0.673131 0.625443
0.921656 0.699492 0.669318
0.931436 0.726091 0.705645
0.939818 0.752122 0.736812
0.947041 0.776172 0.763038
0.953007 0.797841 0.785396
0.958093 0.817081 0.803820
0.961945 0.832971 0.818533
0.964490 0.846323 0.830626
0.485660 0.744837 0.172556
0.485960 0.744742 0.172468
0.486268 0.744647 0.172383
0.486583 0.744552 0.172303
0.486906 0.744457 0.172226
0.487236 0.744362 0.172152
0.487661 0.744244 0.172067
0.488278 0.744078 0.171957
0.489138 0.743858 0.171833
0.490355 0.743569 0.171708
0.492119 0.743188 0.171621
0.494782 0.742691 0.171677
0.499016 0.742048 0.172129
0.506268 0.741245 0.173647
0.520228 0.740341 0.178244
0.553526 0.739940 0.194079
0.634141 0.744056 0.245625
0.701915 0.750412 0.288218
0.756503 0.752398 0.304329
0.809399 0.748132 0.338992
0.855672 0.738650 0.389571
0.876404 0.723450 0.446386
0.890349 0.699499 0.507184
0.901882 0.686350 0.568069
0.912914 0.694515 0.619875
0.923357 0.712599 0.665643
0.932625 0.734607 0.703255
0.940632 0.757706 0.735217
0.947590 0.779802 0.761981
0.953387 0.800285 0.784691
0.958345 0.818683 0.803366
0.962116 0.834011 0.818226
0.964604 0.847020 0.830421
0.513353 0.777100 0.208096
0.513645 0.777041 0.208015
0.513943 0.776982 0.207936
0.514245 0.776923 0.207859
0.514553 0.776864 0.207785
0.514866 0.776805 0.207713
0.515265 0.776732 0.207626
0.515841 0.776629 0.207510
0.516631 0.776493 0.207369
0.517731 0.776315 0.207205
0.519286 0.776080 0.207031
0.521540 0.775774 0.206886
0.524915 0.775379 0.206874
0.530215 0.774880 0.207255
0.539154 0.774285 0.208727
0.556301 0.773729 0.213564
0.595567 0.774074 0.230470
0.681097 0.779947 0.281639
0.745328 0.786300 0.316445
0.795647 0.787383 0.326877
0.843165 0.783237 0.365774
0.878511 0.774418 0.424844
0.895232 0.760372 0.488253
0.907194 0.738377 0.554998
0.916493 0.725561 0.611686
0.925749 0.731579 0.660394
0.934270 0.746642 0.699928
0.941742 0.765435 0.733023
0.948334 0.784786 0.760541
0.953897 0.803601 0.783734
0.958682 0.820839 0.802752
0.962344 0.835408 0.817814
0.964756 0.847952 0.830146
0.538608 0.804484 0.250359
0.538892 0.804447 0.250287
0.539180 0.804409 0.250215
0.539471 0.804372 0.250145
0.539766 0.804335 0.250077
0.540064 0.804298 0.250009
0.540443 0.804252 0.249927
0.540984 0.804187 0.249815
0.541718 0.804102 0.249674
0.542725 0.803990 0.249499
0.544121 0.803844 0.249292
0.546088 0.803653 0.249063
0.548921 0.803407 0.248850
0.553132 0.803097 0.248757
0.559734 0.802722 0.249071
0.570951 0.802330 0.250609
0.591865 0.802137 0.255764
0.637439 0.803355 0.273740
0.722630 0.810492 0.320618
0.782122 0.816317 0.347256
0.828575 0.816634 0.352922
0.871528 0.812806 0.397182
0.896983 0.804941 0.463742
0.911496 0.792661 0.535076
0.921391 0.772479 0.598858
0.929101 0.759850 0.652558
0.936546 0.763970 0.695165
0.943254 0.776263 0.729946
0.949349 0.791713 0.758559
0.954584 0.808132 0.782425
0.959132 0.823750 0.801917
0.962649 0.837291 0.817258
0.964958 0.849202 0.829777
0.562405 0.828019 0.298699
0.562677 0.827996 0.298640
0.562952 0.827973 0.298582
0.563229 0.827951 0.298524
0.563510 0.827928 0.298467
0.563792 0.827906 0.298411
0.564150 0.827878 0.298343
0.564659 0.827839 0.298248
0.565347 0.827788 0.298128
0.566283 0.827721 0.297976
0.567568 0.827633 0.297789
0.569352 0.827520 0.297568
0.571868 0.827375 0.297327
0.575497 0.827193 0.297111
0.580883 0.826976 0.297039
0.589213 0.826740 0.297414
0.602841 0.826562 0.299041
0.627198 0.826747 0.304360
0.678952 0.829004 0.323315
0.759540 0.836820 0.363262
0.814037 0.841903 0.382149
0.856304 0.841529 0.383311
0.895032 0.838139 0.433383
0.912709 0.831256 0.508396
0.925134 0.820111 0.579784
0.933446 0.801599 0.640029
0.939619 0.789268 0.688017
0.945301 0.791657 0.725504
0.950735 0.801471 0.755776
0.955509 0.814379 0.780611
0.959732 0.827704 0.800768
0.963058 0.839845 0.816501
0.965228 0.850885 0.829278
0.584842 0.846066 0.351326
0.585114 0.846058 0.351278
0.585387 0.846050 0.351231
0.585662 0.846041 0.351185
0.585938 0.846033 0.351139
0.586217 0.846025 0.351094
0.586567 0.846016 0.351038
0.587064 0.846002 0.350961
0.587729 0.845984 0.350861
0.588627 0.845962 0.350734
0.589842 0.845933 0.350573
0.591500 0.845897 0.350376
0.593786 0.845853 0.350143
0.596980 0.845804 0.349890
0.601522 0.845756 0.349663
0.608147 0.845727 0.349584
0.618141 0.845766 0.349962
0.634415 0.846035 0.351732
0.663891 0.847109 0.357885
0.715900 0.850731 0.375259
0.790802 0.858742 0.408353
0.840977 0.863105 0.421174
0.879511 0.862201 0.418766
0.911366 0.859257 0.473649
0.926082 0.853587 0.554449
0.936575 0.843471 0.621248
0.943508 0.826395 0.676524
0.948065 0.814312 0.718785
0.952612 0.815421 0.751742
0.956752 0.823077 0.778042
0.960532 0.833105 0.799163
0.963601 0.843334 0.815463
0.965589 0.853164 0.828598
0.607229 0.860326 0.409940
0.607480 0.860321 0.409901
0.607732 0.860316 0.409863
0.607986 0.860311 0.409825
0.608240 0.860307 0.409787
0.608495 0.860302 0.409750
0.608816 0.860296 0.409703
0.609269 0.860288 0.409639
0.609874 0.860278 0.409555
0.610683 0.860264 0.409446
0.611772 0.860247 0.409307
0.613241 0.860226 0.409130
0.615238 0.860201 0.408910
0.617974 0.860172 0.408647
0.621776 0.860144 0.408354
0.627259 0.860131 0.408098
0.635389 0.860165 0.408038
0.647800 0.860325 0.408559
0.667301 0.860816 0.410614
0.698083 0.862186 0.416373
0.748217 0.866302 0.431516
0.817417 0.875979 0.456791
0.863853 0.880673 0.463755
0.898183 0.879090 0.457923
0.924545 0.876639 0.519271
0.937070 0.871644 0.596400
0.946145 0.862563 0.659219
0.951454 0.847095 0.707866
0.955058 0.835519 0.745549
0.958392 0.835291 0.774280
0.961597 0.840594 0.796871
0.964322 0.848145 0.814016
0.966072 0.856269 0.827660
0.632265 0.873108 0.467387
0.632502 0.873107 0.467367
0.632739 0.873105 0.467347
0.632978 0.873104 0.467327
0.633217 0.873102 0.467308
0.633457 0.873101 0.467289
0.633758 0.873099 0.467265
0.634182 0.873096 0.467232
0.634749 0.873093 0.467190
0.635506 0.873090 0.467135
0.636520 0.873086 0.467066
0.637885 0.873081 0.466979
0.639729 0.873077 0.466875
0.642237 0.873075 0.466756
0.645674 0.873080 0.466632
0.650432 0.873100 0.466533
0.657099 0.873152 0.466529
0.666572 0.873275 0.466777
0.680198 0.873553 0.467617
0.699804 0.874173 0.469735
0.729550 0.875720 0.475115
0.776946 0.880096 0.488623
0.839814 0.889293 0.508507
0.882881 0.894772 0.511255
0.913978 0.893576 0.502877
0.935522 0.891300 0.563263
0.946457 0.886776 0.635964
0.953622 0.878132 0.691578
0.957909 0.863701 0.735324
0.960478 0.852580 0.768480
0.963022 0.851257 0.793487
0.965288 0.854859 0.811952
0.966717 0.860536 0.826348
0.662529 0.884412 0.519069
0.662731 0.884412 0.519060
0.662933 0.884412 0.519050
0.663136 0.884412 0.519040
0.663339 0.884412 0.519031
0.663543 0.884412 0.519022
0.663798 0.884412 0.519010
0.664156 0.884412 0.518994
0.664632 0.884413 0.518974
0.665265 0.884414 0.518948
0.666109 0.884415 0.518914
0.667234 0.884418 0.518873
0.668739 0.884422 0.518824
0.670754 0.884430 0.518769
0.673465 0.884444 0.518712
0.677122 0.884469 0.518667
0.682078 0.884514 0.518664
0.688820 0.884598 0.518761
0.698010 0.884755 0.519078
0.711094 0.885080 0.519973
0.730398 0.885812 0.522267
0.759219 0.887556 0.527728
0.801847 0.891909 0.539556
0.859268 0.900569 0.555882
0.898127 0.905227 0.556582
0.927036 0.905629 0.547932
0.944882 0.903308 0.604057
0.953861 0.899028 0.670318
0.959741 0.890905 0.720039
0.962971 0.877454 0.758873
0.964868 0.866656 0.788204
0.966565 0.864351 0.808897
0.967578 0.866457 0.824465
0.693130 0.894497 0.566970
0.693277 0.894498 0.566965
0.693424 0.894498 0.566959
0.693571 0.894499 0.566954
0.693719 0.894500 0.566949
0.693866 0.894500 0.566943
0.694051 0.894501 0.566937
0.694310 0.894502 0.566928
0.694655 0.894504 0.566917
0.695114 0.894506 0.566902
0.695724 0.894509 0.566884
0.696537 0.894514 0.566861
0.697621 0.894520 0.566833
0.699073 0.894530 0.566802
0.701021 0.894545 0.566770
0.703646 0.894569 0.566746
0.707201 0.894608 0.566744
0.712048 0.894675 0.566803
0.718715 0.894791 0.566996
