color-grading/luts/03_combined_slog3/BNC_SLog3_L12_Vivid.cube
TITLE "BNC SLog3 L12 Vivid"
# BNC Grade v1.0 - S-Log3/S-Gamut3.Cine -> BNC Base -> High-punch, high-vibrance grade with cool blue shadows lifted in luminance for extra pop.
# Input: S-Log3 / S-Gamut3.Cine | Output: Rec.709 Gamma 2.4
LUT_3D_SIZE 33
DOMAIN_MIN 0.0 0.0 0.0
DOMAIN_MAX 1.0 1.0 1.0
0.002839 0.002839 0.002839
0.002839 0.002839 0.002839
0.003525 0.002793 0.002796
0.016397 0.000000 0.000000
0.043390 0.000000 0.000000
0.075601 0.000000 0.000000
0.110302 0.000577 0.002540
0.150553 0.002912 0.004094
0.194539 0.004311 0.005875
0.242732 0.005181 0.008809
0.296127 0.009091 0.014874
0.354543 0.007985 0.024845
0.416950 0.011501 0.042338
0.485045 0.007344 0.063387
0.550306 0.012436 0.086154
0.617403 0.015307 0.112194
0.683845 0.010255 0.139657
0.748789 0.015838 0.170550
0.801674 0.125603 0.217872
0.828250 0.200845 0.275684
0.850840 0.265158 0.335289
0.871250 0.328545 0.399352
0.890363 0.397459 0.469404
0.908045 0.470090 0.535979
0.921965 0.537126 0.599808
0.932348 0.602577 0.659484
0.939433 0.661877 0.712038
0.945109 0.712315 0.758069
0.949766 0.756174 0.797762
0.953550 0.793555 0.832442
0.956753 0.826404 0.860931
0.958817 0.853753 0.883275
0.959967 0.875922 0.900631
0.002839 0.002839 0.002839
0.002839 0.002839 0.002839
0.002839 0.002839 0.002839
0.010823 0.000000 0.001440
0.032824 0.000000 0.000000
0.065731 0.000000 0.000000
0.101884 0.000000 0.000000
0.143856 0.004078 0.003942
0.189007 0.005927 0.005898
0.238309 0.001959 0.006838
0.292417 0.008797 0.013032
0.351597 0.011292 0.022650
0.414665 0.013851 0.039103
0.483555 0.010500 0.059914
0.549534 0.018036 0.083129
0.617359 0.011483 0.109051
0.683909 0.022553 0.137301
0.748694 0.038726 0.169140
0.801497 0.129778 0.217054
0.828307 0.203242 0.275008
0.851039 0.266674 0.334630
0.871455 0.329740 0.398813
0.890567 0.398500 0.469014
0.908198 0.470878 0.535719
0.922070 0.537700 0.599628
0.932417 0.602996 0.659371
0.939476 0.662160 0.711964
0.945137 0.712515 0.758021
0.949784 0.756314 0.797730
0.953561 0.793655 0.832421
0.956761 0.826473 0.860918
0.958821 0.853798 0.883267
0.959970 0.875951 0.900625
0.002839 0.002839 0.002839
0.002839 0.002839 0.002839
0.002839 0.002839 0.002839
0.006443 0.002384 0.002516
0.023849 0.000000 0.000000
0.055364 0.000000 0.000000
0.093265 0.000000 0.000000
0.137101 0.002313 0.002162
0.183535 0.004640 0.003953
0.233883 0.000000 0.003897
0.288824 0.003394 0.008720
0.348788 0.011062 0.018938
0.412557 0.013447 0.034686
0.482022 0.016634 0.056172
0.549064 0.016903 0.079384
0.617325 0.012338 0.105779
0.684230 0.022241 0.134437
0.748339 0.054654 0.168109
0.801322 0.133894 0.216235
0.828366 0.205658 0.274332
0.851241 0.268205 0.333967
0.871662 0.330945 0.398272
0.890772 0.399546 0.468622
0.908352 0.471668 0.535459
0.922174 0.538275 0.599447
0.932486 0.603416 0.659257
0.939519 0.662443 0.711890
0.945164 0.712716 0.757973
0.949801 0.756453 0.797697
0.953573 0.793754 0.832399
0.956768 0.826543 0.860905
0.958826 0.853843 0.883258
0.959972 0.875981 0.900620
0.000011 0.010950 0.004435
0.000010 0.009319 0.003520
0.000008 0.007776 0.002569
0.001632 0.006392 0.002019
0.018204 0.002018 0.000000
0.045643 0.000000 0.000000
0.084916 0.000000 0.000000
0.130402 0.003789 0.000000
0.178160 0.006050 0.000000
0.229418 0.009423 0.004512
0.285149 0.009880 0.003878
0.346090 0.008418 0.011135
0.410569 0.011671 0.028151
0.480879 0.009444 0.050519
0.548825 0.005636 0.074757
0.617302 0.017325 0.102360
0.684807 0.007541 0.131017
0.747989 0.066241 0.167075
0.801150 0.137962 0.215417
0.828428 0.208094 0.273655
0.851445 0.269752 0.333301
0.871870 0.332163 0.397730
0.890977 0.400600 0.468229
0.908505 0.472461 0.535197
0.922278 0.538852 0.599266
0.932555 0.603836 0.659144
0.939561 0.662727 0.711816
0.945192 0.712917 0.757925
0.949819 0.756593 0.797665
0.953584 0.793853 0.832377
0.956775 0.826612 0.860891
0.958830 0.853888 0.883250
0.959975 0.876010 0.900615
0.000034 0.032320 0.014593
0.000030 0.028832 0.012961
0.000027 0.025597 0.011450
0.000024 0.022616 0.010079
0.009849 0.020725 0.005835
0.038698 0.017812 0.000000
0.078852 0.014681 0.000000
0.124525 0.011534 0.000000
0.173112 0.011861 0.003146
0.225193 0.013955 0.000000
0.281478 0.018660 0.004656
0.343236 0.020658 0.000000
0.408783 0.012132 0.016177
0.479702 0.009660 0.043869
0.548391 0.018101 0.070419
0.617526 0.012672 0.098209
0.685142 0.016520 0.127940
0.747644 0.075881 0.166038
0.800981 0.141991 0.214599
0.828492 0.210550 0.272979
0.851652 0.271316 0.332631
0.872080 0.333393 0.397186
0.891184 0.401660 0.467834
0.908658 0.473257 0.534935
0.922382 0.539431 0.599084
0.932624 0.604257 0.659030
0.939604 0.663011 0.711741
0.945220 0.713118 0.757877
0.949837 0.756733 0.797633
0.953596 0.793953 0.832356
0.956782 0.826682 0.860878
0.958834 0.853933 0.883241
0.959978 0.876039 0.900610
0.000067 0.063790 0.029133
0.000063 0.059889 0.027345
0.000059 0.055904 0.025520
0.000054 0.051887 0.023682
0.000051 0.048298 0.021655
0.025895 0.046137 0.011754
0.072554 0.041248 0.000000
0.120456 0.034942 0.000000
0.169340 0.027335 0.001835
0.221284 0.024053 0.000000
0.277991 0.027568 0.004701
0.340259 0.033393 0.007393
0.406416 0.033195 0.010539
0.478688 0.009000 0.034096
0.548407 0.011703 0.064114
0.617763 0.013560 0.093789
0.685734 0.006827 0.124247
0.747355 0.083793 0.164865
0.800814 0.145990 0.213781
0.828626 0.212758 0.272180
0.851861 0.272897 0.331958
0.872293 0.334638 0.396639
0.891390 0.402726 0.467438
0.908811 0.474055 0.534672
0.922486 0.540011 0.598902
0.932693 0.604679 0.658915
0.939647 0.663296 0.711667
0.945247 0.713319 0.757829
0.949854 0.756873 0.797600
0.953607 0.794052 0.832334
0.956789 0.826751 0.860865
0.958839 0.853978 0.883232
0.959980 0.876069 0.900605
0.000103 0.098539 0.045122
0.002343 0.095290 0.043660
0.000096 0.092013 0.042129
0.002880 0.088699 0.040635
0.000089 0.085458 0.039061
0.000087 0.083155 0.035633
0.056651 0.081152 0.015810
0.113995 0.074966 0.002792
0.165711 0.066473 0.000000
0.218033 0.054771 0.004161
0.274226 0.045860 0.006024
0.336859 0.048548 0.006991
0.403451 0.051131 0.010254
0.477306 0.026831 0.012704
0.548411 0.018043 0.054988
0.618313 0.003463 0.087132
0.686239 0.022577 0.119905
0.747115 0.091666 0.163078
0.800610 0.150960 0.212758
0.828848 0.215364 0.271086
0.852126 0.274899 0.331111
0.872561 0.336214 0.395953
0.891650 0.404070 0.466940
0.909003 0.475057 0.534341
0.922617 0.540739 0.598673
0.932673 0.605390 0.658883
0.939700 0.663652 0.711574
0.945282 0.713571 0.757768
0.949876 0.757048 0.797560
0.953622 0.794177 0.832307
0.956798 0.826838 0.860848
0.958844 0.854035 0.883222
0.959984 0.876105 0.900599
0.004265 0.139121 0.063756
0.000143 0.136497 0.062519
0.005031 0.133822 0.061335
0.002570 0.131141 0.060067
0.001528 0.128457 0.058798
0.005092 0.125876 0.057473
0.003242 0.124579 0.047487
0.095297 0.121620 0.014531
0.158241 0.114605 0.000000
0.214337 0.104839 0.003651
0.271361 0.091189 0.005645
0.333002 0.076728 0.007919
0.399722 0.073181 0.006058
0.474125 0.062501 0.005018
0.549261 0.014796 0.029125
0.619266 0.012596 0.075823
0.687567 0.018486 0.111988
0.746807 0.102015 0.160504
0.800331 0.157894 0.211324
0.829172 0.219094 0.269533
0.852506 0.277753 0.329913
0.872943 0.338461 0.394985
0.892016 0.405973 0.466237
0.909271 0.476470 0.533876
0.922799 0.541766 0.598351
0.932793 0.606134 0.658681
0.939686 0.664304 0.711534
0.945330 0.713925 0.757683
0.949907 0.757295 0.797503
0.953642 0.794352 0.832269
0.956811 0.826960 0.860825
0.958852 0.854114 0.883206
0.959988 0.876157 0.900590
0.007438 0.182306 0.083589
0.005612 0.180201 0.082571
0.000776 0.178084 0.081566
0.007282 0.175932 0.080649
0.005671 0.173792 0.079612
0.006990 0.171670 0.078606
0.002577 0.169267 0.076693
0.034099 0.170030 0.045645
0.137633 0.165117 0.004809
0.205261 0.157617 0.004151
0.266982 0.146722 0.005452
0.330460 0.130690 0.008223
0.396159 0.109524 0.000000
0.470120 0.096245 0.011281
0.546494 0.073462 0.007843
0.621332 0.016525 0.051128
0.689236 0.033167 0.100328
0.746456 0.114974 0.156951
0.799978 0.167060 0.209423
0.829624 0.224178 0.267443
0.853022 0.281619 0.328307
0.873458 0.341507 0.393691
0.892503 0.408526 0.465299
0.909627 0.478353 0.533256
0.923041 0.543134 0.597922
0.932953 0.607122 0.658413
0.939785 0.664970 0.711360
0.945394 0.714395 0.757570
0.949948 0.757621 0.797427
0.953668 0.794584 0.832218
0.956828 0.827122 0.860794
0.958862 0.854218 0.883186
0.959994 0.876225 0.900578
0.002720 0.228795 0.104821
0.008989 0.227052 0.104103
0.007618 0.225340 0.103281
0.004660 0.223609 0.102433
0.002272 0.221883 0.101604
0.000230 0.220146 0.100757
0.008683 0.217995 0.099684
0.009492 0.215751 0.094859
0.081131 0.217073 0.052061
0.181957 0.211250 0.008510
0.256000 0.203107 0.002012
0.325221 0.190903 0.008767
0.393895 0.172305 0.010882
0.466608 0.143800 0.010069
0.542017 0.119258 0.011124
0.620305 0.081519 0.008505
0.688370 0.083065 0.091601
0.746104 0.131528 0.151943
0.799542 0.179266 0.206899
0.830266 0.231177 0.264611
0.853728 0.286898 0.326145
0.874157 0.345662 0.391959
0.893153 0.411966 0.464041
0.910096 0.480870 0.532426
0.923360 0.544961 0.597350
0.933163 0.608438 0.658055
0.939916 0.665855 0.711128
0.945479 0.715019 0.757420
0.950002 0.758055 0.797326
0.953704 0.794891 0.832151
0.956850 0.827336 0.860753
0.958875 0.854357 0.883160
0.960003 0.876315 0.900562
0.009763 0.279269 0.128059
0.006714 0.277844 0.127346
0.003384 0.276430 0.126657
0.011666 0.274959 0.126089
0.010330 0.273523 0.125371
0.010418 0.272102 0.124678
0.011316 0.270311 0.123765
0.007709 0.267919 0.121938
0.008033 0.266683 0.108366
0.123103 0.267915 0.055784
0.229567 0.261217 0.010761
0.311816 0.252385 0.009028
0.388093 0.238609 0.011275
0.464167 0.216085 0.011602
0.538932 0.178808 0.014205
0.615044 0.143390 0.008015
0.687638 0.123213 0.076483
0.745875 0.153389 0.144620
0.799666 0.193104 0.201945
0.831196 0.240951 0.260732
0.854704 0.294178 0.323215
0.875113 0.351387 0.389627
0.894022 0.416625 0.462351
0.910717 0.484242 0.531315
0.923783 0.547409 0.596584
0.933440 0.610193 0.657577
0.940089 0.667033 0.710819
0.945591 0.715849 0.757219
0.950073 0.758631 0.797192
0.953750 0.795300 0.832061
0.956879 0.827620 0.860698
0.958893 0.854542 0.883124
0.960013 0.876435 0.900541
0.011761 0.335041 0.153736
0.011389 0.333894 0.153183
0.008923 0.332720 0.152579
0.007490 0.331567 0.152003
0.004162 0.330386 0.151396
0.000344 0.329204 0.150788
0.006784 0.327725 0.150026
0.004135 0.325689 0.148701
0.013532 0.323254 0.145600
0.004398 0.322968 0.117998
0.164198 0.324112 0.055478
0.281052 0.316410 0.011898
0.373015 0.306626 0.007763
0.456946 0.290614 0.001603
0.537689 0.262964 0.005966
0.609734 0.217618 0.017811
0.687696 0.172716 0.034520
0.746089 0.183858 0.133114
0.800126 0.213017 0.194707
0.832580 0.254875 0.255334
0.856072 0.304363 0.319205
0.876430 0.359372 0.386469
0.895183 0.422978 0.460065
0.911534 0.488773 0.529821
0.924341 0.550696 0.595557
0.933805 0.612538 0.656935
0.940316 0.668605 0.710406
0.945738 0.716954 0.756951
0.950168 0.759396 0.797013
0.953812 0.795843 0.831942
0.956917 0.827998 0.860625
0.958916 0.854786 0.883077
0.960028 0.876593 0.900513
0.014035 0.394413 0.181306
0.010133 0.393480 0.180771
0.011278 0.392578 0.180328
0.009841 0.391643 0.179823
0.009193 0.390708 0.179318
0.009983 0.389775 0.178813
0.013098 0.388610 0.178181
0.007113 0.387011 0.177016
0.017531 0.384964 0.175212
0.011809 0.382811 0.168991
0.012461 0.383326 0.121935
0.207950 0.384968 0.047088
0.338357 0.376514 0.013456
0.438324 0.366093 0.014630
0.529630 0.347870 0.016279
0.606831 0.315642 0.009895
0.682019 0.261458 0.011730
0.747596 0.230746 0.111648
0.801283 0.243197 0.183566
0.834702 0.275293 0.247606
0.858016 0.318894 0.313631
0.878259 0.370690 0.382150
0.896735 0.431718 0.456949
0.912605 0.494885 0.527798
0.925075 0.555133 0.594170
0.934182 0.615853 0.656188
0.940616 0.670706 0.709852
0.945932 0.718427 0.756593
0.950351 0.760312 0.796713
0.953942 0.796479 0.831736
0.957007 0.828428 0.860490
0.958947 0.855110 0.883014
0.960047 0.876804 0.900476
0.019161 0.458891 0.211845
0.020497 0.458179 0.211477
0.020293 0.457418 0.211033
0.020555 0.456657 0.210589
0.021192 0.455896 0.210143
0.008385 0.455197 0.209444
0.014880 0.454245 0.208883
0.010327 0.452929 0.207806
0.021152 0.451162 0.206338
0.014802 0.449100 0.202894
0.010081 0.446916 0.193081
0.019462 0.449452 0.120659
0.255973 0.449807 0.010042
0.398480 0.440333 0.020051
0.508834 0.428885 0.020538
0.597697 0.408841 0.016810
0.674934 0.373042 0.013632
0.751803 0.313413 0.019196
0.803836 0.292135 0.164051
0.838047 0.306513 0.235959
0.860820 0.340211 0.305681
0.880816 0.387065 0.376147
0.898799 0.443874 0.452654
0.913999 0.503167 0.525041
0.926037 0.561155 0.592289
0.934809 0.620071 0.655020
0.941009 0.673521 0.709106
0.946188 0.720393 0.756112
0.950514 0.761669 0.796392
0.954049 0.797440 0.831522
0.957074 0.829094 0.860359
0.958987 0.855540 0.882930
0.960072 0.877083 0.900427
0.024478 0.523795 0.243493
0.007132 0.523333 0.242856
0.016279 0.522795 0.242563
0.019145 0.522260 0.242212
0.022155 0.521724 0.241858
0.007171 0.521261 0.241215
0.018661 0.520529 0.240736
0.016570 0.519604 0.239784
0.014376 0.518457 0.238382
0.019401 0.516837 0.236108
0.023379 0.514881 0.231521
0.015209 0.513139 0.216962
0.020066 0.518920 0.107166
0.310704 0.517910 0.021620
0.464768 0.508889 0.020611
0.575154 0.497182 0.009073
0.662276 0.475946 0.015734
0.739088 0.437376 0.016114
0.807735 0.379064 0.116707
0.843319 0.357404 0.216470
0.865069 0.374046 0.293665
0.884367 0.411358 0.367583
0.901505 0.460996 0.446631
0.915798 0.514516 0.521238
0.927288 0.569390 0.589709
0.935522 0.625930 0.653549
0.941522 0.677308 0.708096
0.946522 0.723026 0.755463
0.950728 0.763480 0.795962
0.954190 0.798720 0.831236
0.957162 0.829979 0.860184
0.959041 0.856111 0.882818
0.960105 0.877453 0.900361
0.026523 0.582541 0.272837
0.010942 0.582182 0.272203
0.023023 0.581819 0.272026
0.026857 0.581379 0.271713
0.021336 0.581098 0.271217
0.000822 0.580740 0.270619
0.024857 0.580291 0.270359
0.004370 0.579747 0.269321
0.025092 0.578848 0.268388
0.027264 0.577785 0.266638
0.023881 0.576444 0.263417
0.013720 0.574813 0.256622
0.014151 0.573374 0.236474
0.083623 0.582828 0.057677
0.371857 0.580049 0.011405
0.530649 0.571463 0.017279
0.634978 0.560359 0.024676
0.718271 0.540274 0.018274
0.796034 0.504354 0.021222
0.850249 0.452478 0.173680
0.871107 0.431219 0.273500
0.889055 0.448363 0.354807
0.904910 0.485417 0.437967
0.918111 0.530565 0.515904
0.928886 0.580753 0.586125
0.936566 0.633643 0.651350
0.942187 0.682424 0.706717
0.946956 0.726563 0.754581
0.951008 0.765901 0.795380
0.954422 0.800347 0.830800
0.957315 0.831087 0.859908
0.959111 0.856869 0.882667
0.960148 0.877944 0.900273
0.022377 0.635707 0.300255
0.029122 0.635469 0.300090
0.017204 0.635228 0.299501
0.026603 0.634992 0.299337
0.013132 0.634752 0.298749
0.025579 0.634517 0.298585
0.017948 0.634221 0.297957
0.018211 0.633809 0.297248
0.027490 0.633177 0.296375
0.020298 0.632565 0.294729
0.025172 0.631570 0.292366
0.023293 0.630450 0.288084
0.019943 0.629100 0.279141
0.027712 0.627885 0.251653
0.175525 0.639042 0.015038
0.440009 0.636073 0.021111
0.588000 0.627792 0.025542
0.688114 0.616709 0.018475
0.767774 0.597973 0.023253
0.844983 0.565042 0.040441
0.875208 0.525331 0.234331
0.893952 0.505267 0.334369
0.908707 0.520400 0.425029
0.920947 0.553729 0.508194
0.930860 0.596610 0.581038
0.937775 0.644320 0.648400
0.943037 0.689380 0.704812
0.947516 0.731332 0.753372
0.951427 0.769051 0.794520
0.954662 0.802636 0.830275
0.957504 0.832587 0.859547
0.959203 0.857877 0.882464
0.960205 0.878596 0.900154
0.020332 0.681647 0.325400
0.029209 0.681503 0.325272
0.014282 0.681349 0.324694
0.026773 0.681206 0.324567
0.008208 0.681052 0.323989
0.027630 0.680912 0.323908
0.019084 0.680725 0.323299
0.017624 0.680470 0.322628
0.029127 0.680142 0.321935
0.030557 0.679707 0.320653
0.011503 0.679136 0.318344
0.027828 0.678323 0.315408
0.032412 0.677358 0.310002
0.027651 0.676350 0.298116
0.023104 0.675229 0.259720
0.257127 0.688051 0.024743
0.502553 0.685374 0.018483
0.640665 0.677503 0.024748
0.732722 0.666940 0.031830
0.811717 0.651750 0.016285
0.865984 0.626728 0.162979
0.893957 0.591754 0.298240
0.911625 0.573427 0.404323
0.923920 0.587822 0.496371
0.933099 0.618988 0.573586
0.939333 0.658734 0.643969
0.944096 0.698907 0.702136
0.948294 0.737685 0.751601
0.951947 0.773327 0.793357
0.955020 0.805629 0.829504
0.957736 0.834611 0.859066
0.959323 0.859218 0.882189
0.960280 0.879461 0.899993
0.021411 0.721333 0.348667
0.027585 0.721124 0.348425
0.015318 0.721143 0.347989
0.028300 0.721058 0.347884
0.007245 0.720955 0.347310
0.025005 0.720751 0.347119
0.013193 0.720749 0.346607
0.012959 0.720589 0.346007
0.022777 0.720383 0.345298
0.013033 0.719984 0.343956
0.034036 0.719642 0.342659
0.014728 0.719172 0.339756
0.024861 0.718492 0.335785
0.031607 0.717723 0.328660
0.028357 0.716847 0.312805
0.029595 0.715486 0.258051
0.339550 0.730020 0.001354
0.559114 0.726785 0.021236
0.685134 0.719000 0.029330
0.773897 0.710985 0.022712
0.845358 0.698274 0.029631
0.880327 0.681471 0.241380
0.907758 0.653831 0.368109
0.925192 0.638254 0.476856
0.935040 0.650739 0.562134
0.941168 0.678358 0.637039
0.945424 0.711951 0.698145
0.949230 0.746402 0.749113
0.952582 0.779148 0.791755
0.955507 0.809615 0.828394
0.958060 0.837275 0.858371
0.959479 0.861005 0.881813
0.960378 0.880610 0.899775
0.035961 0.754828 0.370931
0.024757 0.754894 0.370456
0.032832 0.754720 0.370278
0.019581 0.754786 0.369802
0.030050 0.754613 0.369625
0.013794 0.754681 0.369148
0.030386 0.754499 0.368950
0.026527 0.754406 0.368319
0.032476 0.754296 0.367697
0.024142 0.754136 0.366472
0.031523 0.753816 0.365078
0.023709 0.753557 0.362757
0.005842 0.753237 0.359324
0.028561 0.752746 0.354240
0.012822 0.752203 0.344440
0.034001 0.751375 0.323328
0.033090 0.750742 0.244533
0.410281 0.766079 0.027778
0.609992 0.763428 0.026220
0.724915 0.756580 0.014341
0.807442 0.750176 0.024513
0.860701 0.741541 0.163822
0.891019 0.729802 0.315655
0.918789 0.708400 0.442688
0.934780 0.695195 0.543385
0.942792 0.706001 0.625667
0.946922 0.729991 0.691894
0.950349 0.758324 0.745397
0.953392 0.787058 0.789412
0.956087 0.815075 0.826862
0.958447 0.840887 0.857423
0.959679 0.863387 0.881293
0.960504 0.882138 0.899475
0.034738 0.780865 0.391701
0.025130 0.780967 0.391297
0.031258 0.780812 0.391069
0.019653 0.780915 0.390665
0.030940 0.780763 0.390500
0.012583 0.780864 0.390033
0.030880 0.780710 0.389848
0.026142 0.780664 0.389236
0.031881 0.780618 0.388644
0.018737 0.780537 0.387453
0.028605 0.780458 0.386251
0.031210 0.780212 0.384321
0.027628 0.780074 0.381451
0.015872 0.779910 0.377032
0.029429 0.779487 0.370147
0.015060 0.779236 0.356941
0.036972 0.778392 0.327464
0.030934 0.787624 0.206904
0.475058 0.798873 0.012012
0.655561 0.795387 0.023944
0.760972 0.788462 0.030536
0.832893 0.784189 0.024406
0.870569 0.780400 0.252559
0.900398 0.774051 0.393115
0.926733 0.757087 0.510531
0.941914 0.745780 0.606885
0.948157 0.754993 0.681172
0.951576 0.774619 0.739404
0.954374 0.797885 0.785823
0.956837 0.822418 0.824545
0.958830 0.845892 0.856190
0.959931 0.866567 0.880563
0.960665 0.884168 0.899059
0.023285 0.800902 0.412838
0.030247 0.800759 0.412616
0.016781 0.800883 0.412239
0.026529 0.800740 0.412017
0.000835 0.800864 0.411639
0.027447 0.800727 0.411488
0.003412 0.800849 0.411021
0.035535 0.800717 0.410816
0.012625 0.800825 0.409887
0.030900 0.800678 0.409133
0.033157 0.800516 0.407851
0.036321 0.800498 0.406168
0.029429 0.800466 0.403499
0.006232 0.800437 0.399561
0.030741 0.800172 0.393981
0.013330 0.800073 0.384258
0.007619 0.799776 0.366592
0.019498 0.800273 0.326338
0.175552 0.819853 0.171767
0.537274 0.825337 0.085941
0.698429 0.820755 0.030393
0.791707 0.813783 0.003940
0.850177 0.812526 0.162322
0.879923 0.814394 0.334712
0.908147 0.812881 0.464162
0.932920 0.800004 0.574571
0.946906 0.789935 0.662512
0.952443 0.796817 0.728753
0.955395 0.812765 0.779930
0.957673 0.832393 0.820981
0.959269 0.852570 0.854375
0.960238 0.870813 0.879517
0.960868 0.886864 0.898470
0.029043 0.815543 0.434536
0.035782 0.815412 0.434333
0.021585 0.815546 0.433911
0.033910 0.815564 0.433845
0.005575 0.815550 0.433285
0.029006 0.815569 0.433219
0.038326 0.815443 0.432999
0.032499 0.815444 0.432389
0.032322 0.815458 0.431741
0.005903 0.815605 0.430680
0.036970 0.815510 0.429778
0.026201 0.815535 0.427925
0.039109 0.815463 0.425817
0.017650 0.815523 0.422165
0.037185 0.815376 0.417515
0.039234 0.815428 0.410085
0.009982 0.815545 0.397333
0.038323 0.815222 0.374165
0.030137 0.826573 0.318691
0.330081 0.840064 0.251985
0.596901 0.843788 0.192033
0.739628 0.839916 0.139055
0.817082 0.833350 0.086204
0.861077 0.835298 0.258125
0.889637 0.842666 0.412048
0.915169 0.845254 0.529577
0.937538 0.836927 0.631630
0.950311 0.828334 0.711122
0.955666 0.833313 0.769892
0.958229 0.846033 0.815516
0.959697 0.861411 0.851589
0.960585 0.876470 0.877971
0.961113 0.890434 0.897619
0.029522 0.828387 0.460204
0.038940 0.828407 0.460141
0.024302 0.828398 0.459640
0.035747 0.828419 0.459577
0.017387 0.828411 0.459075
0.032388 0.828432 0.459012
0.015332 0.828429 0.458494
0.037624 0.828319 0.458273
0.038178 0.828341 0.457686
0.024131 0.828499 0.456717
0.019286 0.828533 0.455573
0.035342 0.828454 0.454233
0.024005 0.828513 0.451991
0.023831 0.828464 0.449032
0.031032 0.828461 0.444946
0.032084 0.828518 0.438711
0.023618 0.828659 0.428713
0.032812 0.832144 0.413629
0.037206 0.841048 0.384938
0.219229 0.850883 0.348348
0.430104 0.855929 0.320567
0.652008 0.858633 0.273109
0.777369 0.854815 0.244578
0.836219 0.848578 0.218543
0.872264 0.854534 0.343694
0.899025 0.864999 0.480202
0.922188 0.870905 0.590357
0.941154 0.866593 0.681307
0.952806 0.860434 0.753851
0.957714 0.863996 0.806861
0.959907 0.872958 0.847070
0.960913 0.883955 0.875582
0.961388 0.895128 0.896346
0.010457 0.842365 0.487557
0.030949 0.842390 0.487508
0.040711 0.842414 0.487460
0.029821 0.842558 0.487114
0.040044 0.842583 0.487066
0.028943 0.842727 0.486719
0.011522 0.842877 0.486360
0.039341 0.842922 0.486274
0.013729 0.843219 0.485561
0.033786 0.843417 0.485110
0.036160 0.843762 0.484305
0.033592 0.844262 0.483128
0.030488 0.844930 0.481514
0.029106 0.845777 0.479272
0.029140 0.846957 0.476123
0.032371 0.848627 0.471597
0.034675 0.851078 0.464776
0.019553 0.854842 0.453769
0.034993 0.860549 0.435523
0.217888 0.863371 0.425382
0.345969 0.866663 0.412045
0.506525 0.871077 0.387124
0.702549 0.872113 0.353299
0.809350 0.868440 0.333230
0.853299 0.862804 0.310672
0.883407 0.871267 0.418842
0.908462 0.883810 0.544502
0.928333 0.890907 0.643070
0.944660 0.889367 0.726027
0.954883 0.885201 0.791543
0.959338 0.887586 0.839240
0.961040 0.893606 0.871666
0.961642 0.901210 0.894354
0.033899 0.866195 0.516002
0.015750 0.866329 0.515684
0.031865 0.866351 0.515625
0.007466 0.866485 0.515305
0.029806 0.866507 0.515246
0.039510 0.866530 0.515187
0.030830 0.866669 0.514852
0.025703 0.866820 0.514486
0.028402 0.866984 0.514085
0.038525 0.867165 0.513636
0.037759 0.867480 0.512861
0.029974 0.867937 0.511735
0.013121 0.868546 0.510222
0.039666 0.869211 0.508540
0.034813 0.870281 0.505813
0.017170 0.871780 0.501915
0.114877 0.872444 0.500022
0.168966 0.873210 0.497781
0.219678 0.874267 0.494625
0.276006 0.875800 0.489994
0.345491 0.878088 0.482795
0.438277 0.881356 0.470806
0.571539 0.884939 0.450153
0.748509 0.884616 0.425043
0.835408 0.880648 0.409936
0.868686 0.876167 0.390359
0.894451 0.885897 0.486527
0.916846 0.899041 0.601036
0.933997 0.906598 0.690489
0.947800 0.906871 0.765438
0.956776 0.904259 0.825143
0.960489 0.905277 0.864814
0.961722 0.908833 0.891042
0.236863 0.883941 0.560435
0.237422 0.883959 0.560393
0.237979 0.883976 0.560351
0.238536 0.883994 0.560309
0.239093 0.884011 0.560267
0.239649 0.884029 0.560225
0.240344 0.884051 0.560173
0.241318 0.884082 0.560098
0.242606 0.884124 0.560000
0.244309 0.884179 0.559869
0.246558 0.884252 0.559695
0.249528 0.884350 0.559463
0.253446 0.884481 0.559153
0.258609 0.884656 0.558737
0.266754 0.884900 0.558506
0.276915 0.885229 0.558081
0.290928 0.885682 0.557720
0.308308 0.886300 0.556987
0.330280 0.887154 0.555715
0.360387 0.888362 0.554324
