color-grading/luts/03_combined_slog3/BNC_SLog3_L05_Chrome.cube
TITLE "BNC SLog3 L05 Chrome"
# BNC Grade v1.0 - S-Log3/S-Gamut3.Cine -> BNC Base -> Muted, cross-processed 'chrome' look: rotated primaries, reduced saturation and cool highlights.
# Input: S-Log3 / S-Gamut3.Cine | Output: Rec.709 Gamma 2.4
LUT_3D_SIZE 9
DOMAIN_MIN 0.0 0.0 0.0
DOMAIN_MAX 1.0 1.0 1.0
0.001307 0.001311 0.001316
0.023047 0.010042 0.007118
0.160222 0.074382 0.061908
0.389307 0.160215 0.102933
0.652186 0.273969 0.196922
0.814943 0.419672 0.393497
0.898012 0.620437 0.642021
0.941642 0.802672 0.818876
0.957358 0.904630 0.906116
0.010460 0.017725 0.008245
0.007951 0.010372 0.004695
0.137463 0.065195 0.056280
0.379028 0.157677 0.101349
0.650186 0.276915 0.193453
0.814719 0.424466 0.392215
0.897784 0.623037 0.641635
0.941672 0.803197 0.818775
0.957368 0.904710 0.906108
0.092340 0.165908 0.079701
0.085781 0.156444 0.076727
0.123096 0.149098 0.082628
0.367753 0.167346 0.101667
0.647674 0.283907 0.188405
0.814607 0.432233 0.390148
0.897379 0.627228 0.641064
0.941714 0.804036 0.818613
0.957382 0.904837 0.906094
0.250542 0.390404 0.127991
0.247839 0.386509 0.127398
0.243948 0.380378 0.126521
0.361078 0.381813 0.159047
0.656084 0.351259 0.193985
0.816904 0.457983 0.383015
0.895861 0.640760 0.639627
0.941802 0.806724 0.818103
0.957426 0.905233 0.906048
0.424122 0.647574 0.180142
0.423840 0.646505 0.179578
0.423689 0.644820 0.178758
0.430114 0.640032 0.177727
0.644200 0.656767 0.241178
0.863945 0.591374 0.383622
0.894318 0.681492 0.635732
0.941587 0.815721 0.816613
0.957546 0.906476 0.905879
0.537829 0.805613 0.297202
0.538605 0.805515 0.296799
0.539941 0.805369 0.296177
0.545113 0.804996 0.294395
0.579899 0.805654 0.292005
0.835582 0.835152 0.335715
0.925507 0.802409 0.612558
0.939670 0.845161 0.813914
0.957693 0.910549 0.905170
0.618489 0.866951 0.511207
0.619409 0.866995 0.511080
0.620892 0.867069 0.510882
0.625739 0.867322 0.510286
0.642940 0.868375 0.508660
0.719434 0.875353 0.506612
0.911766 0.903437 0.502116
0.950005 0.914113 0.789297
0.956671 0.923359 0.903324
0.746072 0.911893 0.707848
0.746449 0.911916 0.707847
0.747048 0.911952 0.707845
0.748918 0.912066 0.707839
0.754724 0.912428 0.707817
0.773119 0.913679 0.707721
0.838896 0.919826 0.708032
0.940661 0.933163 0.694087
0.959467 0.944521 0.885927
0.846350 0.937040 0.825627
0.846442 0.937045 0.825631
0.846588 0.937052 0.825636
0.847042 0.937076 0.825653
0.848446 0.937149 0.825704
0.852807 0.937381 0.825861
0.866503 0.938183 0.826301
0.909680 0.941827 0.827223
0.953505 0.947263 0.814267
0.000837 0.002727 0.006517
0.019404 0.007850 0.009386
0.156631 0.072655 0.061070
0.387400 0.159859 0.108959
0.651559 0.273473 0.209313
0.816016 0.417248 0.399331
0.898628 0.619157 0.644077
0.941673 0.802490 0.819356
0.957358 0.904612 0.906182
0.004659 0.008086 0.005664
0.004169 0.004225 0.004286
0.132467 0.063014 0.055009
0.377168 0.156619 0.105083
0.649383 0.276426 0.205557
0.815661 0.422227 0.398084
0.898428 0.621740 0.643671
0.941705 0.803011 0.819256
0.957367 0.904692 0.906173
0.083420 0.153053 0.075679
0.076540 0.143100 0.072403
0.113369 0.135264 0.077835
0.364249 0.162354 0.102513
0.646560 0.283259 0.199922
0.815317 0.430300 0.396097
0.898062 0.625911 0.643067
0.941752 0.803845 0.819096
0.957382 0.904818 0.906160
0.246831 0.385183 0.127922
0.244100 0.381251 0.127222
0.240039 0.374996 0.126177
0.357068 0.376074 0.157904
0.653379 0.347513 0.199136
0.816784 0.456970 0.389312
0.896613 0.639451 0.641530
0.941857 0.806515 0.818587
0.957426 0.905214 0.906115
0.423007 0.646409 0.185395
0.422704 0.645321 0.184739
0.422506 0.643605 0.183768
0.428629 0.638699 0.182176
0.643233 0.655195 0.243018
0.863361 0.589601 0.389015
0.894450 0.680958 0.637859
0.941699 0.815459 0.817079
0.957548 0.906454 0.905948
0.537457 0.805789 0.301552
0.538231 0.805688 0.301138
0.539561 0.805537 0.300498
0.544713 0.805149 0.298658
0.579397 0.805750 0.296076
0.835663 0.835139 0.338599
0.925702 0.802090 0.614839
0.939693 0.845066 0.814398
0.957704 0.910519 0.905245
0.618155 0.867183 0.513083
0.619076 0.867227 0.512958
0.620561 0.867300 0.512762
0.625415 0.867552 0.512173
0.642649 0.868602 0.510568
0.719314 0.875563 0.508545
0.911939 0.903626 0.503982
0.950054 0.914116 0.789846
0.956674 0.923351 0.903405
0.745934 0.911952 0.708268
0.746312 0.911975 0.708267
0.746911 0.912011 0.708265
0.748785 0.912125 0.708260
0.754601 0.912486 0.708242
0.773025 0.913736 0.708155
0.838888 0.919878 0.708480
0.940706 0.933214 0.694558
0.959475 0.944526 0.886035
0.846316 0.937052 0.825713
0.846408 0.937056 0.825716
0.846553 0.937064 0.825722
0.847008 0.937087 0.825738
0.848413 0.937160 0.825790
0.852776 0.937393 0.825948
0.866481 0.938194 0.826390
0.909682 0.941837 0.827316
0.953514 0.947273 0.814368
0.000044 0.045864 0.078080
0.000045 0.046545 0.081700
0.161371 0.055540 0.140882
0.385633 0.158643 0.155161
0.651447 0.271481 0.232935
0.818172 0.412666 0.408893
0.899537 0.617166 0.647410
0.941714 0.802210 0.820116
0.957356 0.904583 0.906284
0.000042 0.043203 0.073603
0.000041 0.042254 0.072075
0.134769 0.047346 0.127875
0.374334 0.156146 0.145765
0.648831 0.274772 0.228900
0.817622 0.417949 0.407659
0.899386 0.619715 0.646974
0.941751 0.802725 0.820017
0.957366 0.904662 0.906276
0.011429 0.136914 0.131677
0.000125 0.125353 0.127084
0.100538 0.112650 0.125546
0.358627 0.158524 0.132383
0.645254 0.281894 0.222668
0.816923 0.426531 0.405759
0.899092 0.623840 0.646320
0.941805 0.803550 0.819860
0.957381 0.904788 0.906263
0.240536 0.377309 0.137415
0.237733 0.373207 0.135841
0.233440 0.366647 0.133428
0.350810 0.366915 0.159594
0.649003 0.342597 0.212560
0.816972 0.454900 0.399567
0.897799 0.637338 0.644614
0.941935 0.806192 0.819356
0.957426 0.905183 0.906220
0.421153 0.644715 0.196564
0.420818 0.643595 0.195753
0.420551 0.641826 0.194524
0.426218 0.636722 0.191962
0.641778 0.652774 0.247587
0.862048 0.587140 0.397942
0.894785 0.679981 0.641185
0.941869 0.815049 0.817825
0.957550 0.906420 0.906059
0.536846 0.806115 0.308877
0.537614 0.806009 0.308446
0.538936 0.805850 0.307779
0.544060 0.805438 0.305848
0.578595 0.805940 0.302890
0.835817 0.835148 0.343503
0.926011 0.801584 0.618492
0.939740 0.844902 0.815159
0.957721 0.910471 0.905363
0.617612 0.867554 0.516072
0.618536 0.867598 0.515950
0.620025 0.867670 0.515758
0.624892 0.867921 0.515181
0.642177 0.868965 0.513612
0.719121 0.875899 0.511635
0.912219 0.903931 0.506984
0.950131 0.914119 0.790717
0.956679 0.923339 0.903532
0.745713 0.912046 0.708934
0.746092 0.912069 0.708933
0.746693 0.912105 0.708932
0.748572 0.912218 0.708928
0.754404 0.912580 0.708915
0.772875 0.913827 0.708844
0.838874 0.919959 0.709192
0.940778 0.933295 0.695307
0.959489 0.944534 0.886204
0.846261 0.937070 0.825848
0.846353 0.937074 0.825852
0.846499 0.937082 0.825857
0.846954 0.937105 0.825874
0.848360 0.937178 0.825926
0.852728 0.937411 0.826085
0.866446 0.938212 0.826532
0.909684 0.941851 0.827463
0.953528 0.947289 0.814528
0.000129 0.133815 0.228137
0.000129 0.133729 0.230266
0.127509 0.096529 0.331851
0.395777 0.119049 0.354948
0.673384 0.216510 0.351464
0.828418 0.391440 0.444772
0.901737 0.611407 0.658331
0.941789 0.801396 0.822474
0.957350 0.904494 0.906601
0.000128 0.132659 0.226062
0.000128 0.132392 0.226392
0.083043 0.101016 0.320221
0.384300 0.116555 0.349969
0.669899 0.222534 0.346513
0.827609 0.397463 0.443069
0.901760 0.613802 0.657840
0.941839 0.801895 0.822384
0.957360 0.904573 0.906594
0.000133 0.137643 0.235145
0.000131 0.135352 0.231335
0.000126 0.130000 0.253419
0.366299 0.114231 0.342405
0.664119 0.235029 0.338733
0.826269 0.407475 0.440553
0.901741 0.617699 0.657076
0.941915 0.802693 0.822239
0.957376 0.904698 0.906583
0.137694 0.369936 0.350695
0.135544 0.365102 0.349075
0.132205 0.357318 0.346509
0.343812 0.348938 0.354475
0.643493 0.323397 0.321201
0.822250 0.442147 0.434180
0.901219 0.630688 0.654885
0.942119 0.805249 0.821764
0.957423 0.905091 0.906544
0.412996 0.642928 0.276109
0.412602 0.641685 0.274866
0.412208 0.639713 0.272914
0.416919 0.633857 0.267466
0.639342 0.647511 0.297404
0.855608 0.581801 0.427198
0.896911 0.675771 0.651228
0.942331 0.813824 0.820206
0.957556 0.906318 0.906399
0.534666 0.807588 0.335699
0.535423 0.807467 0.335221
0.536728 0.807284 0.334478
0.541793 0.806790 0.332289
0.576011 0.806960 0.328155
0.836578 0.835479 0.362134
0.926985 0.800009 0.630213
0.939985 0.844277 0.817479
0.957769 0.910325 0.905732
0.615818 0.868749 0.525543
0.616749 0.868792 0.525427
0.618252 0.868863 0.525247
0.623163 0.869109 0.524709
0.640621 0.870137 0.523272
0.718495 0.876992 0.521517
0.913133 0.904929 0.516717
0.950373 0.914131 0.793451
0.956700 0.923295 0.903923
0.745009 0.912342 0.711023
0.745391 0.912364 0.711023
0.745998 0.912400 0.711024
0.747893 0.912513 0.711026
0.753776 0.912873 0.711028
0.772396 0.914115 0.711006
0.838830 0.920216 0.711432
0.941004 0.933551 0.697662
0.959532 0.944557 0.886733
0.846088 0.937127 0.826272
0.846181 0.937131 0.826275
0.846327 0.937139 0.826281
0.846783 0.937162 0.826298
0.848194 0.937235 0.826351
0.852575 0.937467 0.826513
0.866336 0.938266 0.826973
0.909692 0.941898 0.827925
0.953572 0.947339 0.815028
0.000237 0.244947 0.447452
0.000234 0.242025 0.460655
0.000220 0.224613 0.512335
0.364697 0.154214 0.601722
0.664132 0.189915 0.611627
0.836022 0.348011 0.608338
0.902452 0.599921 0.692743
0.941637 0.799389 0.829440
0.957322 0.904232 0.907546
0.000238 0.246514 0.445671
0.000236 0.244181 0.456255
0.000226 0.232636 0.495351
0.350828 0.158619 0.599862
0.661068 0.191490 0.610198
0.836437 0.351870 0.607206
0.902820 0.601851 0.692495
0.941711 0.799853 0.829391
0.957333 0.904310 0.907541
0.000242 0.250286 0.446635
0.000240 0.248436 0.453855
0.000234 0.241470 0.479827
0.326707 0.169205 0.596484
0.656214 0.195165 0.608028
0.837163 0.358415 0.605440
0.903410 0.604955 0.692103
0.941829 0.800590 0.829312
0.957349 0.904435 0.907533
0.023273 0.306359 0.510821
0.023673 0.302452 0.509351
0.025889 0.296009 0.510992
0.231340 0.257214 0.581789
0.642573 0.228221 0.603415
0.840116 0.382906 0.600235
0.905208 0.615233 0.690658
0.942186 0.802932 0.829032
0.957400 0.904823 0.907507
0.263474 0.655956 0.625100
0.263177 0.654464 0.624686
0.262968 0.652088 0.624038
0.269005 0.644777 0.622295
0.657343 0.654636 0.650267
0.858564 0.540918 0.588405
0.908232 0.655028 0.684373
0.943092 0.810675 0.827827
0.957554 0.906026 0.907412
0.515791 0.821404 0.482745
0.516682 0.821230 0.482227
0.518207 0.820960 0.481417
0.524042 0.820178 0.478984
0.561997 0.819139 0.473439
0.845504 0.843732 0.485031
0.929956 0.795057 0.669429
0.941675 0.841161 0.824236
0.957882 0.909913 0.906860
0.608790 0.873040 0.557737
0.609760 0.873077 0.557633
0.611325 0.873140 0.557470
0.616444 0.873359 0.556988
0.634672 0.874299 0.555753
0.716218 0.880826 0.554524
0.916361 0.908467 0.550276
0.951122 0.914164 0.802041
0.956816 0.923101 0.905084
0.742667 0.913283 0.717591
0.743061 0.913305 0.717595
0.743684 0.913340 0.717600
0.745632 0.913452 0.717617
0.751682 0.913808 0.717669
0.770794 0.915032 0.717809
0.838668 0.921037 0.718525
0.941720 0.934361 0.705127
0.959663 0.944630 0.888363
0.845542 0.937303 0.827585
0.845635 0.937308 0.827588
0.845783 0.937316 0.827594
0.846244 0.937339 0.827612
0.847668 0.937411 0.827669
0.852091 0.937641 0.827843
0.865988 0.938436 0.828344
0.909713 0.942045 0.829360
0.953710 0.947495 0.816580
0.191795 0.327913 0.763102
0.208934 0.326666 0.764697
0.236292 0.324323 0.767666
0.329268 0.312300 0.780943
0.642371 0.273923 0.799465
0.819265 0.304922 0.800436
0.892484 0.573781 0.803815
0.940330 0.793651 0.850367
0.957216 0.903394 0.910377
0.185676 0.331987 0.762784
0.202840 0.330797 0.764289
0.230110 0.328581 0.767098
0.322178 0.317299 0.779890
0.638990 0.277591 0.799717
0.819344 0.307310 0.800570
0.892854 0.575556 0.803798
0.940411 0.794117 0.850341
0.957227 0.903474 0.910374
0.176065 0.338822 0.762413
0.193301 0.337708 0.763778
0.220469 0.335667 0.766339
0.311148 0.325473 0.778303
0.633524 0.283843 0.800172
0.819499 0.311330 0.800812
0.893451 0.578415 0.803775
0.940540 0.794857 0.850301
0.957245 0.903600 0.910369
0.147368 0.364495 0.762495
0.165034 0.363463 0.763446
0.192033 0.361688 0.765260
0.278578 0.353939 0.774351
0.615575 0.307419 0.802130
0.820274 0.326079 0.801856
0.895396 0.587720 0.803743
0.940944 0.797186 0.850172
0.957299 0.903994 0.910354
0.191765 0.542735 0.789051
0.196539 0.540580 0.788660
0.205285 0.537210 0.788133
0.242783 0.527053 0.787494
0.540788 0.480012 0.820397
0.829276 0.412999 0.811268
0.902290 0.620550 0.804063
0.942204 0.804573 0.849764
0.957464 0.905209 0.910301
0.358484 0.848333 0.819042
0.359290 0.848159 0.819074
0.360695 0.847889 0.819131
0.366365 0.847107 0.819389
0.409186 0.846203 0.821848
0.885765 0.877801 0.864844
0.932204 0.771102 0.808979
0.946152 0.829475 0.848230
0.957961 0.908938 0.910093
0.546906 0.893711 0.690655
0.548138 0.893749 0.690611
0.550129 0.893812 0.690547
0.556681 0.894028 0.690381
0.580455 0.894916 0.690273
0.692385 0.900578 0.695746
0.931647 0.925278 0.700457
0.953470 0.914253 0.830401
0.957642 0.921930 0.908313
0.733423 0.916489 0.739139
0.733854 0.916510 0.739151
0.734538 0.916544 0.739170
0.736675 0.916652 0.739231
0.743322 0.916995 0.739429
0.764289 0.918163 0.740101
0.837785 0.923845 0.742298
0.944113 0.937069 0.730250
0.960066 0.944846 0.893359
0.843720 0.937867 0.831713
0.843816 0.937871 0.831718
0.843968 0.937879 0.831724
0.844442 0.937901 0.831746
0.845909 0.937972 0.831811
0.850466 0.938198 0.832018
0.864806 0.938976 0.832650
0.909764 0.942511 0.833916
0.954142 0.947984 0.821468
0.540828 0.521880 0.856934
0.545328 0.520916 0.857519
0.552542 0.519367 0.858409
0.576012 0.514377 0.860836
0.654719 0.499869 0.863297
0.837721 0.476593 0.857300
0.873427 0.503106 0.860486
0.934305 0.773222 0.902443
0.956740 0.900497 0.918424
0.539270 0.524922 0.856912
0.543766 0.523962 0.857514
0.550951 0.522419 0.858429
0.574340 0.517429 0.860953
0.653112 0.502697 0.863737
0.837861 0.478986 0.857687
0.873685 0.504532 0.860714
0.934390 0.773668 0.902499
0.956752 0.900580 0.918427
0.536818 0.529796 0.856858
0.541306 0.528844 0.857484
0.548456 0.527312 0.858439
0.571705 0.522334 0.861114
0.650545 0.507270 0.864434
0.838091 0.482847 0.858314
0.874102 0.506823 0.861083
0.934525 0.774375 0.902588
0.956772 0.900711 0.918430
0.529331 0.545431 0.856554
0.533770 0.544518 0.857242
0.540853 0.543039 0.858310
0.563609 0.538177 0.861408
0.642353 0.522297 0.866561
0.838876 0.495455 0.860388
0.875461 0.514240 0.862286
0.934949 0.776604 0.902870
0.956832 0.901121 0.918440
0.509040 0.596466 0.855311
0.513159 0.595809 0.855976
0.519771 0.594723 0.857061
0.541055 0.590950 0.860645
0.615774 0.575572 0.871334
0.837377 0.539907 0.868127
0.880284 0.539884 0.866553
0.936291 0.783699 0.903765
0.957019 0.902385 0.918469
0.521106 0.776334 0.889887
0.523561 0.776064 0.889770
0.527517 0.775656 0.889578
0.540394 0.774542 0.888931
0.584632 0.772655 0.887039
0.819991 0.743182 0.907182
0.904118 0.657750 0.887918
0.940758 0.807875 0.906794
0.957590 0.906284 0.918534
0.455115 0.907871 0.890714
0.456025 0.907929 0.890790
0.457494 0.908023 0.890912
0.462315 0.908337 0.891315
0.479776 0.909523 0.892789
0.581865 0.917654 0.902109
0.954824 0.949296 0.939322
0.957074 0.907888 0.917326
0.959249 0.918075 0.918378
0.678344 0.928726 0.830798
0.678828 0.928758 0.830809
0.679595 0.928809 0.830826
0.682008 0.928968 0.830880
0.689629 0.929467 0.831059
0.714838 0.931063 0.831737
0.816408 0.936602 0.837150
0.953721 0.947993 0.835530
0.961251 0.945411 0.908201
0.836595 0.939765 0.845274
0.836699 0.939770 0.845279
0.836865 0.939777 0.845288
0.837381 0.939799 0.845314
0.838979 0.939868 0.845396
0.843967 0.940087 0.845667
0.859825 0.940822 0.846632
0.909662 0.944108 0.849181
0.955554 0.949584 0.837639
0.799957 0.754568 0.915635
0.800958 0.754340 0.915648
0.802543 0.753980 0.915664
0.807493 0.752876 0.915668
0.822692 0.749691 0.915334
0.865923 0.741944 0.913391
0.915041 0.712125 0.906235
0.922494 0.718366 0.907103
0.954355 0.889155 0.935816
0.799637 0.755351 0.915731
0.800639 0.755121 0.915747
0.802226 0.754760 0.915766
0.807183 0.753649 0.915780
0.822411 0.750439 0.915468
0.865743 0.742650 0.913528
0.915165 0.712800 0.906363
0.922566 0.718732 0.907172
0.954368 0.889243 0.935828
0.799129 0.756595 0.915880
0.800132 0.756364 0.915900
0.801722 0.755999 0.915924
0.806688 0.754879 0.915955
0.821962 0.751630 0.915679
0.865457 0.743772 0.913745
0.915363 0.713872 0.906567
0.922682 0.719313 0.907281
0.954390 0.889381 0.935846
0.797529 0.760523 0.916318
0.798535 0.760287 0.916349
0.800131 0.759913 0.916393
0.805123 0.758762 0.916480
0.820532 0.755395 0.916331
0.864559 0.747301 0.914427
0.915984 0.717247 0.907210
0.923045 0.721145 0.907627
0.954459 0.889813 0.935905
0.792515 0.773050 0.917351
0.793521 0.772804 0.917425
0.795119 0.772415 0.917536
0.800138 0.771197 0.917828
0.815847 0.767510 0.918211
0.861743 0.758471 0.916566
0.917947 0.727955 0.909248
0.924198 0.726980 0.908728
0.954670 0.891151 0.936086
0.778584 0.813768 0.917421
0.779491 0.813602 0.917571
0.780933 0.813331 0.917811
0.785500 0.812436 0.918570
0.800266 0.809182 0.920893
0.850979 0.796854 0.923704
0.924459 0.764127 0.916105
0.928102 0.746922 0.912487
0.955331 0.895323 0.936649
0.749098 0.913895 0.929662
0.749879 0.913920 0.929742
0.751121 0.913958 0.929868
0.755031 0.914082 0.930266
0.767470 0.914488 0.931532
0.809874 0.915995 0.935789
0.943327 0.908378 0.942462
0.944193 0.834156 0.928633
0.957424 0.908461 0.938401
0.625476 0.929291 0.916595
0.625921 0.929330 0.916637
0.626629 0.929391 0.916706
0.628858 0.929584 0.916921
0.635946 0.930201 0.917608
0.659958 0.932314 0.919965
0.757413 0.941135 0.929866
0.963960 0.959280 0.950699
0.963323 0.944597 0.941780
0.808265 0.945271 0.896901
0.808366 0.945279 0.896907
0.808525 0.945291 0.896917
0.809024 0.945329 0.896949
0.810574 0.945447 0.897049
0.815479 0.945814 0.897359
0.831892 0.946990 0.898351
0.897932 0.950672 0.902486
0.960819 0.955600 0.900595
0.929069 0.899545 0.942502
0.929170 0.899506 0.942493
0.929329 0.899444 0.942480
0.929820 0.899254 0.942438
0.931278 0.898679 0.942305
0.935268 0.896992 0.941914
0.944720 0.891105 0.940583
0.949026 0.863234 0.935376
0.948281 0.852783 0.933497
0.929045 0.899685 0.942527
0.929146 0.899646 0.942519
0.929306 0.899584 0.942505
0.929798 0.899394 0.942463
0.931260 0.898818 0.942331
0.935259 0.897130 0.941938
0.944722 0.891250 0.940609
0.949051 0.863392 0.935404
0.948294 0.852865 0.933511
0.929007 0.899907 0.942567
0.929109 0.899868 0.942558
0.929269 0.899806 0.942545
0.929763 0.899615 0.942503
0.931231 0.899037 0.942371
0.935244 0.897348 0.941977
0.944724 0.891480 0.940651
0.949091 0.863642 0.935447
0.948316 0.852994 0.933534
0.928886 0.900599 0.942690
0.928989 0.900559 0.942682
0.929151 0.900497 0.942669
0.929651 0.900304 0.942628
0.931136 0.899723 0.942497
0.935197 0.898025 0.942099
0.944730 0.892196 0.940779
0.949215 0.864422 0.935583
0.948383 0.853399 0.933605
0.928482 0.902733 0.943065
0.928588 0.902692 0.943058
0.928756 0.902629 0.943046
0.929275 0.902431 0.943008
0.930817 0.901835 0.942883
0.935037 0.900104 0.942476
0.944742 0.894394 0.941175
0.949596 0.866836 0.936003
0.948592 0.854657 0.933826
0.926949 0.909301 0.944106
0.927066 0.909258 0.944103
0.927252 0.909189 0.944100
0.927826 0.908978 0.944085
0.929542 0.908336 0.944017
0.934301 0.906478 0.943659
0.944721 0.901047 0.942385
0.950770 0.874360 0.937305
0.949248 0.858630 0.934520
0.920888 0.927649 0.944951
0.921016 0.927629 0.944970
0.921218 0.927597 0.945001
0.921846 0.927491 0.945098
0.923759 0.927120 0.945395
0.929475 0.925582 0.946205
0.943905 0.919897 0.945962
0.954310 0.897473 0.941303
0.951391 0.871837 0.936809
0.882443 0.948613 0.944670
0.882627 0.948626 0.944688
0.882919 0.948646 0.944718
0.883829 0.948709 0.944809
0.886637 0.948905 0.945093
0.895280 0.949510 0.945976
0.920393 0.951319 0.948691
0.962222 0.949780 0.951546
0.959053 0.919915 0.945267
0.776894 0.944488 0.933783
0.776996 0.944497 0.933793
0.777157 0.944512 0.933809
0.777660 0.944557 0.933860
0.779223 0.944698 0.934019
0.784137 0.945139 0.934519
0.800459 0.946603 0.936176
0.866486 0.952440 0.942823
0.965816 0.961326 0.953067
