color-grading/luts/03_combined_slog3/BNC_SLog3_L07_Eterna.cube
TITLE "BNC SLog3 L07 Eterna"
# BNC Grade v1.0 - S-Log3/S-Gamut3.Cine -> BNC Base -> Fujifilm Eterna-style flat, low-contrast cinema stock emulation with soft highlights and gentle desaturation.
# Input: S-Log3 / S-Gamut3.Cine | Output: Rec.709 Gamma 2.4
LUT_3D_SIZE 5
DOMAIN_MIN 0.0 0.0 0.0
DOMAIN_MAX 1.0 1.0 1.0
0.031468 0.037310 0.039257
0.220175 0.096364 0.091910
0.644213 0.275833 0.276759
0.863646 0.603364 0.632477
0.930202 0.829978 0.838476
0.059558 0.231191 0.146324
0.186096 0.220003 0.123670
0.639571 0.291724 0.271662
0.864214 0.607276 0.631794
0.930241 0.830166 0.838451
0.266337 0.648429 0.393336
0.271988 0.646138 0.391662
0.610772 0.641870 0.323044
0.869290 0.642243 0.626695
0.930546 0.831647 0.838256
0.505635 0.861607 0.631767
0.508212 0.861733 0.631762
0.531993 0.863000 0.632012
0.867714 0.876863 0.554082
0.933580 0.847033 0.836116
0.767407 0.918131 0.811582
0.767576 0.918148 0.811599
0.768900 0.918277 0.811733
0.782389 0.919597 0.813031
0.936104 0.930055 0.778999
0.026130 0.061729 0.179642
0.215491 0.094059 0.200549
0.643218 0.272393 0.300782
0.863528 0.602481 0.636434
0.930196 0.829938 0.838654
0.072859 0.207178 0.198781
0.178821 0.192411 0.197010
0.638330 0.286904 0.294217
0.864099 0.606379 0.635760
0.930235 0.830126 0.838630
0.266529 0.645276 0.399084
0.271743 0.642893 0.397234
0.609819 0.638135 0.329392
0.869211 0.641256 0.630739
0.930541 0.831607 0.838435
0.505686 0.861675 0.633993
0.508250 0.861800 0.633994
0.531940 0.863063 0.634303
0.868070 0.877001 0.557435
0.933579 0.846994 0.836304
0.767399 0.918139 0.811691
0.767567 0.918155 0.811709
0.768891 0.918285 0.811843
0.782382 0.919606 0.813146
0.936131 0.930073 0.779184
0.177773 0.205254 0.557580
0.222762 0.205171 0.559503
0.635057 0.259208 0.592454
0.862397 0.595509 0.669298
0.930148 0.829622 0.840053
0.169512 0.221967 0.557284
0.206355 0.220072 0.558166
0.628692 0.265501 0.589526
0.862982 0.599298 0.668746
0.930187 0.829810 0.840029
0.300232 0.627532 0.604445
0.302494 0.624407 0.603467
0.623647 0.621501 0.619874
0.868325 0.633389 0.664676
0.930495 0.831291 0.839841
0.506837 0.862366 0.653225
0.509287 0.862484 0.653255
0.532154 0.863707 0.653894
0.871279 0.878393 0.587421
0.933565 0.846687 0.837777
0.767332 0.918200 0.812551
0.767501 0.918216 0.812569
0.768826 0.918346 0.812707
0.782330 0.919672 0.814050
0.936338 0.930216 0.780631
0.561846 0.517452 0.821758
0.569191 0.516943 0.821993
0.636701 0.513516 0.824191
0.846057 0.528082 0.832116
0.929534 0.826446 0.854212
0.559934 0.522779 0.822467
0.567226 0.522246 0.822697
0.634009 0.518603 0.824843
0.846433 0.530879 0.832503
0.929576 0.826633 0.854194
0.546566 0.569966 0.828975
0.553548 0.569302 0.829188
0.614928 0.564332 0.831053
0.849965 0.555755 0.836069
0.929902 0.828110 0.854054
0.497165 0.870264 0.855568
0.499033 0.870335 0.855720
0.516347 0.871093 0.857112
0.902743 0.893743 0.886916
0.933242 0.843549 0.852572
0.766854 0.918846 0.821324
0.767024 0.918863 0.821345
0.768360 0.918997 0.821518
0.781994 0.920369 0.823246
0.938421 0.931689 0.795432
0.854338 0.822225 0.911724
0.854689 0.822175 0.911725
0.857454 0.821777 0.911734
0.886026 0.817150 0.911521
0.919912 0.789928 0.906532
0.854239 0.822513 0.911776
0.854590 0.822463 0.911778
0.857354 0.822066 0.911788
0.885917 0.817446 0.911578
0.919946 0.790081 0.906563
0.853469 0.824770 0.912190
0.853819 0.824721 0.912192
0.856575 0.824329 0.912206
0.885062 0.819767 0.912029
0.920221 0.791291 0.906803
0.845825 0.847211 0.916153
0.846166 0.847169 0.916162
0.848854 0.846835 0.916227
0.876658 0.842901 0.916491
0.923105 0.803935 0.909333
0.745476 0.923579 0.915670
0.745670 0.923598 0.915690
0.747190 0.923752 0.915849
0.762818 0.925349 0.917502
0.955808 0.946014 0.938584
