color-grading/luts/03_combined_slog3/BNC_SLog3_L04_TealOrange.cube
TITLE "BNC SLog3 L04 TealOrange"
# BNC Grade v1.0 - S-Log3/S-Gamut3.Cine -> BNC Base -> Complementary teal shadows against warm orange skin tones -- the modern high-contrast blockbuster look.
# Input: S-Log3 / S-Gamut3.Cine | Output: Rec.709 Gamma 2.4
LUT_3D_SIZE 9
DOMAIN_MIN 0.0 0.0 0.0
DOMAIN_MAX 1.0 1.0 1.0
0.002711 0.002877 0.002908
0.036938 0.017416 0.015290
0.161226 0.088955 0.080122
0.415060 0.121006 0.106169
0.717417 0.128701 0.173208
0.891529 0.307584 0.364313
0.943083 0.573860 0.614253
0.960740 0.777601 0.786315
0.966252 0.887860 0.879136
0.004441 0.031579 0.026259
0.003855 0.020733 0.016732
0.137786 0.083185 0.075867
0.403286 0.125486 0.104076
0.714658 0.142456 0.168810
0.891750 0.313845 0.361896
0.943295 0.575967 0.613464
0.960724 0.778138 0.786259
0.966262 0.887940 0.879127
0.022748 0.182839 0.149259
0.021431 0.174069 0.142428
0.032246 0.179037 0.141404
0.386993 0.159171 0.102757
0.710500 0.166965 0.161626
0.892144 0.324280 0.358011
0.943631 0.579348 0.612203
0.960800 0.778848 0.786051
0.966240 0.888115 0.879171
0.078410 0.408019 0.308052
0.077382 0.403957 0.305430
0.075099 0.397829 0.301088
0.302688 0.402380 0.179319
0.704453 0.298284 0.127880
0.893782 0.361623 0.345291
0.944696 0.590260 0.608167
0.960909 0.781257 0.785551
0.966289 0.888510 0.879124
0.143274 0.679289 0.483663
0.143052 0.678279 0.482579
0.143501 0.676724 0.480759
0.151157 0.673231 0.472088
0.626707 0.661626 0.012447
0.913887 0.549675 0.247445
0.948058 0.627579 0.594520
0.961268 0.788816 0.783991
0.966330 0.889874 0.879157
0.165997 0.848780 0.594550
0.167232 0.848761 0.593981
0.168520 0.848765 0.592960
0.173379 0.848960 0.589198
0.203282 0.853579 0.561751
0.841826 0.825605 0.024425
0.953013 0.776784 0.538344
0.962312 0.813923 0.779300
0.966471 0.894071 0.879250
0.129110 0.911843 0.661228
0.133404 0.911955 0.660830
0.134739 0.912203 0.659911
0.139638 0.913013 0.656833
0.165432 0.915840 0.645026
0.468096 0.919922 0.614424
0.935183 0.895912 0.375156
0.962323 0.902665 0.774882
0.966887 0.906901 0.879662
0.572868 0.936854 0.770664
0.573461 0.936875 0.770599
0.574402 0.936907 0.770495
0.577360 0.937009 0.770164
0.586707 0.937315 0.769057
0.618035 0.938172 0.764746
0.747003 0.939200 0.735338
0.957356 0.935054 0.730254
0.966986 0.939895 0.884204
0.775973 0.947545 0.843672
0.776099 0.947547 0.843648
0.776299 0.947551 0.843611
0.776923 0.947562 0.843495
0.778867 0.947594 0.843129
0.785033 0.947685 0.841923
0.805610 0.947859 0.837358
0.881373 0.946862 0.803749
0.964573 0.948382 0.852221
0.000006 0.006049 0.011066
0.032241 0.013918 0.020536
0.157369 0.087881 0.081070
0.413096 0.120286 0.118969
0.716839 0.125889 0.188188
0.891388 0.306093 0.371801
0.943020 0.573339 0.616653
0.960731 0.777499 0.786798
0.966251 0.887845 0.879206
0.001959 0.016166 0.013665
0.007108 0.009011 0.009360
0.132637 0.081406 0.075364
0.401135 0.123853 0.114482
0.714048 0.139531 0.183682
0.891611 0.312325 0.369392
0.943233 0.575445 0.615870
0.960715 0.778036 0.786742
0.966261 0.887925 0.879196
0.020781 0.170923 0.139982
0.019394 0.161663 0.132737
0.028368 0.166103 0.132108
0.384103 0.151186 0.109222
0.709824 0.163645 0.176370
0.892009 0.322711 0.365522
0.943572 0.578824 0.614617
0.960791 0.778747 0.786534
0.966239 0.888100 0.879241
0.076264 0.402567 0.304879
0.074950 0.398473 0.302181
0.073859 0.392135 0.297803
0.300528 0.396394 0.177113
0.702690 0.292060 0.146667
0.893661 0.359871 0.352873
0.944644 0.589732 0.610610
0.960901 0.781156 0.786035
0.966289 0.888495 0.879194
0.139864 0.677930 0.483656
0.142022 0.676837 0.482755
0.142212 0.675256 0.480902
0.148521 0.671673 0.472180
0.626385 0.659749 0.013513
0.913631 0.547489 0.260056
0.948035 0.627050 0.597063
0.961323 0.788633 0.784391
0.966329 0.889859 0.879227
0.164870 0.848698 0.595710
0.166064 0.848678 0.595139
0.167279 0.848679 0.594117
0.171886 0.848867 0.590355
0.202718 0.853408 0.563363
0.841973 0.825260 0.028408
0.953172 0.776359 0.541019
0.962312 0.813830 0.779792
0.966471 0.894057 0.879321
0.127191 0.911915 0.662226
0.131534 0.912027 0.661832
0.132838 0.912275 0.660922
0.137651 0.913086 0.657872
0.163375 0.915918 0.646172
0.467866 0.920002 0.616077
0.935344 0.896125 0.378727
0.962354 0.902631 0.775314
0.966884 0.906894 0.879743
0.572913 0.936861 0.771002
0.573504 0.936882 0.770938
0.574444 0.936915 0.770835
0.577399 0.937017 0.770506
0.586733 0.937324 0.769408
0.618026 0.938186 0.765121
0.746980 0.939229 0.735820
0.957386 0.935089 0.730609
0.966991 0.939894 0.884272
0.775965 0.947549 0.843754
0.776091 0.947551 0.843731
0.776290 0.947554 0.843694
0.776915 0.947565 0.843578
0.778858 0.947598 0.843212
0.785023 0.947689 0.842009
0.805599 0.947864 0.837449
0.881371 0.946870 0.803869
0.964579 0.948389 0.852284
0.000055 0.056680 0.078466
0.000057 0.058738 0.082611
0.152010 0.077212 0.182775
0.410385 0.117778 0.176484
0.715934 0.121305 0.215674
0.891147 0.303715 0.384122
0.942917 0.572509 0.620477
0.960716 0.777337 0.787563
0.966249 0.887821 0.879317
0.000053 0.054137 0.075032
0.000052 0.053199 0.073835
0.125631 0.069764 0.171444
0.398176 0.120507 0.167414
0.713100 0.134822 0.210958
0.891374 0.309903 0.381711
0.943131 0.574613 0.619702
0.960700 0.777875 0.787507
0.966259 0.887901 0.879307
0.006637 0.154982 0.153606
0.006431 0.144748 0.146970
0.006305 0.145598 0.161963
0.380203 0.140380 0.153580
0.708785 0.158418 0.203362
0.891778 0.320214 0.377865
0.943473 0.577990 0.618464
0.960776 0.778585 0.787300
0.966238 0.888076 0.879351
0.068505 0.394322 0.302232
0.067981 0.390047 0.299285
0.067188 0.383359 0.294499
0.297915 0.386808 0.180977
0.700473 0.281932 0.176100
0.893454 0.357090 0.365334
0.944557 0.588892 0.614502
0.960887 0.780996 0.786802
0.966287 0.888471 0.879304
0.136548 0.675747 0.484414
0.138558 0.674630 0.483469
0.138341 0.673009 0.481559
0.144819 0.669213 0.472963
0.625931 0.656707 0.022382
0.913023 0.544218 0.280391
0.947995 0.626207 0.601116
0.961312 0.788475 0.785163
0.966328 0.889835 0.879338
0.162220 0.848601 0.597638
0.163356 0.848579 0.597065
0.164460 0.848577 0.596041
0.168689 0.848753 0.592283
0.199949 0.853202 0.565846
0.842733 0.825158 0.009322
0.953400 0.775713 0.545428
0.962312 0.813683 0.780573
0.966470 0.894034 0.879434
0.126801 0.912000 0.663933
0.126882 0.912161 0.663353
0.128162 0.912408 0.662456
0.136842 0.913173 0.659648
0.161880 0.916015 0.648125
0.467510 0.920128 0.618718
0.935617 0.896378 0.383017
0.962402 0.902579 0.775999
0.966881 0.906883 0.879872
0.572986 0.936873 0.771539
0.573576 0.936894 0.771475
0.574514 0.936927 0.771374
0.577462 0.937030 0.771049
0.586778 0.937339 0.769964
0.618013 0.938208 0.765718
0.746944 0.939275 0.736584
0.957422 0.935172 0.731534
0.966987 0.939905 0.884456
0.775952 0.947554 0.843886
0.776078 0.947557 0.843862
0.776278 0.947560 0.843826
0.776902 0.947571 0.843710
0.778844 0.947604 0.843345
0.785008 0.947696 0.842144
0.805582 0.947872 0.837594
0.881368 0.946883 0.804060
0.964574 0.948417 0.852608
0.005229 0.143679 0.204697
0.006582 0.144546 0.207803
0.000121 0.115829 0.362422
0.399292 0.091412 0.389594
0.712497 0.100957 0.352036
0.890175 0.296064 0.428683
0.942563 0.569882 0.632575
0.960666 0.776829 0.789965
0.966245 0.887745 0.879661
0.000139 0.142738 0.203136
0.000139 0.142800 0.203989
0.003080 0.147514 0.275361
0.386582 0.092811 0.385320
0.709604 0.115461 0.346963
0.890421 0.302133 0.426141
0.942784 0.571980 0.631829
0.960715 0.777277 0.789836
0.966255 0.887825 0.879652
0.005620 0.153624 0.218077
0.000147 0.150349 0.213785
0.006522 0.151303 0.229063
0.366691 0.100148 0.378788
0.705150 0.139289 0.338751
0.890855 0.312236 0.422084
0.943136 0.575349 0.630637
0.960728 0.778078 0.789703
0.966271 0.887951 0.879637
0.016571 0.376666 0.358922
0.010804 0.371856 0.357377
0.008893 0.364130 0.354871
0.321475 0.357004 0.363565
0.695505 0.250513 0.311621
0.892640 0.348302 0.409116
0.944255 0.586229 0.626824
0.960842 0.780492 0.789208
0.966283 0.888395 0.879650
0.111110 0.670262 0.497311
0.109419 0.669131 0.496028
0.110598 0.667310 0.494083
0.120503 0.662774 0.486169
0.628640 0.649404 0.179139
0.909503 0.535520 0.346264
0.947837 0.623529 0.613959
0.961277 0.787981 0.787583
0.966325 0.889761 0.879685
0.152929 0.848467 0.605133
0.153858 0.848437 0.604556
0.154561 0.848424 0.603531
0.160692 0.848501 0.600056
0.192195 0.852683 0.575500
0.845756 0.825124 0.013129
0.954138 0.773660 0.559425
0.962367 0.813147 0.782920
0.966504 0.893919 0.879720
0.113598 0.912400 0.668818
0.113476 0.912561 0.668265
0.114624 0.912810 0.667411
0.123624 0.913579 0.664743
0.152217 0.916399 0.653968
0.466480 0.920529 0.627123
0.936500 0.897214 0.396736
0.962514 0.902459 0.778396
0.966894 0.906819 0.880214
0.573235 0.936909 0.773216
0.573821 0.936930 0.773156
0.574752 0.936964 0.773059
0.577680 0.937068 0.772747
0.586937 0.937385 0.771703
0.617987 0.938277 0.767585
0.746831 0.939418 0.738979
0.957561 0.935375 0.733666
0.967016 0.939902 0.884788
0.775913 0.947573 0.844296
0.776039 0.947575 0.844273
0.776238 0.947578 0.844236
0.776862 0.947590 0.844121
0.778802 0.947623 0.843759
0.784959 0.947717 0.842566
0.805527 0.947897 0.838045
0.881360 0.946924 0.804656
0.964602 0.948450 0.852919
0.009974 0.265558 0.416192
0.009365 0.265405 0.425314
0.009054 0.263391 0.454021
0.354195 0.037878 0.678546
0.688142 0.016571 0.640006
0.883073 0.266518 0.612755
0.941152 0.561375 0.671341
0.960558 0.775134 0.797448
0.966231 0.887509 0.880720
0.009459 0.267003 0.415799
0.008551 0.266833 0.423361
0.006051 0.265511 0.446745
0.336199 0.069143 0.679276
0.685913 0.021120 0.639643
0.883346 0.272371 0.611071
0.941390 0.563453 0.670697
0.960544 0.775675 0.797387
0.966241 0.887589 0.880712
0.012055 0.271000 0.418401
0.005392 0.270628 0.423851
0.012901 0.269655 0.440440
0.303829 0.105156 0.680065
0.682967 0.019237 0.639713
0.883834 0.282074 0.608378
0.941770 0.566790 0.669669
0.960624 0.776388 0.797190
0.966257 0.887716 0.880698
0.014528 0.324050 0.482465
0.009852 0.320899 0.480922
0.009964 0.316298 0.481558
0.121854 0.243111 0.668610
0.671333 0.139703 0.637688
0.885879 0.316404 0.599749
0.942987 0.577581 0.666381
0.960746 0.778811 0.796702
0.966270 0.888161 0.880712
0.039511 0.662906 0.624193
0.044838 0.661416 0.624032
0.056027 0.659042 0.623785
0.117333 0.651694 0.623225
0.660677 0.644862 0.634806
0.902890 0.496183 0.568989
0.946988 0.614762 0.655327
0.961208 0.786333 0.795112
0.966313 0.889531 0.880751
0.010483 0.851816 0.652322
0.038676 0.851667 0.651927
0.034593 0.851662 0.651179
0.033803 0.851683 0.648550
0.102042 0.855339 0.633859
0.860162 0.830698 0.344745
0.956306 0.767191 0.606270
0.962399 0.811610 0.790536
0.966497 0.893701 0.880802
0.044458 0.913824 0.685200
0.041174 0.913986 0.684734
0.057088 0.914190 0.684182
0.069906 0.914967 0.681947
0.164318 0.917141 0.675678
0.464352 0.921818 0.654813
0.939499 0.900281 0.442863
0.962950 0.901972 0.785379
0.966923 0.906631 0.881295
0.574216 0.937009 0.778427
0.574789 0.937032 0.778375
0.575699 0.937068 0.778292
0.578562 0.937179 0.778025
0.587621 0.937516 0.777117
0.618060 0.938481 0.773416
0.746485 0.939868 0.746478
0.957999 0.936010 0.740330
0.967078 0.939915 0.885965
0.775800 0.947628 0.845566
0.775926 0.947630 0.845544
0.776124 0.947634 0.845508
0.776745 0.947646 0.845396
0.778677 0.947681 0.845042
0.784814 0.947780 0.843876
0.805359 0.947976 0.839442
0.881335 0.947051 0.806508
0.964675 0.948571 0.854108
0.011630 0.342129 0.780352
0.014335 0.325193 0.809941
0.072191 0.273782 0.888257
0.284649 0.250732 0.895961
0.671118 0.169399 0.862588
0.871116 0.174251 0.847432
0.933203 0.530486 0.805741
0.959878 0.769711 0.821763
0.966217 0.886710 0.883907
0.013159 0.349691 0.772011
0.016256 0.336157 0.797574
0.006464 0.289001 0.872834
0.272637 0.258314 0.895264
0.666905 0.177019 0.862475
0.870835 0.179278 0.847157
0.933462 0.532454 0.805422
0.959933 0.770162 0.821660
0.966227 0.886791 0.883900
0.016699 0.360437 0.761416
0.013455 0.350321 0.782462
0.012743 0.321102 0.832348
0.252825 0.270606 0.893931
0.660047 0.189214 0.862272
0.870384 0.187451 0.846707
0.933878 0.535619 0.804914
0.960020 0.770880 0.821497
0.966243 0.886919 0.883888
0.015345 0.390259 0.743537
0.002309 0.385318 0.755964
0.008917 0.374216 0.781514
0.179586 0.312626 0.888041
0.638673 0.231737 0.863106
0.868937 0.215117 0.845142
0.935230 0.545877 0.803298
0.960166 0.773328 0.821062
0.966257 0.887368 0.883906
0.013554 0.549948 0.796747
0.015093 0.547665 0.797696
0.016472 0.544022 0.800018
0.026635 0.531085 0.816239
0.539097 0.453543 0.882928
0.870242 0.343927 0.842890
0.939939 0.581614 0.797965
0.960709 0.780931 0.819668
0.966305 0.888750 0.883957
0.248174 0.854840 0.808137
0.249868 0.854636 0.808198
0.252755 0.854316 0.808300
0.263724 0.853347 0.808662
0.332853 0.851243 0.810679
0.901023 0.853519 0.823004
0.958503 0.739361 0.774616
0.962211 0.806536 0.815571
0.966503 0.892962 0.884051
0.292276 0.915756 0.752713
0.294136 0.915823 0.752832
0.297135 0.915934 0.753025
0.306925 0.916303 0.753676
0.341480 0.917726 0.756138
0.495958 0.925408 0.764272
0.951716 0.915866 0.629750
0.964229 0.900464 0.809172
0.966973 0.906062 0.884680
0.579633 0.937219 0.794694
0.580160 0.937245 0.794674
0.580996 0.937287 0.794643
0.583628 0.937418 0.794537
0.591978 0.937821 0.794130
0.620136 0.939021 0.791995
0.745431 0.941312 0.770719
0.959415 0.938204 0.763351
0.967255 0.939958 0.889667
0.775527 0.947795 0.849538
0.775651 0.947797 0.849518
0.775846 0.947802 0.849485
0.776458 0.947815 0.849382
0.778363 0.947856 0.849056
0.784425 0.947972 0.847976
0.804860 0.948217 0.843823
0.881279 0.947449 0.812349
0.964892 0.948966 0.858014
0.528571 0.495843 0.928185
0.534691 0.494587 0.927911
0.544390 0.492591 0.927404
0.575041 0.486299 0.925225
0.669610 0.467715 0.914268
0.876002 0.420220 0.893257
0.917612 0.446399 0.889588
0.956418 0.749483 0.888492
0.966086 0.884037 0.893491
0.525877 0.499294 0.928334
0.532033 0.498033 0.928084
0.541758 0.496031 0.927615
0.572503 0.489714 0.925550
0.667596 0.470943 0.914709
0.876003 0.423152 0.893410
0.917803 0.448089 0.889651
0.956413 0.750041 0.888456
0.966097 0.884120 0.893489
0.521552 0.504829 0.928533
0.527764 0.503561 0.928322
0.537549 0.501551 0.927917
0.568436 0.495196 0.926039
0.664357 0.476137 0.915423
0.876008 0.427859 0.893656
0.918111 0.450799 0.889753
0.956509 0.750739 0.888452
0.966078 0.884303 0.893524
0.507632 0.522639 0.928828
0.513997 0.521361 0.928755
0.524040 0.519327 0.928561
0.555354 0.512893 0.927330
0.653824 0.492998 0.917747
0.876063 0.443079 0.894461
0.919115 0.459530 0.890085
0.956682 0.753172 0.888374
0.966133 0.884710 0.893512
0.462605 0.581736 0.925509
0.469040 0.580573 0.925939
0.479310 0.578688 0.926553
0.511805 0.572496 0.927868
0.616347 0.551269 0.924759
0.871074 0.495796 0.897940
0.922656 0.489240 0.891260
0.957321 0.760720 0.888195
0.966191 0.886127 0.893593
0.483931 0.774564 0.907569
0.486604 0.774271 0.907384
0.490887 0.773828 0.907080
0.504610 0.772619 0.906055
0.550017 0.770339 0.903566
0.838835 0.719322 0.914471
0.939535 0.619247 0.897075
0.959401 0.786270 0.887798
0.966392 0.890504 0.893850
0.390088 0.918555 0.883672
0.391385 0.918591 0.883727
0.393472 0.918651 0.883816
0.400272 0.918851 0.884106
0.424362 0.919616 0.885151
0.554310 0.924999 0.891415
0.968165 0.936949 0.908897
0.966454 0.891159 0.891442
0.967013 0.904093 0.894855
0.627860 0.937005 0.840931
0.628287 0.937035 0.841024
0.628965 0.937083 0.841173
0.631092 0.937235 0.841639
0.637770 0.937715 0.843109
0.659490 0.939324 0.847834
0.750671 0.945512 0.857829
0.964781 0.947073 0.854033
0.967796 0.939975 0.900829
0.775648 0.948242 0.862176
0.775763 0.948246 0.862162
0.775946 0.948252 0.862141
0.776517 0.948272 0.862073
0.778301 0.948333 0.861856
0.784007 0.948511 0.861107
0.803664 0.948948 0.857964
0.881308 0.948718 0.831622
0.965584 0.950265 0.870812
0.819474 0.729972 0.926096
0.820495 0.729752 0.925988
0.822105 0.729406 0.925822
0.827056 0.728347 0.925342
0.841881 0.725202 0.924210
0.889689 0.714183 0.920102
0.946752 0.676561 0.911123
0.950222 0.689940 0.906814
0.965042 0.873575 0.917170
0.819156 0.730746 0.926182
0.820182 0.730525 0.926073
0.821797 0.730177 0.925904
0.826766 0.729112 0.925415
0.841614 0.725961 0.924271
0.889426 0.714951 0.920176
0.946829 0.677273 0.911164
0.950272 0.690312 0.906841
0.965055 0.873659 0.917180
0.818649 0.731976 0.926320
0.819680 0.731753 0.926208
0.821304 0.731402 0.926036
0.826302 0.730329 0.925535
0.841191 0.727166 0.924368
0.889009 0.716171 0.920292
0.946950 0.678405 0.911228
0.950353 0.690905 0.906885
0.965036 0.873855 0.917199
0.817022 0.735855 0.926768
0.818072 0.735626 0.926650
0.819727 0.735266 0.926466
0.824817 0.734164 0.925927
0.839876 0.730952 0.924669
0.887699 0.720004 0.920657
0.947332 0.681964 0.911432
0.950530 0.692926 0.906953
0.965098 0.874271 0.917248
0.811534 0.748250 0.928295
0.812650 0.748000 0.928162
0.814408 0.747608 0.927953
0.819816 0.746408 0.927318
0.835746 0.742934 0.925658
0.883608 0.732110 0.921794
0.948531 0.693237 0.912083
0.951109 0.699316 0.907193
0.965175 0.875747 0.917412
0.788665 0.791240 0.932931
0.789986 0.790925 0.932869
0.792078 0.790427 0.932760
0.798592 0.788879 0.932349
0.818273 0.784252 0.930536
0.870777 0.772354 0.925372
0.952436 0.731092 0.914345
0.952989 0.721177 0.908037
0.965477 0.880287 0.917942
0.750526 0.911319 0.923640
0.751412 0.911301 0.923706
0.752819 0.911271 0.923811
0.757251 0.911178 0.924141
0.771322 0.910892 0.925185
0.818988 0.909960 0.928652
0.960989 0.883615 0.925672
0.960661 0.814396 0.914020
0.966414 0.894986 0.919877
0.605407 0.936897 0.907600
0.605933 0.936923 0.907629
0.606769 0.936963 0.907675
0.609400 0.937089 0.907821
0.617746 0.937494 0.908286
0.645808 0.938877 0.909888
0.757054 0.944620 0.916720
0.969799 0.956685 0.946248
0.968778 0.938094 0.929126
0.791597 0.948486 0.896372
0.791685 0.948493 0.896393
0.791825 0.948504 0.896426
0.792262 0.948538 0.896529
0.793621 0.948644 0.896847
0.797917 0.948978 0.897810
0.812392 0.950067 0.900454
0.881625 0.952718 0.896988
0.968105 0.955278 0.917260
0.947612 0.875122 0.929370
0.947707 0.875072 0.929353
0.947857 0.874992 0.929327
0.948321 0.874743 0.929246
0.949723 0.873967 0.928994
0.953766 0.871513 0.928212
0.963569 0.863250 0.925823
0.962849 0.845053 0.919479
0.962201 0.835515 0.917844
0.947588 0.875281 0.929387
0.947682 0.875230 0.929370
0.947832 0.875151 0.929344
0.948297 0.874901 0.929263
0.949700 0.874126 0.929011
0.953747 0.871673 0.928229
0.963561 0.863413 0.925839
0.962869 0.845204 0.919502
0.962212 0.835592 0.917856
0.947549 0.875532 0.929414
0.947644 0.875482 0.929397
0.947794 0.875402 0.929371
0.948259 0.875153 0.929290
0.949664 0.874378 0.929038
0.953717 0.871926 0.928255
0.963547 0.863672 0.925864
0.962901 0.845442 0.919536
0.962185 0.835795 0.917857
0.947427 0.876316 0.929498
0.947523 0.876266 0.929482
0.947674 0.876186 0.929456
0.948141 0.875938 0.929374
0.949552 0.875164 0.929123
0.953623 0.872717 0.928339
0.963506 0.864478 0.925943
0.962959 0.846260 0.919632
0.962240 0.836176 0.917913
0.947045 0.878733 0.929759
0.947142 0.878683 0.929742
0.947294 0.878604 0.929716
0.947767 0.878357 0.929635
0.949197 0.877588 0.929383
0.953325 0.875155 0.928598
0.963372 0.866965 0.926189
0.963142 0.848785 0.919935
0.962321 0.837522 0.918056
0.945784 0.886170 0.930570
0.945885 0.886121 0.930554
0.946044 0.886044 0.930528
0.946536 0.885803 0.930447
0.948024 0.885051 0.930195
0.952332 0.882668 0.929405
0.962903 0.874645 0.926957
0.963701 0.856685 0.920915
0.962642 0.841659 0.918541
0.940983 0.908332 0.933136
0.941097 0.908289 0.933120
0.941275 0.908222 0.933095
0.941830 0.908010 0.933016
0.943512 0.907348 0.932767
0.948421 0.905225 0.931973
0.960791 0.897973 0.929412
0.965368 0.881571 0.924430
0.963647 0.855542 0.920267
0.895700 0.946786 0.932623
0.895893 0.946791 0.932655
0.896199 0.946800 0.932706
0.897151 0.946827 0.932868
0.900072 0.946914 0.933387
0.908828 0.947204 0.935172
0.933960 0.948091 0.939069
0.969161 0.943287 0.939263
0.967134 0.909092 0.929412
0.778664 0.947780 0.920887
0.778778 0.947786 0.920894
0.778958 0.947795 0.920906
0.779521 0.947824 0.920942
0.781268 0.947915 0.921054
0.786758 0.948199 0.921415
0.804947 0.949131 0.922753
0.875999 0.952837 0.931854
0.970175 0.960545 0.953217
