color-grading/luts/03_combined_slog3/BNC_SLog3_L05_Chrome.cube
TITLE "BNC SLog3 L05 Chrome"
# BNC Grade v1.0 - S-Log3/S-Gamut3.Cine -> BNC Base -> Muted, cross-processed 'chrome' look: rotated primaries, reduced saturation and cool highlights.
# Input: S-Log3 / S-Gamut3.Cine | Output: Rec.709 Gamma 2.4
LUT_3D_SIZE 33
DOMAIN_MIN 0.0 0.0 0.0
DOMAIN_MAX 1.0 1.0 1.0
0.001307 0.001311 0.001316
0.001307 0.001311 0.001316
0.001534 0.001338 0.001325
0.007168 0.003143 0.002108
0.023047 0.010042 0.007118
0.047137 0.021782 0.017919
0.076378 0.036971 0.033080
0.114149 0.055376 0.049848
0.160222 0.074382 0.061908
0.211574 0.094766 0.073414
0.266181 0.115777 0.084054
0.325098 0.137660 0.093888
0.389307 0.160215 0.102933
0.458886 0.186032 0.116346
0.525534 0.212841 0.135187
0.590345 0.241937 0.162108
0.652186 0.273969 0.196922
0.710557 0.309254 0.239295
0.764254 0.347453 0.286260
0.791890 0.381972 0.337393
0.814943 0.419672 0.393497
0.837029 0.461284 0.454191
0.859469 0.509795 0.520013
0.879882 0.566495 0.582913
0.898012 0.620437 0.642021
0.913151 0.673875 0.695987
0.924978 0.722449 0.742498
0.934326 0.764887 0.783449
0.941642 0.802672 0.818876
0.947326 0.835578 0.849620
0.951794 0.864694 0.874319
0.955055 0.887639 0.892736
0.957358 0.904630 0.906116
0.001307 0.001311 0.001316
0.001307 0.001311 0.001316
0.001307 0.001311 0.001316
0.004421 0.002118 0.001613
0.016382 0.007032 0.004676
0.039280 0.017800 0.014113
0.069021 0.033150 0.029246
0.107520 0.052377 0.047460
0.154354 0.072014 0.060491
0.206846 0.092922 0.072417
0.262402 0.114362 0.083364
0.322025 0.136596 0.093403
0.386677 0.159502 0.102549
0.456973 0.185630 0.115664
0.524277 0.212845 0.134356
0.589497 0.242301 0.161190
0.651665 0.274625 0.196041
0.710224 0.310122 0.238528
0.764076 0.348450 0.285665
0.791856 0.383071 0.336928
0.814877 0.420862 0.393178
0.836911 0.462466 0.453949
0.859338 0.510949 0.519851
0.879786 0.567393 0.582798
0.897957 0.621083 0.641923
0.913130 0.674330 0.695916
0.924972 0.722747 0.742445
0.934330 0.765086 0.783411
0.941650 0.802803 0.818851
0.947334 0.835664 0.849606
0.951801 0.864750 0.874312
0.955058 0.887673 0.892732
0.957361 0.904650 0.906114
0.001307 0.001311 0.001316
0.001307 0.001311 0.001316
0.001307 0.001311 0.001316
0.002617 0.001564 0.001403
0.011201 0.004803 0.003107
0.031371 0.013959 0.010539
0.061664 0.029315 0.025382
0.100945 0.049288 0.044808
0.148493 0.069641 0.059053
0.202099 0.091069 0.071404
0.258637 0.112954 0.082668
0.318960 0.135543 0.092912
0.384076 0.158821 0.102160
0.455067 0.185305 0.115015
0.523037 0.212929 0.133555
0.588664 0.242737 0.160290
0.651157 0.275332 0.195168
0.709903 0.311026 0.237764
0.763906 0.349466 0.285070
0.791831 0.384182 0.336462
0.814818 0.422058 0.392858
0.836796 0.463652 0.453707
0.859209 0.512108 0.519691
0.879689 0.568292 0.582686
0.897901 0.621732 0.641826
0.913107 0.674787 0.695846
0.924966 0.723045 0.742392
0.934334 0.765286 0.783374
0.941657 0.802934 0.818825
0.947342 0.835750 0.849592
0.951807 0.864806 0.874305
0.955062 0.887706 0.892728
0.957363 0.904670 0.906112
0.003339 0.004983 0.002184
0.002825 0.004131 0.001910
0.002384 0.003386 0.001700
0.002236 0.002798 0.001583
0.008006 0.003832 0.002388
0.024464 0.010754 0.007670
0.054675 0.025692 0.021745
0.094575 0.046205 0.042007
0.142759 0.067317 0.057623
0.197391 0.089234 0.070385
0.254914 0.111573 0.081971
0.315919 0.134521 0.092415
0.381518 0.158199 0.101762
0.453175 0.185077 0.114402
0.521817 0.213110 0.132785
0.587850 0.243252 0.159409
0.650663 0.276094 0.194305
0.709597 0.311969 0.237004
0.763745 0.350503 0.284474
0.791815 0.385306 0.335995
0.814765 0.423259 0.392537
0.836685 0.464842 0.453467
0.859079 0.513270 0.519534
0.879590 0.569194 0.582575
0.897843 0.622383 0.641729
0.913083 0.675245 0.695776
0.924960 0.723345 0.742339
0.934338 0.765487 0.783337
0.941665 0.803065 0.818800
0.947351 0.835837 0.849577
0.951813 0.864863 0.874298
0.955066 0.887740 0.892725
0.957365 0.904690 0.906110
0.010460 0.017725 0.008245
0.009295 0.015439 0.006987
0.008213 0.013399 0.005913
0.007223 0.011578 0.005002
0.007951 0.010372 0.004695
0.020548 0.011580 0.007427
0.049804 0.023638 0.019286
0.089152 0.043596 0.039476
0.137463 0.065195 0.056280
0.192832 0.087480 0.069382
0.251282 0.110259 0.081278
0.312930 0.133567 0.091912
0.379028 0.157677 0.101349
0.451305 0.184972 0.113832
0.520623 0.213404 0.132052
0.587057 0.243855 0.158549
0.650186 0.276915 0.193453
0.709304 0.312951 0.236247
0.763594 0.351562 0.283879
0.791808 0.386443 0.335528
0.814719 0.424466 0.392215
0.836578 0.466037 0.453229
0.858950 0.514435 0.519378
0.879491 0.570098 0.582467
0.897784 0.623037 0.641635
0.913058 0.675704 0.695707
0.924952 0.723645 0.742287
0.934341 0.765688 0.783299
0.941672 0.803197 0.818775
0.947359 0.835923 0.849563
0.951819 0.864919 0.874291
0.955070 0.887774 0.892721
0.957368 0.904710 0.906108
0.020208 0.042614 0.024319
0.019094 0.039091 0.021884
0.017930 0.035618 0.019512
0.016733 0.032255 0.017255
0.015742 0.029299 0.015329
0.019250 0.027336 0.014864
0.045923 0.029214 0.021932
0.085684 0.043981 0.038372
0.133582 0.064068 0.055244
0.188690 0.086029 0.068442
0.247820 0.109111 0.080592
0.310049 0.132767 0.091396
0.376641 0.157315 0.100912
0.449469 0.185027 0.113312
0.519462 0.213834 0.131361
0.586289 0.244557 0.157713
0.649726 0.277801 0.192613
0.709027 0.313975 0.235494
0.763452 0.352642 0.283285
0.791810 0.387593 0.335059
0.814681 0.425678 0.391893
0.836475 0.467238 0.452991
0.858822 0.515603 0.519225
0.879391 0.571004 0.582360
0.897723 0.623693 0.641541
0.913032 0.676165 0.695639
0.924944 0.723946 0.742234
0.934344 0.765889 0.783262
0.941679 0.803329 0.818749
0.947367 0.836010 0.849549
0.951825 0.864975 0.874284
0.955074 0.887808 0.892717
0.957370 0.904730 0.906106
0.031627 0.076362 0.046504
0.030129 0.073096 0.044630
0.028768 0.069806 0.042649
0.027533 0.066513 0.040586
0.026440 0.063294 0.038505
0.026391 0.060618 0.036813
0.039389 0.058923 0.037972
0.082369 0.060632 0.047333
0.130970 0.071126 0.056892
0.185744 0.087401 0.067635
0.244195 0.108596 0.079735
0.306783 0.132301 0.090702
0.373879 0.157228 0.100306
0.447239 0.185392 0.112748
0.518066 0.214604 0.130563
0.585369 0.245594 0.156706
0.649180 0.279012 0.191581
0.708704 0.315318 0.234559
0.763290 0.354025 0.282541
0.791825 0.389052 0.334472
0.814643 0.427202 0.391487
0.836353 0.468748 0.452695
0.858663 0.517069 0.519036
0.879264 0.572140 0.582229
0.897646 0.624517 0.641426
0.912998 0.676744 0.695554
0.924933 0.724324 0.742169
0.934348 0.766142 0.783216
0.941688 0.803494 0.818717
0.947378 0.836118 0.849530
0.951833 0.865046 0.874276
0.955078 0.887850 0.892712
0.957373 0.904755 0.906103
0.059595 0.118552 0.063847
0.057651 0.115735 0.062824
0.055691 0.112894 0.061782
0.053720 0.110037 0.060725
0.051757 0.107187 0.059660
0.049906 0.104440 0.058628
0.050927 0.101642 0.057824
0.075651 0.100828 0.061854
0.128744 0.101548 0.068682
0.185205 0.106498 0.075496
0.242596 0.118215 0.081473
0.303619 0.134888 0.090024
0.370461 0.158663 0.099871
0.444327 0.186761 0.112194
0.516253 0.216238 0.129600
0.584171 0.247392 0.155379
0.648475 0.280926 0.190175
0.708296 0.317329 0.233262
0.763091 0.356028 0.281500
0.791874 0.391135 0.333646
0.814610 0.429355 0.390915
0.836195 0.470879 0.452282
0.858444 0.519132 0.518777
0.879085 0.573738 0.582050
0.897534 0.625678 0.641268
0.912947 0.677560 0.695437
0.924917 0.724856 0.742079
0.934352 0.766498 0.783150
0.941699 0.803726 0.818673
0.947392 0.836271 0.849505
0.951844 0.865145 0.874263
0.955085 0.887910 0.892705
0.957377 0.904790 0.906099
0.092340 0.165908 0.079701
0.090712 0.163561 0.078972
0.089073 0.161199 0.078232
0.087427 0.158824 0.077483
0.085781 0.156444 0.076727
0.084156 0.154080 0.075970
0.082378 0.151267 0.075078
0.090415 0.148524 0.075322
0.123096 0.149098 0.082628
0.182161 0.149170 0.089073
0.245371 0.148729 0.096231
0.303980 0.155727 0.097086
0.367753 0.167346 0.101667
0.441216 0.191289 0.112219
0.514238 0.219788 0.128720
0.582797 0.250533 0.153817
0.647674 0.283907 0.188405
0.707851 0.320241 0.231576
0.762882 0.358800 0.280124
0.791990 0.393965 0.332546
0.814607 0.432233 0.390148
0.836012 0.473725 0.451737
0.858160 0.521878 0.518442
0.878846 0.575861 0.581821
0.897379 0.627228 0.641064
0.912876 0.678648 0.695285
0.924892 0.725566 0.741960
0.934355 0.766972 0.783064
0.941714 0.804036 0.818613
0.947410 0.836474 0.849470
0.951858 0.865276 0.874246
0.955094 0.887989 0.892695
0.957382 0.904837 0.906094
0.128452 0.217590 0.094388
0.127122 0.215696 0.093894
0.125785 0.213790 0.093393
0.124440 0.211871 0.092887
0.123091 0.209944 0.092375
0.121745 0.208013 0.091859
0.120095 0.205612 0.091214
0.118928 0.202477 0.090479
0.137125 0.200371 0.092669
0.176263 0.202157 0.103011
0.240447 0.201563 0.108921
0.309402 0.196628 0.115207
0.371398 0.199391 0.115420
0.440091 0.206919 0.115826
0.512695 0.228274 0.128776
0.581511 0.256463 0.152260
0.646911 0.288811 0.186282
0.707453 0.324595 0.229417
0.762714 0.362697 0.278307
0.792240 0.397847 0.331080
0.814678 0.436094 0.389114
0.835820 0.477532 0.451014
0.857802 0.525531 0.518010
0.878526 0.578684 0.581532
0.897164 0.629298 0.640806
0.912772 0.680101 0.695089
0.924853 0.726515 0.741805
0.934357 0.767605 0.782950
0.941732 0.804448 0.818534
0.947434 0.836744 0.849424
0.951876 0.865451 0.874224
0.955105 0.888093 0.892682
0.957389 0.904898 0.906087
0.166583 0.271631 0.107156
0.165545 0.270164 0.106841
0.164502 0.268687 0.106523
0.163453 0.267202 0.106201
0.162401 0.265709 0.105875
0.161348 0.264210 0.105547
0.160040 0.262331 0.105135
0.158330 0.259717 0.104571
0.160863 0.256786 0.104509
0.189746 0.255839 0.109412
0.234449 0.258954 0.122547
0.301738 0.257902 0.127764
0.376809 0.251064 0.133324
0.446873 0.248810 0.136236
0.514689 0.251535 0.134683
0.581372 0.269120 0.151975
0.646628 0.297488 0.184105
0.707335 0.331386 0.226762
0.762710 0.368316 0.275928
0.792762 0.403244 0.329119
0.814917 0.441294 0.387705
0.835671 0.482633 0.450046
0.857371 0.530387 0.517452
0.878105 0.582435 0.581171
0.896864 0.632068 0.640483
0.912621 0.682046 0.694839
0.924794 0.727784 0.741604
0.934355 0.768451 0.782800
0.941754 0.804999 0.818429
0.947465 0.837104 0.849362
0.951900 0.865684 0.874193
0.955120 0.888232 0.892665
0.957398 0.904980 0.906078
0.207172 0.328917 0.118207
0.206319 0.327710 0.117995
0.205464 0.326498 0.117782
0.204607 0.325283 0.117568
0.203750 0.324064 0.117353
0.202894 0.322843 0.117137
0.201831 0.321313 0.116866
0.200390 0.319170 0.116492
0.199021 0.316393 0.116072
0.208172 0.313807 0.117224
0.246672 0.314063 0.125459
0.295456 0.317987 0.140810
0.368176 0.316572 0.145727
0.450279 0.308637 0.151710
0.525771 0.301894 0.159289
0.586254 0.299850 0.160330
0.648209 0.314387 0.183570
0.708100 0.342619 0.223907
0.763181 0.376786 0.272910
0.793833 0.410901 0.326506
0.815523 0.448338 0.385756
0.835692 0.489472 0.448720
0.856903 0.536823 0.516722
0.877563 0.587406 0.580726
0.896443 0.635782 0.640090
0.912396 0.684655 0.694527
0.924699 0.729488 0.741346
0.934342 0.769586 0.782604
0.941778 0.805735 0.818289
0.947504 0.837584 0.849278
0.951931 0.865993 0.874152
0.955140 0.888417 0.892642
0.957410 0.905089 0.906065
0.250542 0.390404 0.127991
0.249864 0.389431 0.127842
0.249187 0.388457 0.127694
0.248512 0.387483 0.127545
0.247839 0.386509 0.127398
0.247170 0.385535 0.127250
0.246344 0.384317 0.127068
0.245225 0.382614 0.126819
0.243948 0.380378 0.126521
0.244008 0.377579 0.126408
0.262002 0.375687 0.129449
0.308295 0.377207 0.141505
0.361078 0.381813 0.159047
0.439739 0.380018 0.164116
0.528047 0.370495 0.172251
0.600451 0.357547 0.185206
0.656084 0.351259 0.193985
0.711386 0.363025 0.222914
0.764958 0.390654 0.269578
0.796038 0.422119 0.323108
0.816904 0.457983 0.383015
0.836184 0.498642 0.446830
0.856533 0.545296 0.515714
0.876911 0.593959 0.580173
0.895861 0.640760 0.639627
0.912058 0.688164 0.694150
0.924547 0.731783 0.741020
0.934310 0.771112 0.782348
0.941802 0.806724 0.818103
0.947552 0.838228 0.849165
0.951971 0.866406 0.874095
0.955165 0.888663 0.892610
0.957426 0.905233 0.906048
0.297395 0.457993 0.138050
0.296859 0.457192 0.137909
0.296325 0.456390 0.137770
0.295793 0.455587 0.137631
0.295264 0.454781 0.137495
0.294739 0.453975 0.137360
0.294094 0.452964 0.137195
0.293224 0.451544 0.136971
0.292209 0.449668 0.136704
0.291459 0.447223 0.136463
0.293713 0.444270 0.136746
0.321155 0.442944 0.142268
0.372820 0.445108 0.158174
0.430508 0.450127 0.178409
0.516898 0.447844 0.184705
0.601270 0.436516 0.196425
0.673787 0.419062 0.215783
0.722816 0.407477 0.235694
0.770085 0.415717 0.268758
0.800600 0.439471 0.319321
0.819889 0.471475 0.379203
0.837821 0.510938 0.443989
0.856645 0.556296 0.514172
0.876254 0.602491 0.579441
0.895087 0.647415 0.639102
0.911553 0.692885 0.693714
0.924300 0.734886 0.740622
0.934238 0.773177 0.782020
0.941819 0.808058 0.817857
0.947609 0.839093 0.849012
0.952020 0.866958 0.874016
0.955198 0.888991 0.892566
0.957446 0.905425 0.906024
0.343957 0.526860 0.149803
0.343602 0.526287 0.149663
0.343251 0.525711 0.149524
0.342905 0.525135 0.149388
0.342566 0.524557 0.149254
0.342235 0.523978 0.149122
0.341837 0.523253 0.148961
0.341317 0.522235 0.148746
0.340733 0.520888 0.148484
0.340248 0.519116 0.148201
0.340619 0.516842 0.148038
0.346531 0.514320 0.148942
0.383783 0.514367 0.157352
0.441663 0.518126 0.177333
0.506245 0.524623 0.200214
0.590820 0.522072 0.208226
0.671817 0.509369 0.225827
0.739452 0.487684 0.252116
0.784228 0.466677 0.283296
0.810153 0.469016 0.319039
0.826325 0.492151 0.374935
0.841943 0.527582 0.439723
0.858157 0.570264 0.511493
0.875961 0.613405 0.578305
0.894178 0.656217 0.638499
0.910822 0.699219 0.693245
0.923898 0.739093 0.740158
0.934092 0.775981 0.781612
0.941813 0.809865 0.817534
0.947673 0.840262 0.848802
0.952081 0.867698 0.873906
0.955239 0.889428 0.892504
0.957472 0.905680 0.905991
0.385644 0.589908 0.163929
0.385445 0.589511 0.163788
0.385254 0.589113 0.163649
0.385069 0.588715 0.163512
0.384893 0.588316 0.163377
0.384725 0.587918 0.163245
0.384531 0.587419 0.163083
0.384290 0.586721 0.162864
0.384043 0.585797 0.162591
0.383890 0.584582 0.162271
0.384196 0.583005 0.161959
0.386367 0.581056 0.161930
0.396908 0.579187 0.163595
0.443612 0.580683 0.174864
0.509183 0.586438 0.199096
0.578960 0.594079 0.221916
0.658317 0.591476 0.231688
0.734295 0.579639 0.257001
0.797064 0.558607 0.292011
0.832857 0.529442 0.333943
0.839721 0.527497 0.376570
0.850591 0.551179 0.435298
0.862741 0.587710 0.506844
0.877055 0.627173 0.576158
0.893518 0.667562 0.637630
0.909871 0.707613 0.692762
0.923267 0.744793 0.739663
0.933810 0.779810 0.781126
0.941756 0.812332 0.817121
0.947734 0.841851 0.848517
0.952152 0.868695 0.873753
0.955289 0.890014 0.892418
0.957505 0.906021 0.905945
0.424122 0.647574 0.180142
0.424042 0.647307 0.179999
0.423968 0.647040 0.179857
0.423900 0.646772 0.179717
0.423840 0.646505 0.179578
0.423788 0.646238 0.179442
0.423735 0.645904 0.179275
0.423690 0.645437 0.179047
0.423689 0.644820 0.178758
0.423818 0.644010 0.178406
0.424295 0.642954 0.178008
0.425736 0.641612 0.177656
0.430114 0.640032 0.177727
0.445892 0.638869 0.180077
0.502632 0.641888 0.193942
0.576682 0.649827 0.221990
0.644200 0.656767 0.241178
0.719102 0.654104 0.254919
0.789113 0.642626 0.289364
0.843985 0.622872 0.333387
0.863945 0.591374 0.383622
0.866333 0.587317 0.438146
0.872085 0.610275 0.501886
0.881526 0.644165 0.571973
0.894318 0.681492 0.635732
0.909022 0.718375 0.692123
0.922369 0.752435 0.739188
0.933302 0.785046 0.780602
0.941587 0.815721 0.816613
0.947768 0.844031 0.848135
0.952227 0.870047 0.873536
0.955349 0.890801 0.892295
0.957546 0.906476 0.905879
0.458312 0.697902 0.200470
0.458332 0.697732 0.200327
0.458359 0.697563 0.200186
0.458393 0.697393 0.200046
0.458433 0.697224 0.199908
0.458481 0.697056 0.199771
0.458552 0.696845 0.199603
0.458675 0.696551 0.199371
0.458882 0.696164 0.199074
0.459249 0.695657 0.198699
0.459927 0.694997 0.198242
0.461263 0.694154 0.197727
0.464123 0.693121 0.197271
0.471238 0.692036 0.197363
0.492546 0.691757 0.200175
0.560484 0.696840 0.216708
0.638741 0.706557 0.245898
0.703934 0.712938 0.260728
0.771374 0.710541 0.279812
0.835141 0.700280 0.324447
0.869668 0.682055 0.376753
0.885196 0.652001 0.436298
0.888474 0.644163 0.503112
0.891249 0.666340 0.567695
0.898800 0.697839 0.631530
0.909479 0.731290 0.690528
0.921455 0.762335 0.738659
0.932487 0.792136 0.780122
0.941209 0.820400 0.816044
0.947722 0.847055 0.847639
0.952287 0.871894 0.873234
0.955413 0.891864 0.892119
0.957594 0.907085 0.905784
0.488932 0.741700 0.226478
0.489026 0.741592 0.226341
0.489125 0.741484 0.226205
0.489229 0.741377 0.226070
0.489339 0.741270 0.225936
0.489455 0.741163 0.225803
0.489608 0.741030 0.225638
0.489840 0.740845 0.225410
0.490179 0.740601 0.225115
0.490689 0.740282 0.224735
0.491486 0.739867 0.224255
0.492810 0.739336 0.223670
0.495165 0.738679 0.223010
0.499760 0.737928 0.222424
0.509912 0.737293 0.222465
0.537193 0.737861 0.225621
0.617881 0.745310 0.245246
0.693888 0.755322 0.272071
0.754658 0.760405 0.281938
0.816390 0.758351 0.307892
0.868058 0.749526 0.361841
0.888490 0.734271 0.424238
0.901593 0.708873 0.494380
0.907265 0.698940 0.567828
0.908122 0.718292 0.627840
0.913374 0.745837 0.686590
0.921707 0.774231 0.737297
0.931555 0.801361 0.779665
0.940506 0.826811 0.815517
0.947489 0.851286 0.847052
0.952288 0.874444 0.872825
0.955467 0.893312 0.891870
0.957645 0.907907 0.905647
0.515639 0.778185 0.258939
0.515789 0.778128 0.258818
0.515943 0.778070 0.258696
0.516102 0.778014 0.258576
0.516264 0.777957 0.258456
0.516432 0.777901 0.258337
0.516648 0.777831 0.258189
0.516963 0.777733 0.257984
0.517404 0.777606 0.257716
0.518034 0.777440 0.257368
0.518954 0.777227 0.256921
0.520342 0.776958 0.256358
0.522529 0.776628 0.255671
0.526179 0.776252 0.254892
0.532765 0.775905 0.254173
0.546150 0.775885 0.254106
0.580785 0.777724 0.257705
0.670468 0.787639 0.279016
0.742964 0.797841 0.301748
0.798731 0.801853 0.306726
0.851640 0.800258 0.340161
0.886487 0.792746 0.403503
0.902844 0.780002 0.476189
0.914967 0.758488 0.555871
0.921658 0.747492 0.625482
0.921539 0.763955 0.683357
0.925257 0.787524 0.733711
0.931683 0.812274 0.778424
0.939604 0.835253 0.815078
0.946917 0.857185 0.846490
0.952138 0.877999 0.872318
0.955475 0.895303 0.891525
0.957688 0.909022 0.905449
0.537829 0.805613 0.297202
0.538018 0.805588 0.297101
0.538211 0.805564 0.297000
0.538406 0.805539 0.296899
0.538605 0.805515 0.296799
0.538807 0.805491 0.296699
0.539065 0.805462 0.296575
0.539435 0.805421 0.296403
0.539941 0.805369 0.296177
0.540643 0.805302 0.295882
0.541628 0.805217 0.295501
0.543039 0.805115 0.295012
0.545113 0.804996 0.294395
0.548269 0.804875 0.293640
0.553341 0.804795 0.292780
0.562167 0.804893 0.291987
0.579899 0.805654 0.292005
0.623328 0.809146 0.296362
0.716310 0.821189 0.317717
0.783812 0.831445 0.335180
0.835582 0.835152 0.335715
0.877396 0.834793 0.376564
0.899984 0.830277 0.449848
0.914825 0.821243 0.534489
0.925507 0.802409 0.612558
0.932384 0.791265 0.679180
0.932481 0.803995 0.731387
0.934882 0.824101 0.775050
0.939670 0.845161 0.813914
0.946058 0.864993 0.846065
0.951689 0.882925 0.871810
0.955362 0.898067 0.891083
0.957693 0.910549 0.905170
0.557244 0.826036 0.341924
0.557452 0.826029 0.341838
0.557662 0.826022 0.341751
0.557874 0.826015 0.341665
0.558088 0.826009 0.341580
0.558305 0.826002 0.341494
0.558579 0.825995 0.341388
0.558970 0.825984 0.341240
0.559500 0.825972 0.341045
0.560223 0.825957 0.340789
0.561219 0.825942 0.340456
0.562607 0.825927 0.340023
0.564573 0.825919 0.339468
0.567416 0.825932 0.338766
0.571706 0.826001 0.337910
0.578569 0.826210 0.336949
0.590337 0.826774 0.336091
0.612797 0.828328 0.336135
0.665406 0.833644 0.341308
0.756167 0.847052 0.361010
0.818502 0.857092 0.372689
0.863995 0.860196 0.368799
0.895648 0.861622 0.418203
0.911185 0.861345 0.503650
0.924482 0.856199 0.590587
0.934048 0.840709 0.665828
0.940031 0.829926 0.726158
0.941104 0.838729 0.773257
0.942594 0.855713 0.810840
0.946091 0.873839 0.844908
0.950957 0.889351 0.871419
0.954998 0.901887 0.890622
0.957597 0.912660 0.904806
0.575367 0.840969 0.392486
0.575586 0.840973 0.392414
0.575807 0.840977 0.392343
0.576029 0.840982 0.392273
0.576252 0.840986 0.392202
0.576477 0.840991 0.392132
0.576761 0.840998 0.392044
0.577164 0.841007 0.391922
0.577707 0.841020 0.391761
0.578440 0.841040 0.391549
0.579437 0.841068 0.391273
0.580807 0.841110 0.390912
0.582711 0.841176 0.390447
0.585400 0.841281 0.389853
0.589283 0.841456 0.389111
0.595061 0.841758 0.388215
0.604022 0.842313 0.387218
0.619188 0.843451 0.386394
0.648253 0.846174 0.386822
0.703717 0.852903 0.391827
0.789828 0.866906 0.408843
0.847862 0.876420 0.415036
0.884932 0.878397 0.406929
0.907543 0.881687 0.465176
0.920955 0.885591 0.560191
0.932352 0.883988 0.642963
0.940770 0.872704 0.713094
0.945866 0.863147 0.766970
0.947928 0.868823 0.809330
0.948619 0.882683 0.842056
0.950919 0.896348 0.870381
0.954380 0.906856 0.890251
0.957293 0.915566 0.904412
0.594954 0.854024 0.451088
0.595177 0.854032 0.451031
0.595400 0.854039 0.450975
0.595625 0.854046 0.450918
0.595850 0.854054 0.450862
0.596077 0.854061 0.450806
0.596362 0.854071 0.450736
0.596765 0.854085 0.450638
0.597303 0.854104 0.450508
0.598026 0.854130 0.450338
0.598999 0.854166 0.450113
0.600319 0.854217 0.449819
0.602119 0.854291 0.449435
0.604602 0.854400 0.448937
0.608083 0.854566 0.448299
0.613161 0.854837 0.447506
0.620815 0.855304 0.446566
0.632773 0.856147 0.445550
0.652182 0.857751 0.444703
0.684233 0.860946 0.444750
0.739689 0.868179 0.448852
0.819601 0.882795 0.461898
0.872311 0.891443 0.462318
0.899882 0.891984 0.450441
0.917295 0.897237 0.519349
0.929018 0.903086 0.612421
0.938876 0.904229 0.691239
0.945904 0.897133 0.753694
0.950398 0.889930 0.802365
0.952759 0.893144 0.840011
0.952845 0.903010 0.867886
0.954307 0.912219 0.889354
0.956771 0.919329 0.904079
0.618489 0.866951 0.511207
0.618718 0.866962 0.511175
0.618948 0.866973 0.511143
0.619178 0.866984 0.511112
0.619409 0.866995 0.511080
0.619641 0.867007 0.511049
0.619932 0.867021 0.511010
0.620343 0.867041 0.510955
0.620892 0.867069 0.510882
0.621626 0.867106 0.510787
0.622611 0.867156 0.510662
0.623939 0.867226 0.510499
0.625739 0.867322 0.510286
0.628194 0.867459 0.510010
0.631574 0.867654 0.509657
0.636284 0.867942 0.509211
0.642940 0.868375 0.508660
0.652510 0.869051 0.508005
0.666507 0.870143 0.507282
0.687113 0.871958 0.506594
0.719434 0.875353 0.506612
0.773327 0.882770 0.510325
0.846598 0.896380 0.520319
0.892101 0.903599 0.516458
0.911766 0.903437 0.502116
0.925456 0.909515 0.572686
0.935922 0.916242 0.662159
0.943978 0.918366 0.732629
0.950005 0.914113 0.789297
0.953849 0.909029 0.832793
0.955975 0.910770 0.865753
0.955818 0.917247 0.887279
0.956671 0.923359 0.903324
0.648682 0.879552 0.567049
0.648893 0.879564 0.567032
0.649105 0.879576 0.567015
0.649316 0.879588 0.566999
0.649528 0.879600 0.566982
0.649740 0.879612 0.566965
0.650006 0.879627 0.566945
0.650380 0.879648 0.566915
0.650878 0.879676 0.566877
0.651539 0.879714 0.566826
0.652421 0.879765 0.566760
0.653599 0.879834 0.566672
0.655174 0.879928 0.566557
0.657289 0.880056 0.566408
0.660137 0.880232 0.566213
0.663990 0.880477 0.565961
0.669230 0.880824 0.565638
0.676393 0.881321 0.565227
0.686223 0.882046 0.564708
0.700362 0.883192 0.564135
0.721557 0.885143 0.563686
0.754003 0.888701 0.563967
0.803552 0.895725 0.567359
0.870934 0.908094 0.575423
0.907118 0.913174 0.569470
0.921331 0.913104 0.555487
0.932377 0.919214 0.622951
0.941419 0.925863 0.705707
0.948175 0.928473 0.769220
0.953262 0.926051 0.820015
0.956577 0.922475 0.859083
0.958226 0.923004 0.885326
0.957829 0.927089 0.901614
0.680912 0.891679 0.620120
0.681076 0.891688 0.620111
0.681239 0.891698 0.620102
0.681403 0.891707 0.620093
0.681566 0.891717 0.620085
0.681731 0.891726 0.620076
0.681936 0.891738 0.620065
0.682225 0.891755 0.620050
0.682608 0.891778 0.620030
0.683118 0.891807 0.620004
0.683797 0.891848 0.619969
0.684701 0.891901 0.619923
0.685909 0.891974 0.619863
0.687525 0.892072 0.619785
0.689694 0.892207 0.619684
0.692618 0.892392 0.619553
0.696582 0.892650 0.619386
0.701995 0.893018 0.619176
0.709451 0.893550 0.618918
