color-grading/luts/03_combined_slog3/BNC_SLog3_L11_Acros.cube
TITLE "BNC SLog3 L11 Acros"
# BNC Grade v1.0 - S-Log3/S-Gamut3.Cine -> BNC Base -> Fujifilm Acros-style fine-grain black & white with punchy contrast and a gentle toe.
# Input: S-Log3 / S-Gamut3.Cine | Output: Rec.709 Gamma 2.4
LUT_3D_SIZE 5
DOMAIN_MIN 0.0 0.0 0.0
DOMAIN_MAX 1.0 1.0 1.0
0.001404 0.001404 0.001404
0.116781 0.116781 0.116781
0.551702 0.551702 0.551702
0.851225 0.851225 0.851225
0.952497 0.952497 0.952497
0.107241 0.107241 0.107241
0.136270 0.136270 0.136270
0.548914 0.548913 0.548913
0.852572 0.852572 0.852572
0.952522 0.952522 0.952521
0.522751 0.522751 0.522751
0.521716 0.521716 0.521715
0.662221 0.662221 0.662221
0.865383 0.865383 0.865383
0.952717 0.952717 0.952717
0.788220 0.788220 0.788220
0.789191 0.789191 0.789190
0.798521 0.798521 0.798521
0.946614 0.946614 0.946614
0.954700 0.954700 0.954700
0.932924 0.932924 0.932923
0.932974 0.932974 0.932974
0.933368 0.933368 0.933367
0.937209 0.937209 0.937209
0.963530 0.963530 0.963530
0.016263 0.016263 0.016263
0.121040 0.121040 0.121040
0.551319 0.551319 0.551319
0.851310 0.851310 0.851310
0.952498 0.952498 0.952498
0.092647 0.092647 0.092647
0.116508 0.116508 0.116508
0.547909 0.547909 0.547909
0.852646 0.852646 0.852646
0.952523 0.952523 0.952523
0.519921 0.519921 0.519921
0.518710 0.518710 0.518710
0.658883 0.658883 0.658883
0.865356 0.865356 0.865356
0.952719 0.952719 0.952719
0.788287 0.788287 0.788287
0.789251 0.789251 0.789251
0.798538 0.798538 0.798538
0.946669 0.946669 0.946669
0.954700 0.954700 0.954700
0.932925 0.932925 0.932925
0.932975 0.932975 0.932975
0.933369 0.933369 0.933369
0.937211 0.937211 0.937211
0.963533 0.963533 0.963533
0.254720 0.254720 0.254720
0.270656 0.270656 0.270656
0.577949 0.577949 0.577949
0.852483 0.852483 0.852483
0.952510 0.952510 0.952510
0.256616 0.256616 0.256616
0.267424 0.267424 0.267424
0.572152 0.572152 0.572152
0.853736 0.853736 0.853736
0.952535 0.952535 0.952535
0.528890 0.528890 0.528890
0.526664 0.526664 0.526664
0.655539 0.655539 0.655539
0.865692 0.865692 0.865692
0.952730 0.952730 0.952730
0.789266 0.789266 0.789266
0.790181 0.790181 0.790181
0.799090 0.799090 0.799090
0.947209 0.947209 0.947209
0.954705 0.954705 0.954705
0.932938 0.932938 0.932937
0.932988 0.932988 0.932988
0.933382 0.933382 0.933382
0.937226 0.937226 0.937226
0.963553 0.963553 0.963553
0.636694 0.636694 0.636694
0.640962 0.640962 0.640962
0.683444 0.683444 0.683444
0.856915 0.856915 0.856915
0.952683 0.952683 0.952683
0.637518 0.637518 0.637518
0.641699 0.641699 0.641699
0.683215 0.683215 0.683215
0.857747 0.857747 0.857747
0.952707 0.952707 0.952707
0.648671 0.648671 0.648671
0.652233 0.652233 0.652233
0.686450 0.686450 0.686450
0.865473 0.865473 0.865473
0.952894 0.952894 0.952894
0.812292 0.812292 0.812291
0.812872 0.812872 0.812872
0.818480 0.818480 0.818479
0.953782 0.953782 0.953782
0.954799 0.954798 0.954798
0.933143 0.933143 0.933143
0.933194 0.933194 0.933193
0.933588 0.933588 0.933588
0.937442 0.937442 0.937442
0.963760 0.963760 0.963760
0.932726 0.932726 0.932726
0.932853 0.932853 0.932853
0.933843 0.933843 0.933843
0.943317 0.943317 0.943316
0.951082 0.951082 0.951081
0.932748 0.932748 0.932748
0.932874 0.932874 0.932874
0.933863 0.933863 0.933863
0.943320 0.943320 0.943320
0.951103 0.951103 0.951103
0.932921 0.932921 0.932921
0.933045 0.933045 0.933045
0.934019 0.934019 0.934019
0.943352 0.943352 0.943352
0.951271 0.951271 0.951271
0.935063 0.935063 0.935063
0.935168 0.935168 0.935168
0.935993 0.935993 0.935993
0.944038 0.944038 0.944038
0.952964 0.952964 0.952964
0.935833 0.935833 0.935833
0.935881 0.935881 0.935881
0.936257 0.936257 0.936257
0.939946 0.939946 0.939946
0.965635 0.965635 0.965635
