color-grading/luts/03_combined_slog3/BNC_SLog3_L01_Clean.cube
TITLE "BNC SLog3 L01 Clean"
# BNC Grade v1.0 — S-Log3/S-Gamut3.Cine -> BNC Base -> A neutral, true-to-life grade with a light punch -- the default 'just make it look intentional' pass.
# Input: S-Log3 / S-Gamut3.Cine | Output: Rec.709 Gamma 2.4
LUT_3D_SIZE 5
DOMAIN_MIN 0.0 0.0 0.0
DOMAIN_MAX 1.0 1.0 1.0
0.007440 0.007440 0.007440
0.216746 0.006713 0.013222
0.731666 0.161318 0.197654
0.950400 0.590971 0.642407
0.972652 0.868463 0.891003
0.008931 0.205084 0.011863
0.164107 0.184681 0.007075
0.724393 0.193602 0.185933
0.950576 0.595992 0.640571
0.972662 0.868704 0.890923
0.018361 0.697290 0.129300
0.040869 0.695010 0.112968
0.640188 0.671244 0.034132
0.951874 0.640645 0.625362
0.972735 0.870603 0.890292
0.396944 0.932315 0.512198
0.401784 0.932335 0.511581
0.444602 0.932584 0.506680
0.921955 0.931503 0.446340
0.973279 0.889992 0.883475
0.757418 0.964971 0.807807
0.757670 0.964976 0.807784
0.759650 0.965011 0.807610
0.779728 0.965358 0.805914
0.964903 0.965826 0.779447
0.010825 0.003701 0.160734
0.208640 0.005395 0.169059
0.730270 0.154672 0.237577
0.950286 0.589741 0.648327
0.972646 0.868404 0.891267
0.007514 0.175196 0.156466
0.150938 0.150938 0.150938
0.722858 0.185242 0.224987
0.950468 0.594745 0.646514
0.972656 0.868645 0.891187
0.022263 0.693469 0.163818
0.022753 0.691177 0.150568
0.638637 0.666655 0.100994
0.951829 0.639275 0.631484
0.972730 0.870543 0.890558
0.395910 0.932442 0.517341
0.400744 0.932462 0.516734
0.443544 0.932712 0.511914
0.922142 0.931607 0.452075
0.973278 0.889936 0.883759
0.757373 0.964978 0.808046
0.757625 0.964983 0.808024
0.759605 0.965018 0.807849
0.779687 0.965366 0.806156
0.964918 0.965838 0.779714
0.149991 0.102704 0.654074
0.205454 0.098609 0.654237
0.715547 0.092918 0.658293
0.949090 0.580006 0.697212
0.972598 0.867940 0.893331
0.134084 0.138202 0.651515
0.181462 0.132555 0.651162
0.706787 0.119013 0.654085
0.949308 0.584872 0.695641
0.972608 0.868181 0.893253
0.027814 0.665547 0.636571
0.021668 0.662002 0.635912
0.635927 0.635927 0.635927
0.951100 0.628364 0.682532
0.972684 0.870079 0.892637
0.387765 0.933578 0.561404
0.392544 0.933597 0.560835
0.435158 0.933845 0.556355
0.923837 0.932643 0.501826
0.973274 0.889493 0.885979
0.757020 0.965035 0.809932
0.757272 0.965039 0.809910
0.759255 0.965075 0.809737
0.779371 0.965427 0.808063
0.965029 0.965932 0.781811
0.578301 0.502400 0.939912
0.588277 0.501145 0.939782
0.678634 0.490744 0.938140
0.935535 0.486611 0.930570
0.971974 0.863326 0.913270
0.574444 0.509468 0.940245
0.584387 0.508197 0.940122
0.674070 0.497680 0.938557
0.935611 0.490468 0.930665
0.971986 0.863565 0.913207
0.543457 0.570970 0.942826
0.553334 0.569623 0.942778
0.638435 0.558529 0.941907
0.936791 0.523786 0.932037
0.972080 0.865454 0.912714
0.303840 0.937497 0.931094
0.308248 0.937511 0.931174
0.346799 0.937711 0.931890
0.940243 0.940243 0.940243
0.972963 0.884956 0.907412
0.753604 0.965596 0.829538
0.753860 0.965602 0.829518
0.755870 0.965642 0.829369
0.776302 0.966042 0.827923
0.966159 0.966896 0.803290
0.899879 0.862539 0.971877
0.900359 0.862445 0.971864
0.904104 0.861705 0.971761
0.938247 0.853535 0.970538
0.967657 0.816751 0.967742
0.899668 0.862914 0.971896
0.900148 0.862821 0.971883
0.903896 0.862082 0.971781
0.938083 0.853921 0.970561
0.967666 0.816943 0.967752
0.898008 0.865855 0.972044
0.898491 0.865762 0.972032
0.902260 0.865032 0.971934
0.936789 0.856952 0.970740
0.967742 0.818455 0.967824
0.880597 0.894291 0.973159
0.881100 0.894214 0.973156
0.885036 0.893600 0.973129
0.922569 0.886634 0.972410
0.968526 0.834321 0.968573
0.710302 0.966610 0.966532
0.710583 0.966618 0.966540
0.712794 0.966681 0.966602
0.735389 0.967330 0.967246
0.974215 0.974215 0.974214
