color-grading/luts/03_combined_slog3/BNC_SLog3_L12_Vivid.cube
TITLE "BNC SLog3 L12 Vivid"
# BNC Grade v1.0 - S-Log3/S-Gamut3.Cine -> BNC Base -> High-punch, high-vibrance grade with cool blue shadows lifted in luminance for extra pop.
# Input: S-Log3 / S-Gamut3.Cine | Output: Rec.709 Gamma 2.4
LUT_3D_SIZE 5
DOMAIN_MIN 0.0 0.0 0.0
DOMAIN_MAX 1.0 1.0 1.0
0.002839 0.002839 0.002839
0.194539 0.004311 0.005875
0.683845 0.010255 0.139657
0.921965 0.537126 0.599808
0.959967 0.875922 0.900631
0.007438 0.182306 0.083589
0.137633 0.165117 0.004809
0.689236 0.033167 0.100328
0.923041 0.543134 0.597922
0.959994 0.876225 0.900578
0.022377 0.635707 0.300255
0.027490 0.633177 0.296375
0.588000 0.627792 0.025542
0.930860 0.596610 0.581038
0.960205 0.878596 0.900154
0.010457 0.842365 0.487557
0.013729 0.843219 0.485561
0.034675 0.851078 0.464776
0.853299 0.862804 0.310672
0.961642 0.901210 0.894354
0.681718 0.936133 0.788989
0.682012 0.936157 0.788966
0.684600 0.936335 0.788920
0.710131 0.938081 0.787640
0.934772 0.935631 0.742713
0.000033 0.026309 0.119995
0.185796 0.004448 0.145447
0.680844 0.011162 0.187078
0.921466 0.535546 0.606403
0.959948 0.875832 0.900880
0.000157 0.155121 0.135719
0.132334 0.132334 0.132334
0.685259 0.019038 0.161155
0.922571 0.541540 0.604579
0.959976 0.876135 0.900828
0.020495 0.633230 0.306463
0.018955 0.630676 0.302479
0.587299 0.623604 0.000000
0.930713 0.594982 0.588249
0.960188 0.878507 0.900408
0.036505 0.843082 0.492489
0.022240 0.843923 0.490348
0.026720 0.851656 0.469982
0.854150 0.863562 0.318611
0.961642 0.901152 0.894662
0.681781 0.936153 0.789294
0.682075 0.936177 0.789271
0.684662 0.936356 0.789226
0.709937 0.938108 0.787814
0.934826 0.935683 0.743078
0.104142 0.004057 0.528010
0.151610 0.011051 0.533548
0.636250 0.017675 0.583381
0.916021 0.522549 0.659530
0.959797 0.875121 0.902806
0.092000 0.015161 0.537010
0.131456 0.016593 0.538080
0.632634 0.021695 0.583567
0.917324 0.528391 0.658249
0.959826 0.875425 0.902758
0.015795 0.637107 0.608288
0.014882 0.633646 0.607714
0.649656 0.649655 0.649655
0.927737 0.581126 0.646818
0.960047 0.877809 0.902371
0.028080 0.848726 0.531498
0.030211 0.849451 0.529958
0.036539 0.856795 0.514252
0.862022 0.870708 0.384920
0.961634 0.900686 0.897042
0.681466 0.936326 0.791281
0.681760 0.936349 0.791259
0.684347 0.936530 0.791223
0.709851 0.938301 0.790044
0.935246 0.936088 0.745948
0.505868 0.413209 0.865059
0.518691 0.414576 0.867752
0.628868 0.421421 0.883168
0.858595 0.405290 0.857160
0.957911 0.867628 0.919487
0.499844 0.418601 0.864087
0.512742 0.420024 0.866898
0.623891 0.428072 0.884142
0.859303 0.410147 0.857836
0.957946 0.867939 0.919471
0.445123 0.463772 0.851311
0.458386 0.465090 0.854373
0.575655 0.480450 0.883226
0.866615 0.448956 0.865047
0.958225 0.870381 0.919335
0.031455 0.881527 0.877941
0.036672 0.882043 0.878531
0.034804 0.887258 0.884404
0.949603 0.949603 0.949602
0.960736 0.894757 0.917292
0.686439 0.937834 0.814995
0.686730 0.937861 0.814989
0.689017 0.938066 0.814940
0.712550 0.940090 0.814218
0.939493 0.940192 0.775543
0.905370 0.865057 0.956804
0.905921 0.865040 0.956847
0.909969 0.864699 0.957061
0.934800 0.852056 0.953929
0.944836 0.800564 0.945189
0.905117 0.865431 0.956792
0.905674 0.865418 0.956837
0.909768 0.865117 0.957075
0.934755 0.852572 0.954000
0.944872 0.800822 0.945224
0.902964 0.868193 0.956601
0.903569 0.868222 0.956671
0.908032 0.868235 0.957095
0.934389 0.856605 0.954545
0.945149 0.802850 0.945492
0.866505 0.881077 0.945862
0.867376 0.881317 0.946088
0.874328 0.883338 0.947938
0.928424 0.894492 0.959171
0.947960 0.824093 0.948213
0.659379 0.938065 0.938531
0.659751 0.938099 0.938564
0.662672 0.938366 0.938823
0.692597 0.941087 0.941456
0.964104 0.964104 0.964103
