color-grading/luts/03_combined_slog3/BNC_SLog3_L13_Airy.cube
TITLE "BNC SLog3 L13 Airy"
# BNC Grade v1.0 - S-Log3/S-Gamut3.Cine -> BNC Base -> Bright, airy, lifted-shadow look with a soft top end and gentle overall desaturation.
# Input: S-Log3 / S-Gamut3.Cine | Output: Rec.709 Gamma 2.4
LUT_3D_SIZE 9
DOMAIN_MIN 0.0 0.0 0.0
DOMAIN_MAX 1.0 1.0 1.0
0.059876 0.069349 0.074186
0.135926 0.076865 0.080398
0.264576 0.106839 0.108728
0.469277 0.173195 0.177032
0.717476 0.282948 0.294753
0.871096 0.432949 0.464406
0.936766 0.625750 0.663252
0.954341 0.769202 0.792759
0.964445 0.845867 0.859553
0.067398 0.134586 0.088189
0.099489 0.121414 0.086494
0.246213 0.121633 0.103703
0.459984 0.183133 0.171828
0.714970 0.289621 0.291660
0.870983 0.436959 0.462784
0.936855 0.627257 0.662711
0.954379 0.769536 0.792645
0.964453 0.845937 0.859529
0.113313 0.264122 0.132018
0.116891 0.256742 0.129268
0.225798 0.250901 0.122823
0.447452 0.227763 0.166708
0.711066 0.303040 0.286964
0.870830 0.443725 0.460223
0.937000 0.629679 0.661852
0.954438 0.770068 0.792464
0.964466 0.846049 0.859491
0.206889 0.458985 0.211388
0.208983 0.455462 0.209696
0.219402 0.450034 0.207354
0.414970 0.441807 0.186579
0.701758 0.394454 0.276572
0.870604 0.468695 0.452319
0.937486 0.637532 0.659149
0.954626 0.771742 0.791897
0.964507 0.846399 0.859373
0.340689 0.699764 0.327214
0.342464 0.698770 0.326460
0.346158 0.697195 0.325296
0.371643 0.692399 0.322122
0.671051 0.684922 0.279770
0.876390 0.614904 0.430322
0.939356 0.664833 0.650583
0.955223 0.777053 0.790124
0.964634 0.847490 0.859006
0.463925 0.850106 0.446803
0.465345 0.849951 0.446471
0.467741 0.849706 0.445950
0.476607 0.848957 0.444364
0.529834 0.847090 0.439888
0.853896 0.842536 0.382605
0.949694 0.781801 0.620983
0.957280 0.795099 0.784391
0.965039 0.850952 0.857849
0.588120 0.915691 0.602695
0.589130 0.915689 0.602584
0.590758 0.915686 0.602409
0.596066 0.915686 0.601866
0.614766 0.915775 0.600217
0.696786 0.917500 0.593841
0.945457 0.921188 0.535754
0.966194 0.870686 0.762187
0.966411 0.862667 0.854013
0.727314 0.925058 0.735175
0.727629 0.925064 0.735158
0.728128 0.925073 0.735132
0.729689 0.925105 0.735048
0.734564 0.925209 0.734783
0.750307 0.925621 0.733878
0.811221 0.928323 0.728658
0.973224 0.934803 0.691663
0.972130 0.911601 0.837470
0.820167 0.929004 0.811753
0.820233 0.929006 0.811750
0.820338 0.929010 0.811745
0.820666 0.929020 0.811729
0.821681 0.929054 0.811678
0.824859 0.929164 0.811512
0.835144 0.929584 0.810876
0.873627 0.931810 0.806362
0.974323 0.935283 0.784309
0.060160 0.069725 0.114544
0.130681 0.075877 0.118964
0.261639 0.104388 0.132732
0.467712 0.170763 0.194190
0.717034 0.281257 0.304853
0.871049 0.431991 0.469821
0.936750 0.625398 0.665051
0.954338 0.769126 0.793145
0.964444 0.845851 0.859635
0.059280 0.114684 0.109201
0.087962 0.098293 0.103606
0.242019 0.113153 0.120675
0.458255 0.179452 0.187718
0.714504 0.287743 0.301575
0.870932 0.435968 0.468184
0.936838 0.626902 0.664511
0.954375 0.769460 0.793031
0.964452 0.845922 0.859611
0.108385 0.254011 0.138170
0.111002 0.246197 0.134350
0.220164 0.239721 0.127032
0.445107 0.218577 0.179678
0.710552 0.300737 0.296565
0.870773 0.442679 0.465597
0.936982 0.629320 0.663654
0.954435 0.769992 0.792850
0.964465 0.846034 0.859573
0.204302 0.454162 0.216477
0.206201 0.450607 0.214602
0.216025 0.445064 0.211967
0.412371 0.436493 0.191027
0.700868 0.388838 0.284880
0.870526 0.467447 0.457601
0.937466 0.637160 0.660958
0.954622 0.771665 0.792283
0.964506 0.846384 0.859455
0.339641 0.698385 0.331444
0.341385 0.697379 0.330656
0.344998 0.695782 0.329438
0.370144 0.690913 0.326099
0.670225 0.683288 0.283898
0.876165 0.612693 0.435151
0.939330 0.664421 0.652409
0.955219 0.776975 0.790512
0.964633 0.847474 0.859088
0.463572 0.849876 0.449616
0.464987 0.849719 0.449279
0.467374 0.849473 0.448750
0.476206 0.848717 0.447138
0.529246 0.846823 0.442602
0.853809 0.842247 0.385389
0.949648 0.781307 0.622825
0.957276 0.795014 0.784784
0.965038 0.850936 0.857931
0.587906 0.915680 0.603975
0.588916 0.915677 0.603865
0.590544 0.915674 0.603692
0.595850 0.915673 0.603155
0.614548 0.915756 0.601526
0.696608 0.917462 0.595245
0.945468 0.921142 0.537311
0.966187 0.870589 0.762602
0.966410 0.862650 0.854097
0.727250 0.925063 0.735473
0.727564 0.925069 0.735456
0.728063 0.925078 0.735429
0.729626 0.925109 0.735346
0.734504 0.925213 0.735083
0.750255 0.925623 0.734185
0.811188 0.928320 0.728995
0.973229 0.934804 0.692033
0.972129 0.911581 0.837559
0.820155 0.929005 0.811814
0.820222 0.929007 0.811811
0.820326 0.929010 0.811806
0.820654 0.929021 0.811790
0.821669 0.929054 0.811739
0.824848 0.929165 0.811574
0.835135 0.929584 0.810940
0.873620 0.931810 0.806432
0.974324 0.935284 0.784385
0.069787 0.081973 0.223729
0.124465 0.084225 0.226500
0.259251 0.102627 0.237766
0.465732 0.167269 0.248297
0.716377 0.278651 0.324071
0.870979 0.430488 0.478802
0.936724 0.624840 0.667921
0.954332 0.769005 0.793757
0.964443 0.845827 0.859765
0.066483 0.096924 0.219280
0.087243 0.092265 0.217579
0.238391 0.105592 0.228135
0.456015 0.174246 0.239650
0.713808 0.284849 0.320484
0.870858 0.434413 0.477131
0.936812 0.626340 0.667384
0.954370 0.769339 0.793643
0.964451 0.845897 0.859741
0.082833 0.240317 0.229936
0.086290 0.231577 0.226776
0.212541 0.221016 0.225435
0.441969 0.205964 0.226906
0.709781 0.297204 0.314951
0.870690 0.441038 0.474506
0.936955 0.628752 0.666531
0.954429 0.769871 0.793463
0.964464 0.846009 0.859703
0.200107 0.446593 0.239635
0.201738 0.442912 0.237312
0.210787 0.437110 0.233907
0.408353 0.427853 0.213523
0.699526 0.380263 0.301008
0.870410 0.465488 0.466375
0.937437 0.636572 0.663846
0.954617 0.771544 0.792897
0.964505 0.846359 0.859585
0.337993 0.696179 0.339842
0.339689 0.695152 0.339003
0.343184 0.693521 0.337700
0.367803 0.688530 0.334103
0.668923 0.680661 0.292373
0.875815 0.609163 0.443234
0.939290 0.663769 0.655328
0.955213 0.776850 0.791128
0.964632 0.847449 0.859218
0.463016 0.849512 0.454366
0.464421 0.849354 0.454020
0.466793 0.849104 0.453478
0.475573 0.848338 0.451826
0.528325 0.846398 0.447200
0.853674 0.841786 0.390093
0.949576 0.780524 0.625776
0.957268 0.794879 0.785407
0.965037 0.850911 0.858062
0.587566 0.915663 0.606015
0.588575 0.915660 0.605907
0.590202 0.915656 0.605737
0.595505 0.915652 0.605210
0.614202 0.915726 0.603612
0.696326 0.917401 0.597487
0.945486 0.921069 0.539810
0.966177 0.870435 0.763259
0.966409 0.862623 0.854230
0.727147 0.925071 0.735945
0.727462 0.925077 0.735928
0.727962 0.925086 0.735902
0.729526 0.925117 0.735819
0.734408 0.925220 0.735559
0.750172 0.925626 0.734672
0.811136 0.928315 0.729531
0.973235 0.934807 0.692621
0.972127 0.911550 0.837698
0.820137 0.929006 0.811910
0.820203 0.929008 0.811907
0.820308 0.929012 0.811902
0.820635 0.929022 0.811886
0.821651 0.929055 0.811836
0.824831 0.929165 0.811671
0.835120 0.929584 0.811040
0.873610 0.931809 0.806543
0.974325 0.935284 0.784505
0.116464 0.129079 0.399347
0.144035 0.128632 0.399853
0.250573 0.133039 0.406232
0.460984 0.162426 0.419812
0.714969 0.271560 0.426585
0.870832 0.425935 0.511928
0.936649 0.623108 0.677055
0.954316 0.768628 0.795680
0.964439 0.845750 0.860171
0.110413 0.139518 0.397036
0.131724 0.137892 0.396851
0.228247 0.139583 0.401460
0.450854 0.165869 0.415314
0.712278 0.276874 0.422325
0.870694 0.429699 0.510058
0.936735 0.624596 0.676527
0.954353 0.768962 0.795567
0.964447 0.845820 0.860147
0.107632 0.187272 0.398475
0.121386 0.180399 0.396891
0.187957 0.172636 0.397099
0.435183 0.181130 0.408671
0.708020 0.287433 0.415524
0.870498 0.436052 0.507104
0.936876 0.626988 0.675688
0.954412 0.769493 0.795387
0.964460 0.845932 0.860109
0.156315 0.427158 0.406828
0.158325 0.423017 0.405433
0.167775 0.416404 0.403282
0.397416 0.400097 0.401503
0.696176 0.356418 0.395139
0.870112 0.459514 0.497988
0.937348 0.634744 0.673045
0.954599 0.771164 0.794824
0.964501 0.846282 0.859991
0.332486 0.689330 0.392905
0.334069 0.688228 0.391894
0.337329 0.686472 0.390319
0.360640 0.681009 0.385931
0.665054 0.672116 0.349480
0.874772 0.597986 0.472312
0.939170 0.661741 0.664640
0.955195 0.776463 0.793063
0.964628 0.847371 0.859625
0.461271 0.848392 0.471871
0.462652 0.848227 0.471503
0.464982 0.847966 0.470925
0.473613 0.847164 0.469161
0.525521 0.845061 0.464308
0.853273 0.840326 0.407847
0.949354 0.778069 0.635247
0.957245 0.794460 0.787365
0.965033 0.850831 0.858471
0.586484 0.915619 0.612487
0.587491 0.915614 0.612384
0.589114 0.915608 0.612222
0.594409 0.915596 0.611723
0.613105 0.915642 0.610235
0.695448 0.917214 0.604630
0.945545 0.920842 0.547892
0.966144 0.869956 0.765321
0.966404 0.862538 0.854646
0.726824 0.925097 0.737427
0.727140 0.925103 0.737411
0.727641 0.925112 0.737385
0.729210 0.925142 0.737306
0.734108 0.925242 0.737054
0.749911 0.925638 0.736199
0.810973 0.928299 0.731214
0.973256 0.934814 0.694471
0.972121 0.911452 0.838135
0.820078 0.929010 0.812212
0.820144 0.929012 0.812209
0.820249 0.929015 0.812204
0.820577 0.929026 0.812188
0.821593 0.929059 0.812138
0.824775 0.929168 0.811976
0.835073 0.929584 0.811353
0.873577 0.931806 0.806889
0.974330 0.935287 0.784881
0.218026 0.220289 0.639604
0.233728 0.219572 0.639805
0.266186 0.218822 0.640584
0.445367 0.222955 0.648784
0.711086 0.259580 0.663348
0.871090 0.413728 0.655971
0.936455 0.617832 0.706792
0.954266 0.767467 0.801737
0.964428 0.845513 0.861430
0.213259 0.227336 0.638838
0.227966 0.226397 0.638948
0.258182 0.225252 0.639524
0.434895 0.227932 0.647149
0.708143 0.262697 0.661847
0.870917 0.417004 0.654546
0.936536 0.619281 0.706307
0.954303 0.767800 0.801626
0.964436 0.845583 0.861406
0.206779 0.241751 0.638022
0.219957 0.240388 0.637984
0.246999 0.238523 0.638251
0.417483 0.238457 0.644740
0.703419 0.268928 0.659501
0.870659 0.422535 0.652267
0.936669 0.621611 0.705535
0.954362 0.768328 0.801449
0.964449 0.845695 0.861368
0.201655 0.340839 0.641879
0.209726 0.336400 0.641228
0.227103 0.329710 0.640366
0.358010 0.313373 0.641272
0.688678 0.307293 0.652894
0.870025 0.442988 0.644983
0.937114 0.629170 0.703097
0.954548 0.769992 0.800895
0.964490 0.846044 0.861251
0.274237 0.673218 0.647730
0.275710 0.671898 0.647346
0.278860 0.669788 0.646739
0.301347 0.663076 0.644893
0.654374 0.643334 0.642111
0.872547 0.563496 0.620940
0.938843 0.655537 0.695272
0.955141 0.775269 0.799161
0.964617 0.847132 0.860887
0.452755 0.845992 0.570665
0.454141 0.845793 0.570268
0.456478 0.845476 0.569644
0.465111 0.844481 0.567746
0.516479 0.841448 0.562967
0.852504 0.835563 0.516848
0.948707 0.770412 0.667070
0.957176 0.793168 0.793542
0.965020 0.850587 0.859741
0.582871 0.915606 0.634602
0.583873 0.915596 0.634505
0.585490 0.915581 0.634352
0.590772 0.915540 0.633886
0.609503 0.915486 0.632541
0.692735 0.916673 0.628217
0.945754 0.920132 0.575485
0.966043 0.868470 0.771793
0.966390 0.862277 0.855937
0.725800 0.925191 0.742091
0.726119 0.925196 0.742077
0.726625 0.925204 0.742054
0.728209 0.925230 0.741983
0.733156 0.925320 0.741760
0.749088 0.925683 0.741004
0.810473 0.928253 0.736513
0.973323 0.934839 0.700325
0.972101 0.911150 0.839491
0.819894 0.929021 0.813147
0.819961 0.929023 0.813144
0.820066 0.929027 0.813139
0.820395 0.929037 0.813124
0.821414 0.929069 0.813077
0.824604 0.929176 0.812923
0.834927 0.929585 0.812327
0.873477 0.931797 0.807965
0.974345 0.935294 0.786048
0.380317 0.355952 0.834009
0.388462 0.355483 0.834114
0.402490 0.354790 0.834314
0.456879 0.353165 0.835273
0.696480 0.355003 0.841320
0.869681 0.383379 0.845524
0.936233 0.602183 0.813142
0.954135 0.763881 0.821667
0.964394 0.844781 0.865388
0.377628 0.360029 0.833956
0.385593 0.359525 0.834054
0.399315 0.358775 0.834241
0.452574 0.356951 0.835150
0.693120 0.358221 0.841141
0.869434 0.385473 0.845391
0.936300 0.603510 0.812852
0.954172 0.764209 0.821562
0.964402 0.844851 0.865365
0.373548 0.366951 0.833900
0.381230 0.366386 0.833986
0.394474 0.365540 0.834153
0.445957 0.363388 0.834983
0.687665 0.363682 0.840866
0.869049 0.389004 0.845184
0.936410 0.605645 0.812390
0.954230 0.764730 0.821397
0.964415 0.844962 0.865328
0.362389 0.393516 0.834010
0.369204 0.392702 0.834057
0.380979 0.391457 0.834158
0.427025 0.388002 0.834736
0.669563 0.384287 0.840107
0.867915 0.402053 0.844580
0.936781 0.612580 0.810923
0.954412 0.766371 0.820879
0.964455 0.845310 0.865214
0.354448 0.564878 0.839312
0.358624 0.562611 0.839211
0.365842 0.559037 0.839061
0.394575 0.548073 0.838707
0.604338 0.518708 0.840526
0.866190 0.475685 0.843529
0.938248 0.636895 0.806147
0.954995 0.771579 0.819254
0.964582 0.846393 0.864857
0.395766 0.840227 0.818950
0.396958 0.839995 0.818930
0.398976 0.839628 0.818898
0.406518 0.838467 0.818800
0.452580 0.834745 0.818543
0.848599 0.818296 0.814964
0.947123 0.746326 0.787328
0.956990 0.789192 0.813959
0.964984 0.849832 0.863733
0.563962 0.918030 0.728078
0.564978 0.918002 0.728021
0.566621 0.917959 0.727932
0.572017 0.917823 0.727668
0.591494 0.917404 0.727014
0.682042 0.916493 0.727185
0.946666 0.917843 0.695371
0.965745 0.863817 0.793084
0.966347 0.861472 0.859998
0.722295 0.925609 0.757444
0.722625 0.925611 0.757435
0.723147 0.925616 0.757420
0.724784 0.925631 0.757375
0.729899 0.925686 0.757235
0.746317 0.925933 0.756787
0.808945 0.928135 0.753955
0.973548 0.934927 0.719946
0.972042 0.910208 0.843763
0.819316 0.929065 0.816093
0.819383 0.929067 0.816090
0.819489 0.929070 0.816086
0.819820 0.929079 0.816073
0.820848 0.929109 0.816034
0.824065 0.929208 0.815903
0.834471 0.929594 0.815391
0.873173 0.931769 0.811361
0.974390 0.935318 0.789714
0.612080 0.551258 0.903564
0.615241 0.550955 0.903609
0.620316 0.550476 0.903682
0.636939 0.549001 0.903932
0.695979 0.544611 0.904915
0.870768 0.529749 0.908150
0.932474 0.552224 0.909294
0.953904 0.752561 0.893697
0.964301 0.842508 0.878503
0.611034 0.553380 0.903597
0.614192 0.553073 0.903641
0.619245 0.552589 0.903713
0.635788 0.551096 0.903958
0.694600 0.546648 0.904927
0.870501 0.531633 0.908166
0.932512 0.553335 0.909295
0.953939 0.752875 0.893636
0.964309 0.842577 0.878481
0.609386 0.556789 0.903651
0.612539 0.556478 0.903694
0.617566 0.555985 0.903764
0.633983 0.554463 0.904002
0.692430 0.549924 0.904950
0.870077 0.534667 0.908193
0.932576 0.555118 0.909297
0.953994 0.753373 0.893538
0.964322 0.842687 0.878446
0.604312 0.567817 0.903836
0.607444 0.567489 0.903876
0.612439 0.566971 0.903942
0.628486 0.565366 0.904160
0.685756 0.560550 0.905039
0.868742 0.544539 0.908288
0.932792 0.560881 0.909309
0.954168 0.754941 0.893230
0.964362 0.843029 0.878336
0.589464 0.605325 0.904562
0.592485 0.604959 0.904593
0.597323 0.604381 0.904645
0.612796 0.602580 0.904815
0.666234 0.597065 0.905491
0.858956 0.578796 0.908568
0.933653 0.580674 0.909396
0.954722 0.759923 0.892258
0.964486 0.844096 0.877994
0.558768 0.765359 0.908628
0.561073 0.764858 0.908630
0.564800 0.764064 0.908635
0.577056 0.761581 0.908662
0.620585 0.753864 0.908843
0.815363 0.728368 0.910694
0.939361 0.669317 0.910442
0.956621 0.776775 0.888997
0.964882 0.847486 0.876921
0.510829 0.920271 0.905709
0.511677 0.920250 0.905726
0.513045 0.920218 0.905753
0.517504 0.920118 0.905838
0.533374 0.919821 0.906117
0.620788 0.919171 0.907268
0.945703 0.907654 0.903476
0.965006 0.848803 0.874341
0.966225 0.858968 0.873368
0.705086 0.929001 0.819503
0.705452 0.928998 0.819499
0.706033 0.928994 0.819493
0.707855 0.928981 0.819476
0.713582 0.928940 0.819433
0.732198 0.928815 0.819415
0.802730 0.928874 0.820930
0.974522 0.935389 0.800229
0.971862 0.907224 0.857854
0.817355 0.929282 0.825814
0.817424 0.929283 0.825813
0.817533 0.929285 0.825811
0.817875 0.929292 0.825805
0.818933 0.929312 0.825787
0.822247 0.929383 0.825729
0.832960 0.929682 0.825487
0.872270 0.931684 0.822635
0.974542 0.935399 0.801769
0.801151 0.735690 0.921472
0.801889 0.735602 0.921482
0.803062 0.735464 0.921498
0.806750 0.735030 0.921547
0.818427 0.733672 0.921706
0.857667 0.729181 0.922264
0.943695 0.709790 0.923336
0.950144 0.714538 0.923596
0.964109 0.835104 0.927683
0.800901 0.736196 0.921483
0.801639 0.736108 0.921493
0.802811 0.735970 0.921509
0.806497 0.735536 0.921558
0.818165 0.734176 0.921716
0.857374 0.729682 0.922273
0.943690 0.710279 0.923350
0.950173 0.714803 0.923604
0.964117 0.835170 0.927686
0.800506 0.737000 0.921502
0.801243 0.736912 0.921511
0.802414 0.736773 0.921527
0.806095 0.736339 0.921576
0.817751 0.734977 0.921734
0.856910 0.730479 0.922289
0.943681 0.711056 0.923371
0.950219 0.715225 0.923617
0.964129 0.835275 0.927690
0.799277 0.739527 0.921559
0.800011 0.739439 0.921569
0.801177 0.739299 0.921584
0.804846 0.738862 0.921632
0.816462 0.737494 0.921789
0.855467 0.732982 0.922337
0.943655 0.713498 0.923439
0.950364 0.716553 0.923657
0.964169 0.835602 0.927702
0.795509 0.747515 0.921745
0.796235 0.747426 0.921754
0.797388 0.747284 0.921769
0.801016 0.746840 0.921815
0.812508 0.745452 0.921966
0.851044 0.740895 0.922496
0.943570 0.721230 0.923655
0.950825 0.720780 0.923785
0.964292 0.836622 0.927742
0.784096 0.774113 0.922407
0.784795 0.774019 0.922415
0.785906 0.773870 0.922428
0.789401 0.773405 0.922469
0.800483 0.771954 0.922603
0.837680 0.767246 0.923078
0.943260 0.747123 0.924400
0.952416 0.735159 0.924228
0.964683 0.839864 0.927868
0.748885 0.876013 0.925497
0.749489 0.875917 0.925502
0.750448 0.875763 0.925510
0.753469 0.875284 0.925536
0.763064 0.873788 0.925621
0.795563 0.868975 0.925936
0.928266 0.849583 0.927516
0.959502 0.796600 0.926262
0.965982 0.850839 0.926309
0.658518 0.932400 0.926636
0.658879 0.932403 0.926641
0.659454 0.932408 0.926648
0.661261 0.932424 0.926672
0.666999 0.932475 0.926747
0.686328 0.932650 0.927008
0.763342 0.933442 0.928145
0.976266 0.936567 0.932209
0.971391 0.897214 0.913997
0.807564 0.931442 0.865061
0.807641 0.931441 0.865062
0.807763 0.931441 0.865062
0.808144 0.931438 0.865065
0.809327 0.931430 0.865074
0.813047 0.931406 0.865109
0.825212 0.931344 0.865313
0.869452 0.931774 0.866657
0.975183 0.935781 0.851633
0.903186 0.841435 0.926744
0.903343 0.841413 0.926746
0.903590 0.841378 0.926749
0.904364 0.841268 0.926760
0.906775 0.840927 0.926792
0.914438 0.839839 0.926895
0.940399 0.836015 0.927250
0.961901 0.816740 0.926989
0.961042 0.809557 0.926726
0.903128 0.841542 0.926747
0.903284 0.841520 0.926749
0.903531 0.841485 0.926752
0.904305 0.841375 0.926763
0.906715 0.841034 0.926795
0.914376 0.839947 0.926898
0.940331 0.836124 0.927253
0.961914 0.816850 0.926993
0.961049 0.809613 0.926728
0.903034 0.841712 0.926751
0.903190 0.841690 0.926753
0.903437 0.841655 0.926757
0.904211 0.841545 0.926767
0.906620 0.841204 0.926799
0.914278 0.840117 0.926902
0.940224 0.836296 0.927257
0.961935 0.817024 0.926999
0.961060 0.809702 0.926731
0.902743 0.842243 0.926765
0.902899 0.842221 0.926768
0.903146 0.842186 0.926771
0.903918 0.842077 0.926781
0.906324 0.841736 0.926813
0.913972 0.840650 0.926916
0.939888 0.836835 0.927270
0.962000 0.817566 0.927019
0.961093 0.809981 0.926741
0.901843 0.843888 0.926809
0.901999 0.843866 0.926811
0.902245 0.843832 0.926815
0.903014 0.843722 0.926825
0.905411 0.843383 0.926857
0.913029 0.842300 0.926958
0.938852 0.838505 0.927311
0.962202 0.819251 0.927082
0.961196 0.810847 0.926773
0.899056 0.849039 0.926949
0.899209 0.849017 0.926951
0.899452 0.848982 0.926954
0.900213 0.848874 0.926964
0.902580 0.848537 0.926995
0.910105 0.847466 0.927095
0.935638 0.843731 0.927440
0.962838 0.824550 0.927280
0.961524 0.813589 0.926873
0.890276 0.865795 0.927425
0.890424 0.865773 0.927427
0.890657 0.865739 0.927430
0.891388 0.865631 0.927439
0.893663 0.865296 0.927468
0.900898 0.864238 0.927560
0.925491 0.860629 0.927883
0.964926 0.841870 0.927947
0.962629 0.822810 0.927215
0.857579 0.927984 0.929459
0.857715 0.927964 0.929461
0.857930 0.927932 0.929463
0.858601 0.927834 0.929471
0.860686 0.927531 0.929494
0.867252 0.926575 0.929569
0.888890 0.923416 0.929824
0.972933 0.908294 0.930812
0.967409 0.862401 0.928777
0.778308 0.933614 0.928386
0.778387 0.933615 0.928387
0.778512 0.933616 0.928389
0.778902 0.933621 0.928395
0.780115 0.933635 0.928415
0.783923 0.933680 0.928477
0.796521 0.933832 0.928687
0.846521 0.934482 0.929563
0.976266 0.936567 0.932209
