color-grading/luts/03_combined_slog3/BNC_SLog3_L08_Bleach.cube
TITLE "BNC SLog3 L08 Bleach"
# BNC Grade v1.0 - S-Log3/S-Gamut3.Cine -> BNC Base -> Bleach-bypass emulation: heavy contrast, a crushed toe, and cool-leaning desaturation.
# Input: S-Log3 / S-Gamut3.Cine | Output: Rec.709 Gamma 2.4
LUT_3D_SIZE 9
DOMAIN_MIN 0.0 0.0 0.0
DOMAIN_MAX 1.0 1.0 1.0
0.000176 0.000176 0.000176
0.005025 0.002741 0.002435
0.120433 0.072086 0.067097
0.353329 0.192043 0.171687
0.615576 0.326537 0.299410
0.760947 0.464005 0.466856
0.853576 0.673842 0.690538
0.930860 0.861970 0.863374
0.956716 0.938098 0.928695
0.002392 0.003667 0.002350
0.001430 0.001882 0.001228
0.097498 0.059383 0.055678
0.342996 0.186916 0.167230
0.613387 0.327556 0.297923
0.761901 0.467337 0.466845
0.854306 0.675651 0.690783
0.931012 0.862424 0.863479
0.956730 0.938136 0.928707
0.072009 0.133738 0.090225
0.064932 0.123191 0.083650
0.085620 0.112464 0.079942
0.328942 0.183753 0.162557
0.610487 0.331204 0.296552
0.763559 0.473066 0.467010
0.855479 0.678561 0.691186
0.931253 0.863144 0.863645
0.956752 0.938196 0.928727
0.243164 0.385407 0.241072
0.240267 0.381133 0.238574
0.235693 0.374373 0.234622
0.349603 0.375989 0.251471
0.616900 0.391319 0.315764
0.770167 0.495254 0.469285
0.859280 0.688019 0.692561
0.932004 0.865402 0.864166
0.956821 0.938383 0.928788
0.426650 0.665307 0.401512
0.425983 0.664138 0.400812
0.425062 0.662287 0.399725
0.426706 0.657047 0.397157
0.659858 0.682076 0.441767
0.818089 0.645716 0.510847
0.872269 0.720986 0.697943
0.934316 0.872458 0.865788
0.957031 0.938954 0.928974
0.535776 0.814776 0.510804
0.536351 0.814773 0.510677
0.537364 0.814785 0.510497
0.541519 0.814984 0.510126
0.573128 0.818839 0.512774
0.860471 0.867513 0.567244
0.913618 0.853450 0.718517
0.941114 0.894288 0.870543
0.957664 0.940679 0.929522
0.629809 0.862535 0.640276
0.630555 0.862660 0.640287
0.631765 0.862863 0.640309
0.635767 0.863544 0.640426
0.650511 0.866134 0.641282
0.724514 0.880057 0.650170
0.916398 0.913793 0.670319
0.951052 0.937409 0.867422
0.959407 0.945538 0.930842
0.779903 0.911113 0.790490
0.780207 0.911169 0.790528
0.780690 0.911259 0.790587
0.782205 0.911539 0.790775
0.786965 0.912418 0.791372
0.802651 0.915293 0.793438
0.866807 0.926561 0.803259
0.943291 0.938132 0.802032
0.961469 0.954302 0.927928
0.891252 0.940351 0.887696
0.891320 0.940363 0.887709
0.891426 0.940382 0.887729
0.891759 0.940441 0.887791
0.892791 0.940625 0.887986
0.896005 0.941200 0.888599
0.906124 0.943032 0.890592
0.935363 0.948564 0.896708
0.956629 0.951520 0.890697
0.000307 0.000474 0.000935
0.003889 0.002113 0.002149
0.116546 0.070002 0.065258
0.351583 0.191162 0.171215
0.615244 0.325896 0.303845
0.760900 0.463342 0.470487
0.853460 0.673473 0.691797
0.930826 0.861868 0.863607
0.956713 0.938090 0.928712
0.000933 0.001385 0.001070
0.000660 0.000661 0.000662
0.092634 0.056504 0.053010
0.341114 0.185955 0.166554
0.612984 0.326759 0.302019
0.761845 0.466637 0.470437
0.854190 0.675280 0.692043
0.930979 0.862322 0.863712
0.956727 0.938128 0.928724
0.062412 0.119433 0.081300
0.055070 0.108482 0.074428
0.075628 0.097302 0.070380
0.326154 0.180689 0.160785
0.609925 0.330020 0.300038
0.763488 0.472304 0.470537
0.855365 0.678188 0.692447
0.931220 0.863043 0.863879
0.956749 0.938188 0.928744
0.239258 0.379645 0.237712
0.236334 0.375335 0.235191
0.231667 0.368451 0.231161
0.345257 0.369630 0.247748
0.615003 0.386513 0.316018
0.770037 0.494259 0.472576
0.859172 0.687637 0.693828
0.931972 0.865302 0.864402
0.956818 0.938374 0.928805
0.425809 0.663862 0.401622
0.425119 0.662674 0.400886
0.424154 0.660793 0.399739
0.425480 0.655429 0.396955
0.658726 0.680257 0.441149
0.817738 0.643644 0.512975
0.872197 0.720595 0.699235
0.934288 0.872363 0.866031
0.957028 0.938946 0.928991
0.535950 0.814924 0.512511
0.536517 0.814918 0.512378
0.537517 0.814926 0.512188
0.541624 0.815112 0.511784
0.573001 0.818907 0.514294
0.860634 0.867549 0.568376
0.913784 0.853246 0.719959
0.941107 0.894223 0.870821
0.957661 0.940672 0.929540
0.629907 0.862711 0.641441
0.630652 0.862836 0.641452
0.631860 0.863039 0.641475
0.635854 0.863719 0.641592
0.650578 0.866306 0.642450
0.724564 0.880230 0.651342
0.916615 0.913977 0.671458
0.951102 0.937448 0.867819
0.959407 0.945534 0.930864
0.779905 0.911150 0.790786
0.780209 0.911206 0.790823
0.780692 0.911296 0.790883
0.782208 0.911576 0.791071
0.786969 0.912455 0.791670
0.802659 0.915332 0.793739
0.866832 0.926605 0.803575
0.943344 0.938184 0.802374
0.961476 0.954308 0.927971
0.891249 0.940355 0.887746
0.891317 0.940367 0.887759
0.891424 0.940386 0.887779
0.891757 0.940446 0.887842
0.892788 0.940629 0.888036
0.896003 0.941205 0.888650
0.906123 0.943037 0.890644
0.935369 0.948571 0.896764
0.956639 0.951530 0.890766
0.010636 0.028777 0.059849
0.010921 0.029503 0.061395
0.114225 0.069093 0.096739
0.349719 0.189970 0.182168
0.614917 0.325000 0.314020
0.760837 0.462319 0.476602
0.853271 0.672888 0.693806
0.930773 0.861707 0.863974
0.956708 0.938076 0.928738
0.010237 0.026207 0.054375
0.010074 0.025317 0.052486
0.088922 0.055074 0.080626
0.338875 0.184618 0.174405
0.612548 0.325628 0.311610
0.761768 0.465556 0.476486
0.854003 0.674692 0.694053
0.930926 0.862161 0.864080
0.956722 0.938114 0.928750
0.050709 0.097778 0.089975
0.043020 0.086180 0.082732
0.063397 0.074390 0.078060
0.322666 0.177407 0.163740
0.609251 0.328319 0.308579
0.763387 0.471124 0.476487
0.855180 0.677595 0.694460
0.931167 0.862882 0.864248
0.956744 0.938174 0.928770
0.233119 0.370496 0.233015
0.230077 0.366036 0.230297
0.225200 0.358882 0.225962
0.338284 0.359322 0.241848
0.612304 0.379340 0.318971
0.769846 0.492712 0.478163
0.858996 0.687030 0.695850
0.931921 0.865143 0.864775
0.956813 0.938361 0.928831
0.424624 0.661650 0.402644
0.423896 0.660431 0.401835
0.422856 0.658498 0.400571
0.423675 0.652928 0.397368
0.656997 0.677399 0.440597
0.817210 0.640360 0.516729
0.872076 0.719971 0.701298
0.934244 0.872212 0.866416
0.957023 0.938933 0.929018
0.536270 0.815189 0.515414
0.536824 0.815179 0.515270
0.537802 0.815180 0.515061
0.541834 0.815344 0.514606
0.572845 0.819048 0.516908
0.860933 0.867636 0.570352
0.914050 0.852925 0.722277
0.941095 0.894119 0.871260
0.957657 0.940660 0.929569
0.630066 0.862992 0.643304
0.630809 0.863117 0.643315
0.632013 0.863320 0.643338
0.635997 0.863999 0.643457
0.650689 0.866583 0.644318
0.724647 0.880508 0.653222
0.916964 0.914275 0.673296
0.951183 0.937510 0.868448
0.959406 0.945527 0.930900
0.779907 0.911208 0.791255
0.780212 0.911265 0.791293
0.780695 0.911354 0.791352
0.782211 0.911635 0.791541
0.786976 0.912515 0.792142
0.802671 0.915393 0.794218
0.866873 0.926675 0.804077
0.943429 0.938266 0.802917
0.961485 0.954317 0.928037
0.891245 0.940363 0.887826
0.891312 0.940375 0.887838
0.891419 0.940394 0.887859
0.891752 0.940453 0.887921
0.892784 0.940637 0.888116
0.896000 0.941212 0.888730
0.906123 0.943046 0.890726
0.935377 0.948583 0.896854
0.956654 0.951546 0.890877
0.044169 0.116590 0.247014
0.044375 0.116624 0.247083
0.113756 0.123382 0.257657
0.350045 0.197422 0.316170
0.615892 0.324041 0.384352
0.760753 0.459411 0.500036
0.852646 0.671047 0.700196
0.930602 0.861198 0.865113
0.956692 0.938034 0.928819
0.043447 0.115394 0.244458
0.043373 0.115195 0.244035
0.088109 0.118837 0.250133
0.338982 0.192155 0.309848
0.613284 0.324006 0.380795
0.761643 0.462464 0.499647
0.853381 0.672840 0.700449
0.930755 0.861654 0.865221
0.956706 0.938072 0.928832
0.044846 0.116013 0.244201
0.043697 0.114914 0.242634
0.051880 0.114694 0.242493
0.321546 0.183922 0.300043
0.609449 0.325165 0.375490
0.763190 0.467720 0.499193
0.854563 0.675727 0.700865
0.930999 0.862376 0.865392
0.956729 0.938132 0.928852
0.232602 0.352509 0.336492
0.229126 0.347470 0.333590
0.223526 0.339359 0.328954
0.335530 0.340632 0.342372
0.607354 0.360792 0.370306
0.769378 0.488155 0.499357
0.858403 0.685116 0.702284
0.931758 0.864642 0.865930
0.956797 0.938319 0.928913
0.424828 0.657239 0.426463
0.423955 0.655897 0.425284
0.422642 0.653761 0.423419
0.421756 0.647417 0.418098
0.654301 0.670356 0.453493
0.815791 0.630153 0.531937
0.871645 0.717988 0.707871
0.934101 0.871733 0.867608
0.957008 0.938892 0.929102
0.537789 0.816384 0.526804
0.538299 0.816359 0.526612
0.539205 0.816335 0.526327
0.542982 0.816418 0.525624
0.572801 0.819803 0.527068
0.862272 0.868228 0.578378
0.914907 0.851941 0.729780
0.941049 0.893783 0.872619
0.957645 0.940623 0.929658
0.630597 0.863897 0.649256
0.631333 0.864020 0.649268
0.632526 0.864222 0.649292
0.636474 0.864897 0.649415
0.651069 0.867473 0.650299
0.724946 0.881410 0.659274
0.918102 0.915250 0.679310
0.951434 0.937703 0.870419
0.959404 0.945508 0.931011
0.779917 0.911392 0.792730
0.780221 0.911449 0.792768
0.780705 0.911538 0.792828
0.782224 0.911820 0.793019
0.786997 0.912702 0.793627
0.802712 0.915588 0.795722
0.867003 0.926894 0.805656
0.943694 0.938524 0.804626
0.961516 0.954344 0.928244
0.891231 0.940386 0.888074
0.891299 0.940398 0.888087
0.891405 0.940417 0.888107
0.891739 0.940476 0.888170
0.892771 0.940660 0.888365
0.895989 0.941237 0.888981
0.906120 0.943072 0.890983
0.935405 0.948621 0.897132
0.956702 0.951596 0.891220
0.116697 0.220342 0.470985
0.125603 0.220687 0.471641
0.152120 0.222245 0.474277
0.341051 0.249386 0.506932
0.614834 0.337738 0.570929
0.759832 0.454338 0.608688
0.850341 0.665230 0.720957
0.930036 0.859583 0.868550
0.956643 0.937901 0.929066
0.115072 0.220650 0.470269
0.122306 0.220821 0.470706
0.144761 0.221934 0.472732
0.330064 0.246984 0.503679
0.611849 0.336743 0.569168
0.760613 0.456794 0.608379
0.851078 0.666982 0.721234
0.930192 0.860040 0.868664
0.956657 0.937939 0.929079
0.115151 0.222619 0.469979
0.119937 0.222453 0.470075
0.136398 0.222839 0.471233
0.311940 0.243963 0.498755
0.607131 0.335491 0.566473
0.761976 0.461038 0.607992
0.852265 0.669805 0.721689
0.930439 0.860765 0.868846
0.956679 0.937999 0.929099
0.174469 0.283116 0.494714
0.171582 0.278925 0.492629
0.169627 0.272861 0.489797
0.262114 0.267702 0.496645
0.594717 0.340695 0.561138
0.767466 0.477706 0.607822
0.856138 0.679005 0.723235
0.931213 0.863042 0.869415
0.956748 0.938188 0.929162
0.448107 0.659344 0.634273
0.447073 0.657774 0.633476
0.445429 0.655260 0.632202
0.441348 0.647388 0.628326
0.684417 0.680797 0.673392
0.811534 0.599277 0.631287
0.869736 0.711490 0.729331
0.933610 0.870190 0.871201
0.956961 0.938765 0.929355
0.552515 0.827474 0.606875
0.552890 0.827402 0.606542
0.553571 0.827303 0.606028
0.556548 0.827135 0.604570
0.582563 0.829566 0.603121
0.875372 0.877442 0.643190
0.917710 0.849015 0.755497
0.940837 0.892645 0.876703
0.957604 0.940508 0.929926
0.632791 0.867116 0.670079
0.633502 0.867236 0.670085
0.634656 0.867431 0.670099
0.638483 0.868086 0.670191
0.652730 0.870607 0.670983
0.726286 0.884543 0.679924
0.922092 0.918715 0.700639
0.952217 0.938308 0.876571
0.959395 0.945443 0.931347
0.779957 0.911970 0.797389
0.780263 0.912027 0.797428
0.780750 0.912118 0.797491
0.782276 0.912401 0.797688
0.787073 0.913292 0.798317
0.802851 0.916198 0.800476
0.867426 0.927584 0.810654
0.944532 0.939340 0.810059
0.961610 0.954427 0.928877
0.891188 0.940457 0.888839
0.891256 0.940469 0.888852
0.891363 0.940488 0.888872
0.891697 0.940547 0.888935
0.892731 0.940732 0.889132
0.895955 0.941311 0.889754
0.906113 0.943155 0.891774
0.935489 0.948737 0.897992
0.956850 0.951751 0.892282
0.300391 0.340715 0.652012
0.307517 0.341066 0.652870
0.320076 0.341831 0.654458
0.371159 0.346474 0.661686
0.608210 0.390820 0.703633
0.750728 0.444328 0.734338
0.840056 0.646822 0.791599
0.927991 0.854240 0.878188
0.956479 0.937474 0.929788
0.299442 0.343452 0.652768
0.306308 0.343741 0.653574
0.318433 0.344401 0.655073
0.367993 0.348627 0.661964
0.605447 0.391991 0.703632
0.751081 0.445645 0.734720
0.840725 0.648379 0.792017
0.928152 0.854696 0.878319
0.956493 0.937513 0.929802
0.298426 0.348265 0.654182
0.304877 0.348455 0.654905
0.316309 0.348946 0.656263
0.363429 0.352517 0.662622
0.601048 0.394183 0.703736
0.751697 0.447896 0.735383
0.841805 0.650890 0.792693
0.928408 0.855420 0.878526
0.956516 0.937575 0.929824
0.299569 0.367941 0.660666
0.304869 0.367805 0.661147
0.314119 0.367728 0.662058
0.353344 0.369188 0.666727
0.587320 0.404302 0.705130
0.754148 0.456459 0.737988
0.845351 0.659102 0.794931
0.929208 0.857700 0.879177
0.956587 0.937767 0.929891
0.391323 0.539524 0.728526
0.392072 0.537187 0.727809
0.393812 0.533577 0.726762
0.404624 0.523228 0.724380
0.564576 0.514743 0.738965
0.773141 0.513933 0.757193
0.858226 0.688526 0.803221
0.931710 0.864915 0.881245
0.956806 0.938354 0.930096
0.585504 0.851850 0.825979
0.585665 0.851745 0.825971
0.585971 0.851587 0.825968
0.587446 0.851183 0.826057
0.604517 0.852312 0.828798
0.926206 0.918851 0.902464
0.918219 0.830766 0.846722
0.939541 0.888205 0.887964
0.957467 0.940133 0.930711
0.645116 0.881357 0.762386
0.645760 0.881474 0.762429
0.646807 0.881666 0.762502
0.650300 0.882311 0.762779
0.663562 0.884818 0.764165
0.736702 0.899310 0.775707
0.940171 0.935309 0.804582
0.954636 0.940195 0.895683
0.959346 0.945215 0.932322
0.780188 0.913853 0.812875
0.780499 0.913912 0.812919
0.780992 0.914005 0.812989
0.782541 0.914296 0.813210
0.787417 0.915212 0.813915
0.803422 0.918196 0.816312
0.868940 0.929866 0.827392
0.947311 0.942078 0.828485
0.961891 0.954676 0.930773
0.891048 0.940672 0.891199
0.891116 0.940684 0.891212
0.891224 0.940704 0.891232
0.891560 0.940764 0.891298
0.892600 0.940951 0.891500
0.895845 0.941536 0.892137
0.906083 0.943407 0.894215
0.935750 0.949095 0.900650
0.957310 0.952235 0.895568
0.582394 0.550584 0.766277
0.585184 0.550694 0.766606
0.589676 0.550887 0.767137
0.604495 0.551659 0.768916
0.658033 0.555822 0.775538
0.792065 0.565389 0.789868
0.814462 0.589977 0.799841
0.920609 0.836420 0.894150
0.955898 0.936028 0.931698
0.582316 0.552823 0.767040
0.585098 0.552928 0.767366
0.589559 0.553107 0.767890
0.604275 0.553834 0.769645
0.657520 0.557844 0.776191
0.792685 0.567295 0.790564
0.814937 0.591160 0.800281
0.920770 0.836849 0.894307
0.955913 0.936069 0.931713
0.582236 0.556442 0.768277
0.585003 0.556536 0.768598
0.589425 0.556696 0.769112
0.603978 0.557354 0.770829
0.656752 0.561125 0.777258
0.793692 0.570381 0.791693
0.815702 0.593065 0.800991
0.921025 0.837531 0.894556
0.955937 0.936133 0.931738
0.582331 0.568307 0.772362
0.585047 0.568371 0.772670
0.589391 0.568482 0.773162
0.603453 0.568935 0.774770
0.654712 0.571977 0.780836
0.797049 0.580559 0.795432
0.818201 0.599263 0.803305
0.921827 0.839682 0.895341
0.956012 0.936334 0.931814
0.586129 0.610189 0.787009
0.588640 0.610173 0.787280
0.592678 0.610159 0.787717
0.605729 0.610193 0.789137
0.652071 0.611351 0.794261
0.807168 0.617079 0.808877
0.827109 0.621040 0.811500
0.924351 0.846537 0.897832
0.956242 0.936949 0.932049
0.642073 0.799225 0.851464
0.643597 0.799002 0.851652
0.646093 0.798666 0.851966
0.654558 0.797752 0.853086
0.687261 0.796257 0.857882
0.852518 0.797456 0.878122
0.872653 0.726695 0.852657
0.932610 0.869835 0.906188
0.956946 0.938819 0.932763
0.643020 0.891581 0.871772
0.643494 0.891673 0.871873
0.644260 0.891821 0.872037
0.646799 0.892315 0.872581
0.656277 0.894176 0.874620
0.719051 0.906879 0.888404
0.961737 0.956952 0.945630
0.957012 0.939514 0.932620
0.959019 0.944264 0.934805
0.780950 0.919920 0.871025
0.781274 0.919983 0.871092
0.781789 0.920085 0.871199
0.783405 0.920403 0.871534
0.788517 0.921407 0.872599
0.805458 0.924711 0.876179
0.874657 0.937677 0.891386
0.957994 0.953051 0.904133
0.962675 0.955339 0.936054
0.890532 0.941295 0.898398
0.890601 0.941308 0.898413
0.890711 0.941328 0.898435
0.891053 0.941391 0.898505
0.892112 0.941584 0.898723
0.895419 0.942191 0.899411
0.905907 0.944145 0.901663
0.936531 0.950191 0.908797
0.958754 0.953762 0.905733
0.843492 0.804881 0.882411
0.844109 0.804865 0.882454
0.845086 0.804840 0.882522
0.848129 0.804753 0.882726
0.857364 0.804391 0.883279
0.881661 0.801960 0.883998
0.894949 0.778265 0.875925
0.899777 0.784706 0.878607
0.953676 0.930560 0.934739
0.843538 0.805518 0.882642
0.844155 0.805503 0.882686
0.845133 0.805478 0.882754
0.848177 0.805392 0.882960
0.857423 0.805031 0.883515
0.881780 0.802608 0.884245
0.895215 0.778904 0.876181
0.899921 0.785054 0.878746
0.953693 0.930605 0.934758
0.843612 0.806531 0.883009
0.844230 0.806516 0.883053
0.845208 0.806491 0.883122
0.848255 0.806406 0.883329
0.857517 0.806048 0.883891
0.881968 0.803637 0.884637
0.895636 0.779920 0.876588
0.900151 0.785607 0.878967
0.953719 0.930676 0.934788
0.843852 0.809718 0.884162
0.844471 0.809703 0.884207
0.845451 0.809679 0.884277
0.848506 0.809597 0.884490
0.857816 0.809249 0.885068
0.882557 0.806878 0.885868
0.896960 0.783121 0.877868
0.900874 0.787351 0.879663
0.953801 0.930899 0.934882
0.844692 0.819811 0.887776
0.845312 0.819798 0.887825
0.846295 0.819778 0.887901
0.849367 0.819706 0.888132
0.858801 0.819398 0.888771
0.884397 0.817162 0.889748
0.901132 0.793302 0.881927
0.903167 0.792913 0.881879
0.954053 0.931584 0.935173
0.848136 0.853316 0.899212
0.848752 0.853320 0.899278
0.849729 0.853325 0.899383
0.852802 0.853336 0.899705
0.862440 0.853293 0.900635
0.890336 0.851819 0.902448
0.914786 0.827954 0.895536
0.910871 0.812006 0.889428
0.954829 0.933679 0.936068
0.837458 0.922959 0.915932
0.838055 0.923056 0.916056
0.839004 0.923211 0.916252
0.842001 0.923700 0.916869
0.851582 0.925261 0.918836
0.884156 0.930636 0.925527
0.952779 0.938850 0.938889
0.940666 0.894287 0.920654
0.957181 0.939908 0.938790
0.750135 0.916358 0.899236
0.750448 0.916421 0.899305
0.750945 0.916520 0.899414
0.752513 0.916833 0.899759
0.757522 0.917834 0.900862
0.774761 0.921262 0.904653
0.848345 0.935477 0.920610
0.964238 0.961145 0.954111
0.963352 0.955220 0.945675
0.887509 0.942472 0.917546
0.887582 0.942486 0.917562
0.887697 0.942507 0.917588
0.888057 0.942575 0.917669
0.889171 0.942785 0.917920
0.892657 0.943446 0.918712
0.903855 0.945608 0.921327
0.937875 0.952843 0.930267
0.963198 0.958560 0.934793
0.947014 0.933783 0.936599
0.947041 0.933774 0.936598
0.947084 0.933760 0.936596
0.947216 0.933717 0.936590
0.947610 0.933576 0.936568
0.948710 0.933079 0.936459
0.951017 0.930895 0.935741
0.948038 0.915676 0.929488
0.945884 0.908711 0.926710
0.947026 0.933845 0.936626
0.947053 0.933837 0.936624
0.947096 0.933823 0.936623
0.947228 0.933779 0.936617
0.947624 0.933639 0.936595
0.948725 0.933145 0.936488
0.951038 0.930967 0.935772
0.948073 0.915777 0.929529
0.945904 0.908769 0.926733
0.947045 0.933944 0.936668
0.947072 0.933935 0.936667
0.947115 0.933921 0.936665
0.947248 0.933878 0.936659
0.947644 0.933739 0.936638
0.948748 0.933248 0.936532
0.951070 0.931082 0.935822
0.948129 0.915938 0.929595
0.945935 0.908860 0.926769
0.947104 0.934249 0.936798
0.947131 0.934240 0.936797
0.947175 0.934227 0.936796
0.947308 0.934185 0.936791
0.947708 0.934049 0.936771
0.948821 0.933568 0.936671
0.951171 0.931437 0.935977
0.948304 0.916436 0.929798
0.946034 0.909145 0.926882
0.947277 0.935173 0.937193
0.947305 0.935165 0.937193
0.947349 0.935153 0.937192
0.947486 0.935114 0.937189
0.947896 0.934988 0.937175
0.949040 0.934539 0.937092
0.951474 0.932516 0.936448
0.948836 0.917958 0.930421
0.946338 0.910024 0.927231
0.947724 0.937861 0.938345
0.947755 0.937855 0.938346
0.947803 0.937846 0.938347
0.947951 0.937818 0.938351
0.948394 0.937724 0.938357
0.949637 0.937373 0.938330
0.952344 0.935677 0.937844
0.950434 0.922491 0.932304
0.947280 0.912737 0.928316
0.948147 0.944593 0.941139
0.948187 0.944595 0.941146
0.948250 0.944598 0.941156
0.948443 0.944605 0.941187
0.949023 0.944621 0.941277
0.950656 0.944598 0.941487
0.954354 0.943870 0.941577
0.954874 0.934754 0.937639
0.950216 0.921095 0.931736
0.934299 0.951164 0.940398
0.934385 0.951184 0.940422
0.934522 0.951214 0.940459
0.934946 0.951308 0.940575
0.936234 0.951598 0.940931
0.940019 0.952463 0.941999
0.949791 0.954809 0.944944
0.963425 0.956891 0.948639
0.959111 0.945025 0.942489
0.863843 0.938911 0.924562
0.863923 0.938926 0.924578
0.864049 0.938949 0.924605
0.864443 0.939021 0.924688
0.865665 0.939246 0.924945
0.869503 0.939952 0.925755
0.882105 0.942283 0.928436
0.926995 0.951244 0.938870
0.964236 0.962001 0.957059
