color-grading/luts/03_combined_slog3/BNC_SLog3_L01_Clean.cube
TITLE "BNC SLog3 L01 Clean"
# BNC Grade v1.0 — S-Log3/S-Gamut3.Cine -> BNC Base -> A neutral, true-to-life grade with a light punch -- the default 'just make it look intentional' pass.
# Input: S-Log3 / S-Gamut3.Cine | Output: Rec.709 Gamma 2.4
LUT_3D_SIZE 9
DOMAIN_MIN 0.0 0.0 0.0
DOMAIN_MAX 1.0 1.0 1.0
0.007440 0.007440 0.007440
0.067720 0.000000 0.005438
0.216746 0.006713 0.013222
0.453197 0.012246 0.063023
0.731666 0.161318 0.197654
0.901819 0.348810 0.398827
0.950400 0.590971 0.642407
0.967753 0.770219 0.804942
0.972652 0.868463 0.891003
0.000059 0.055587 0.003641
0.026595 0.039503 0.000000
0.195431 0.024964 0.003741
0.442712 0.055295 0.052899
0.728833 0.172454 0.193156
0.901736 0.354170 0.396592
0.950468 0.592897 0.641699
0.967769 0.770651 0.804788
0.972656 0.868556 0.890972
0.008931 0.205084 0.011863
0.012749 0.196535 0.007796
0.164107 0.184681 0.007075
0.427290 0.132868 0.033401
0.724393 0.193602 0.185933
0.901617 0.363173 0.393024
0.950576 0.595992 0.640571
0.967796 0.771338 0.804545
0.972662 0.868704 0.890923
0.014722 0.426399 0.045788
0.010493 0.422533 0.036865
0.056261 0.416412 0.014539
0.369637 0.399155 0.016561
0.712663 0.319177 0.160813
0.901338 0.396001 0.381625
0.950912 0.606010 0.636998
0.967876 0.773501 0.803779
0.972680 0.869166 0.890769
0.018361 0.697290 0.129300
0.020623 0.696406 0.123439
0.040869 0.695010 0.112968
0.162356 0.689239 0.105506
0.640188 0.671244 0.034132
0.900289 0.580717 0.340666
0.951874 0.640645 0.625362
0.968117 0.780359 0.801367
0.972735 0.870603 0.890292
0.182165 0.870793 0.280531
0.187039 0.870609 0.279891
0.194966 0.870318 0.278880
0.221736 0.869412 0.275734
0.343847 0.866754 0.266307
0.830020 0.851924 0.228499
0.950376 0.784765 0.579325
0.968732 0.803624 0.793356
0.972898 0.875133 0.888768
0.396944 0.932315 0.512198
0.398801 0.932322 0.511959
0.401784 0.932335 0.511581
0.411432 0.932380 0.510394
0.444602 0.932584 0.506680
0.580150 0.933867 0.494524
0.921955 0.931503 0.446340
0.966206 0.896800 0.757787
0.973279 0.889992 0.883475
0.619809 0.955379 0.699662
0.620282 0.955386 0.699615
0.621031 0.955396 0.699539
0.623376 0.955430 0.699302
0.630703 0.955533 0.698570
0.654412 0.955867 0.696274
0.746400 0.957083 0.688743
0.953522 0.956590 0.655580
0.971362 0.939403 0.856588
0.757418 0.964971 0.807807
0.757515 0.964973 0.807798
0.757670 0.964976 0.807784
0.758152 0.964984 0.807742
0.759650 0.965011 0.807610
0.764355 0.965094 0.807200
0.779728 0.965358 0.805914
0.838318 0.966204 0.801593
0.964903 0.965826 0.779447
0.007478 0.006652 0.031925
0.061129 0.000000 0.032574
0.213179 0.000000 0.037622
0.450868 0.009467 0.091848
0.731127 0.158725 0.211635
0.901718 0.347517 0.405793
0.950357 0.590495 0.644688
0.967743 0.770112 0.805446
0.972650 0.868440 0.891105
0.003697 0.033355 0.022937
0.019692 0.019692 0.019692
0.191154 0.005925 0.022701
0.440715 0.047149 0.081180
0.728274 0.169660 0.207011
0.901636 0.352840 0.403553
0.950426 0.592419 0.643984
0.967759 0.770544 0.805292
0.972654 0.868533 0.891074
0.006915 0.193444 0.021937
0.006481 0.184440 0.017610
0.158566 0.171817 0.003604
0.424787 0.120264 0.065068
0.723796 0.190323 0.199606
0.901519 0.361780 0.399977
0.950535 0.595510 0.642861
0.967785 0.771231 0.805049
0.972660 0.868681 0.891025
0.000446 0.421032 0.061907
0.013097 0.417075 0.056980
0.023488 0.411388 0.014554
0.367209 0.393238 0.012920
0.711836 0.312087 0.174548
0.901252 0.394380 0.388554
0.950876 0.605515 0.639305
0.967867 0.773393 0.804284
0.972678 0.869143 0.890872
0.030452 0.695753 0.142628
0.030701 0.694854 0.137415
0.035020 0.693523 0.126842
0.160076 0.687678 0.119593
0.639575 0.669468 0.066438
0.900354 0.578078 0.347611
0.951858 0.640115 0.627720
0.968109 0.780250 0.801875
0.972733 0.870580 0.890395
0.181365 0.870639 0.286046
0.186237 0.870454 0.285403
0.194157 0.870161 0.284384
0.220899 0.869248 0.281215
0.342815 0.866568 0.271701
0.830028 0.851673 0.233653
0.950475 0.784226 0.581824
0.968730 0.803511 0.793876
0.972896 0.875110 0.888872
0.396544 0.932364 0.514181
0.398400 0.932371 0.513944
0.401381 0.932384 0.513568
0.411026 0.932429 0.512389
0.444193 0.932633 0.508698
0.579816 0.933919 0.496611
0.922027 0.931543 0.448543
0.966234 0.896712 0.758356
0.973278 0.889971 0.883585
0.619717 0.955392 0.700110
0.620189 0.955399 0.700062
0.620939 0.955409 0.699987
0.623285 0.955443 0.699751
0.630614 0.955547 0.699019
0.654329 0.955881 0.696728
0.746340 0.957100 0.689209
0.953545 0.956609 0.656074
0.971369 0.939391 0.856714
0.757400 0.964974 0.807899
0.757498 0.964976 0.807891
0.757652 0.964979 0.807877
0.758135 0.964987 0.807834
0.759633 0.965014 0.807702
0.764338 0.965097 0.807293
0.779712 0.965361 0.806007
0.838307 0.966208 0.801689
0.964909 0.965831 0.779551
0.010825 0.003701 0.160734
0.051986 0.000779 0.162532
0.208640 0.005395 0.169059
0.447505 0.000000 0.166165
0.730270 0.154672 0.237577
0.901546 0.345476 0.417301
0.950286 0.589741 0.648327
0.967726 0.769942 0.806245
0.972646 0.868404 0.891267
0.010558 0.000064 0.156358
0.018896 0.003486 0.153287
0.184710 0.005739 0.158444
0.437759 0.032793 0.154533
0.727389 0.165297 0.232730
0.901467 0.350740 0.415041
0.950356 0.591661 0.647628
0.967743 0.770374 0.806092
0.972650 0.868497 0.891236
0.007514 0.175196 0.156466
0.000166 0.165190 0.153312
0.150938 0.150938 0.150938
0.421153 0.102415 0.137095
0.722858 0.185242 0.224987
0.901354 0.359582 0.411455
0.950468 0.594745 0.646514
0.967769 0.771061 0.805849
0.972656 0.868645 0.891187
0.018423 0.412626 0.113362
0.017879 0.408527 0.109569
0.016747 0.402513 0.097652
0.363621 0.383925 0.064768
0.710561 0.301216 0.199494
0.901106 0.391824 0.400006
0.950816 0.604731 0.642984
0.967851 0.773222 0.805086
0.972674 0.869107 0.891034
0.022263 0.693469 0.163818
0.020382 0.692547 0.159349
0.022753 0.691177 0.150568
0.156518 0.685212 0.143508
0.638637 0.666655 0.100994
0.900458 0.573860 0.359122
0.951829 0.639275 0.631484
0.968096 0.780078 0.802682
0.972730 0.870543 0.890558
0.180120 0.870404 0.295210
0.184986 0.870217 0.294559
0.192896 0.869921 0.293530
0.219591 0.868997 0.290326
0.341190 0.866283 0.280685
0.830049 0.851283 0.242192
0.950632 0.783372 0.585823
0.968727 0.803332 0.794701
0.972893 0.875074 0.889038
0.395910 0.932442 0.517341
0.397765 0.932450 0.517106
0.400744 0.932462 0.516734
0.410382 0.932507 0.515568
0.443544 0.932712 0.511914
0.579287 0.934003 0.499942
0.922142 0.931607 0.452075
0.966279 0.896572 0.759260
0.973278 0.889936 0.883759
0.619570 0.955412 0.700821
0.620043 0.955419 0.700773
0.620793 0.955430 0.700698
0.623141 0.955463 0.700463
0.630474 0.955567 0.699733
0.654198 0.955903 0.697448
0.746245 0.957125 0.689950
0.953581 0.956639 0.656859
0.971379 0.939374 0.856914
0.757373 0.964978 0.808046
0.757470 0.964980 0.808038
0.757625 0.964983 0.808024
0.758107 0.964992 0.807981
0.759605 0.965018 0.807849
0.764311 0.965102 0.807440
0.779687 0.965366 0.806156
0.838290 0.966214 0.801841
0.964918 0.965838 0.779714
0.042790 0.006299 0.369538
0.072833 0.000152 0.369496
0.194606 0.010709 0.373353
0.436408 0.011260 0.378707
0.727135 0.142363 0.368780
0.900880 0.339146 0.459327
0.950044 0.587380 0.659876
0.967672 0.769410 0.808756
0.972635 0.868290 0.891771
0.037220 0.010697 0.370050
0.059001 0.005199 0.368881
0.169136 0.000154 0.370685
0.425641 0.009657 0.374386
0.724206 0.152090 0.363552
0.900813 0.344232 0.456888
0.950118 0.589287 0.659196
0.967689 0.769842 0.808604
0.972639 0.868384 0.891741
0.023950 0.100096 0.369856
0.041462 0.090722 0.368097
0.120870 0.077675 0.367447
0.409167 0.052044 0.368353
0.719577 0.170138 0.355110
0.900719 0.352772 0.453010
0.950236 0.592352 0.658111
0.967716 0.770528 0.808362
0.972644 0.868531 0.891692
0.009309 0.387482 0.360638
0.006574 0.382809 0.359284
0.014999 0.375470 0.357300
0.355768 0.355767 0.355767
0.706661 0.270274 0.327698
0.900545 0.383915 0.440767
0.950607 0.602276 0.654674
0.967800 0.772688 0.807604
0.972663 0.868994 0.891540
0.029914 0.686829 0.268671
0.023106 0.685825 0.265862
0.030673 0.684232 0.261280
0.144177 0.678180 0.252393
0.636433 0.658386 0.222124
0.900761 0.560437 0.399578
0.951715 0.636641 0.643461
0.968052 0.779540 0.805218
0.972719 0.870430 0.891066
0.176447 0.869759 0.327675
0.181288 0.869565 0.327010
0.189154 0.869259 0.325956
0.215677 0.868302 0.322671
0.336213 0.865480 0.312716
0.830222 0.850156 0.272846
0.951121 0.780686 0.598635
0.968714 0.802774 0.797292
0.972884 0.874961 0.889554
0.393929 0.932692 0.527349
0.395778 0.932700 0.527122
0.398750 0.932712 0.526761
0.408368 0.932758 0.525632
0.441510 0.932964 0.522112
0.577631 0.934274 0.510545
0.922519 0.931824 0.463447
0.966420 0.896134 0.762093
0.973278 0.889828 0.884302
0.619113 0.955476 0.703054
0.619586 0.955483 0.703007
0.620337 0.955494 0.702932
0.622689 0.955528 0.702699
0.630035 0.955633 0.701976
0.653789 0.955971 0.699711
0.745950 0.957206 0.692278
0.953696 0.956735 0.659327
0.971410 0.939318 0.857537
0.757286 0.964992 0.808505
0.757384 0.964994 0.808497
0.757539 0.964997 0.808483
0.758021 0.965005 0.808440
0.759520 0.965032 0.808309
0.764227 0.965116 0.807901
0.779610 0.965381 0.806620
0.838236 0.966232 0.802317
0.964945 0.965861 0.780225
0.149991 0.102704 0.654074
0.168095 0.101067 0.654028
0.205454 0.098609 0.654237
0.411611 0.088294 0.657208
0.715547 0.092918 0.658293
0.896950 0.318908 0.637220
0.949090 0.580006 0.697212
0.967485 0.767753 0.816663
0.972598 0.867940 0.893331
0.143640 0.115095 0.652968
0.160733 0.113259 0.652858
0.195697 0.110496 0.652932
0.399411 0.100369 0.655642
0.712190 0.102562 0.656654
0.896800 0.323626 0.635501
0.949174 0.581872 0.696606
0.967504 0.768184 0.816515
0.972602 0.868033 0.893300
0.134084 0.138202 0.651515
0.149718 0.135956 0.651299
0.181462 0.132555 0.651162
0.378971 0.121803 0.653314
0.706787 0.119013 0.654085
0.896573 0.331531 0.632752
0.949308 0.584872 0.695641
0.967533 0.768868 0.816279
0.972608 0.868181 0.893253
0.104057 0.270331 0.653667
0.117025 0.264725 0.652945
0.142259 0.256155 0.651944
0.305362 0.232046 0.651141
0.689685 0.191770 0.646761
0.896423 0.359558 0.624015
0.949734 0.594593 0.692576
0.967623 0.771023 0.815538
0.972626 0.868643 0.893103
0.027814 0.665547 0.636571
0.015346 0.664190 0.636317
0.021668 0.662002 0.635912
0.073157 0.655735 0.635356
0.635927 0.635927 0.635927
0.899549 0.516846 0.593822
0.951100 0.628364 0.682532
0.967897 0.777860 0.813205
0.972684 0.870079 0.892637
0.168977 0.869423 0.491280
0.173568 0.869213 0.490629
0.181032 0.868882 0.489596
0.206252 0.867854 0.486344
0.321345 0.864899 0.476013
0.832978 0.848823 0.435853
0.952562 0.772192 0.641398
0.968651 0.801031 0.805460
0.972855 0.874611 0.891149
0.387765 0.933578 0.561404
0.389598 0.933585 0.561184
0.392544 0.933597 0.560835
0.402095 0.933640 0.559744
0.435158 0.933845 0.556355
0.572464 0.935202 0.545515
0.923837 0.932643 0.501826
0.966857 0.894763 0.770995
0.973274 0.889493 0.885979
0.617692 0.955677 0.710096
0.618168 0.955684 0.710050
0.618923 0.955695 0.709978
0.621286 0.955730 0.709751
0.628672 0.955838 0.709049
0.652521 0.956186 0.706850
0.745035 0.957459 0.699628
0.954057 0.957040 0.667140
0.971507 0.939145 0.859472
0.757020 0.965035 0.809932
0.757118 0.965036 0.809923
0.757272 0.965039 0.809910
0.757756 0.965048 0.809868
0.759255 0.965075 0.809737
0.763968 0.965160 0.809333
0.779371 0.965427 0.808063
0.838068 0.966288 0.803796
0.965029 0.965932 0.781811
0.322770 0.261964 0.880807
0.332467 0.261106 0.880739
0.349114 0.259752 0.880621
0.413168 0.255492 0.880096
0.690258 0.238444 0.875600
0.889614 0.259139 0.870641
0.944004 0.556127 0.829762
0.966719 0.762466 0.842708
0.972471 0.866844 0.898159
0.319149 0.267690 0.880672
0.328663 0.266802 0.880607
0.344994 0.265402 0.880493
0.407861 0.261021 0.879995
0.686333 0.243831 0.875570
0.889255 0.262417 0.870419
0.944094 0.557848 0.829433
0.966740 0.762893 0.842571
0.972475 0.866937 0.898130
0.313532 0.277301 0.880462
0.322760 0.276359 0.880400
0.338603 0.274878 0.880293
0.399623 0.270275 0.879834
0.679946 0.252786 0.875534
0.888676 0.267894 0.870065
0.944238 0.560617 0.828909
0.966774 0.763571 0.842355
0.972482 0.867085 0.898085
0.296865 0.313162 0.879859
0.305254 0.311972 0.879805
0.319660 0.310105 0.879715
0.375206 0.304393 0.879358
0.658568 0.284895 0.875536
0.886791 0.287631 0.868924
0.944707 0.569605 0.827246
0.966881 0.765707 0.841674
0.972502 0.867546 0.897943
0.247522 0.528102 0.882213
0.254404 0.525315 0.882151
0.265942 0.520912 0.882059
0.308702 0.507293 0.881836
0.575421 0.466215 0.880329
0.883277 0.393086 0.868018
0.946356 0.601050 0.821813
0.967209 0.772488 0.839532
0.972564 0.868982 0.897500
0.083201 0.859659 0.838519
0.091315 0.859401 0.838526
0.103230 0.858992 0.838538
0.137279 0.857715 0.838594
0.258057 0.853966 0.839098
0.842189 0.842189 0.842189
0.953089 0.741830 0.798942
0.968208 0.795450 0.832423
0.972750 0.873514 0.896089
0.368064 0.937293 0.702390
0.369833 0.937303 0.702263
0.372682 0.937319 0.702063
0.381965 0.937378 0.701440
0.414600 0.937642 0.699529
0.555913 0.939428 0.693678
0.929959 0.937200 0.663944
0.968205 0.890325 0.800393
0.973242 0.888436 0.891181
0.613220 0.956326 0.733410
0.613703 0.956333 0.733369
0.614468 0.956345 0.733305
0.616868 0.956383 0.733103
0.624375 0.956503 0.732478
0.648551 0.956885 0.730516
0.742173 0.958295 0.724064
0.955266 0.958077 0.693314
0.971810 0.938599 0.865543
0.756194 0.965168 0.814444
0.756292 0.965170 0.814436
0.756447 0.965173 0.814423
0.756932 0.965182 0.814382
0.758437 0.965210 0.814255
0.763166 0.965297 0.813863
0.778630 0.965573 0.812630
0.837551 0.966465 0.808479
0.965295 0.966156 0.786802
0.578301 0.502400 0.939912
0.582133 0.501916 0.939863
0.588277 0.501145 0.939782
0.608320 0.498708 0.939491
0.678634 0.490744 0.938140
0.883709 0.461049 0.931566
0.935535 0.486611 0.930570
0.962969 0.744534 0.926767
0.971974 0.863326 0.913270
0.576811 0.505113 0.940040
0.580645 0.504626 0.939993
0.586769 0.503852 0.939913
0.606742 0.501403 0.939629
0.676867 0.493406 0.938301
0.883362 0.463588 0.931647
0.935564 0.488092 0.930606
0.962991 0.744941 0.926721
0.971979 0.863418 0.913246
0.574444 0.509468 0.940245
0.578280 0.508978 0.940199
0.584387 0.508197 0.940122
0.604248 0.505730 0.939848
0.674070 0.497680 0.938557
0.882806 0.467669 0.931779
0.935611 0.490468 0.930665
0.963026 0.745587 0.926649
0.971986 0.863565 0.913207
0.567000 0.523519 0.940886
0.570838 0.523017 0.940846
0.576948 0.522220 0.940780
0.596499 0.519700 0.940539
0.665347 0.511495 0.939367
0.881032 0.480875 0.932240
0.935768 0.498131 0.930862
0.963138 0.747624 0.926419
0.972009 0.864025 0.913087
0.543457 0.570970 0.942826
0.547259 0.570450 0.942809
0.553334 0.569623 0.942778
0.572671 0.567010 0.942654
0.638435 0.558529 0.941907
0.869295 0.525798 0.935022
0.936791 0.523786 0.932037
0.963490 0.754099 0.925682
0.972080 0.865454 0.912714
0.461958 0.768637 0.945523
0.465384 0.768050 0.945590
0.470899 0.767120 0.945699
0.488817 0.764207 0.946047
0.550391 0.755043 0.947157
0.804713 0.719823 0.946785
0.941888 0.637714 0.937654
0.964672 0.776089 0.923091
0.972300 0.869972 0.911525
0.303840 0.937497 0.931094
0.305534 0.937502 0.931125
0.308248 0.937511 0.931174
0.316983 0.937544 0.931334
0.346799 0.937711 0.931890
0.490452 0.939580 0.934792
0.940243 0.940243 0.940243
0.969360 0.871947 0.908766
0.972963 0.884956 0.907412
0.598407 0.958543 0.827637
0.598910 0.958553 0.827619
0.599709 0.958570 0.827589
0.602213 0.958621 0.827498
0.610072 0.958785 0.827216
0.635530 0.959319 0.826338
0.732793 0.961373 0.823481
0.960178 0.962569 0.801516
0.972742 0.936776 0.885138
0.753604 0.965596 0.829538
0.753703 0.965598 0.829530
0.753860 0.965602 0.829518
0.754350 0.965611 0.829482
0.755870 0.965642 0.829369
0.760649 0.965737 0.829020
0.776302 0.966042 0.827923
0.835937 0.967047 0.824203
0.966159 0.966896 0.803290
0.784934 0.728727 0.963924
0.785870 0.728589 0.963906
0.787357 0.728370 0.963875
0.792033 0.727681 0.963778
0.806840 0.725493 0.963441
0.856720 0.717964 0.962001
0.943964 0.688653 0.957627
0.958594 0.694134 0.957243
0.969846 0.851211 0.957443
0.784553 0.729381 0.963958
0.785488 0.729244 0.963939
0.786974 0.729025 0.963909
0.791649 0.728336 0.963813
0.806448 0.726148 0.963477
0.856301 0.718622 0.962045
0.943960 0.689281 0.957661
0.958611 0.694473 0.957260
0.969850 0.851300 0.957437
0.783948 0.730421 0.964011
0.784883 0.730283 0.963993
0.786368 0.730064 0.963963
0.791039 0.729376 0.963867
0.805828 0.727188 0.963536
0.855637 0.719666 0.962114
0.943954 0.690277 0.957717
0.958637 0.695012 0.957287
0.969858 0.851441 0.957426
0.782057 0.733689 0.964175
0.782990 0.733551 0.964158
0.784472 0.733333 0.964129
0.789132 0.732644 0.964037
0.803888 0.730459 0.963717
0.853560 0.722949 0.962331
0.943932 0.693413 0.957890
0.958721 0.696711 0.957373
0.969881 0.851881 0.957392
0.776180 0.744012 0.964670
0.777107 0.743875 0.964655
0.778578 0.743656 0.964630
0.783207 0.742970 0.964550
0.797863 0.740791 0.964268
0.847103 0.733322 0.962997
0.943850 0.703342 0.958437
0.958986 0.702115 0.957647
0.969953 0.853253 0.957287
0.757464 0.778320 0.966014
0.758372 0.778185 0.966008
0.759815 0.777970 0.965998
0.764352 0.777293 0.965964
0.778716 0.775148 0.965824
0.826829 0.767839 0.964991
0.943405 0.736671 0.960246
0.959886 0.720520 0.958576
0.970180 0.857609 0.956944
0.687074 0.904751 0.964662
0.687923 0.904662 0.964689
0.689272 0.904521 0.964733
0.693513 0.904077 0.964869
0.706948 0.902676 0.965297
0.752119 0.897980 0.966672
0.926494 0.872413 0.967334
0.963661 0.799996 0.962459
0.970936 0.872261 0.955691
0.540710 0.957806 0.957096
0.541243 0.957818 0.957108
0.542090 0.957836 0.957128
0.544755 0.957894 0.957189
0.553182 0.958078 0.957386
0.581280 0.958718 0.958060
0.689905 0.961459 0.960904
0.967333 0.967333 0.967332
0.973656 0.927753 0.947306
0.745039 0.966949 0.889847
0.745141 0.966952 0.889844
0.745302 0.966956 0.889840
0.745807 0.966969 0.889829
0.747372 0.967010 0.889792
0.752302 0.967140 0.889681
0.768529 0.967562 0.889333
0.830607 0.969086 0.888105
0.969575 0.969986 0.872645
0.899879 0.862539 0.971877
0.900064 0.862503 0.971872
0.900359 0.862445 0.971864
0.901276 0.862266 0.971839
0.904104 0.861705 0.971761
0.912777 0.859905 0.971500
0.938247 0.853535 0.970538
0.964752 0.826367 0.968336
0.967657 0.816751 0.967742
0.899797 0.862684 0.971884
0.899983 0.862648 0.971879
0.900277 0.862591 0.971871
0.901195 0.862411 0.971847
0.904023 0.861851 0.971769
0.912700 0.860052 0.971508
0.938184 0.853684 0.970547
0.964756 0.826512 0.968343
0.967660 0.816826 0.967746
0.899668 0.862914 0.971896
0.899854 0.862878 0.971891
0.900148 0.862821 0.971883
0.901067 0.862642 0.971859
0.903896 0.862082 0.971781
0.912577 0.860284 0.971521
0.938083 0.853921 0.970561
0.964761 0.826743 0.968355
0.967666 0.816943 0.967752
0.899264 0.863633 0.971932
0.899450 0.863597 0.971928
0.899745 0.863540 0.971920
0.900665 0.863361 0.971896
0.903498 0.862803 0.971819
0.912194 0.861009 0.971561
0.937769 0.854661 0.970605
0.964778 0.827463 0.968390
0.967685 0.817311 0.967769
0.898008 0.865855 0.972044
0.898195 0.865819 0.972039
0.898491 0.865762 0.972032
0.899415 0.865585 0.972008
0.902260 0.865032 0.971934
0.911001 0.863253 0.971683
0.936789 0.856952 0.970740
0.964830 0.829702 0.968500
0.967742 0.818455 0.967824
0.894029 0.872753 0.972372
0.894218 0.872718 0.972368
0.894517 0.872663 0.972362
0.895452 0.872492 0.972342
0.898333 0.871956 0.972277
0.907208 0.870232 0.972053
0.933638 0.864097 0.971159
0.964989 0.836760 0.968845
0.967923 0.822081 0.967996
0.880597 0.894291 0.973159
0.880792 0.894261 0.973158
0.881100 0.894214 0.973156
0.882062 0.894065 0.973150
0.885036 0.893600 0.973129
0.894273 0.892093 0.973031
0.922569 0.886634 0.972410
0.965438 0.859939 0.969954
0.968526 0.834321 0.968573
0.822190 0.952580 0.971024
0.822385 0.952571 0.971030
0.822693 0.952557 0.971041
0.823655 0.952514 0.971073
0.826647 0.952377 0.971173
0.836088 0.951942 0.971489
0.867243 0.950400 0.972514
0.963494 0.937744 0.973436
0.970974 0.886569 0.970928
0.710302 0.966610 0.966532
0.710411 0.966613 0.966535
0.710583 0.966618 0.966540
0.711122 0.966634 0.966555
0.712794 0.966681 0.966602
0.718042 0.966831 0.966751
0.735389 0.967330 0.967246
0.804421 0.969356 0.969260
0.974215 0.974215 0.974214
