color-grading/luts/03_combined_slog3/BNC_SLog3_L10_Faded.cube
TITLE "BNC SLog3 L10 Faded"
# BNC Grade v1.0 — S-Log3/S-Gamut3.Cine -> BNC Base -> Faded, lifted-black low-contrast look with a soft highlight shoulder, like a sun-faded print.
# Input: S-Log3 / S-Gamut3.Cine | Output: Rec.709 Gamma 2.4
LUT_3D_SIZE 5
DOMAIN_MIN 0.0 0.0 0.0
DOMAIN_MAX 1.0 1.0 1.0
0.080566 0.062900 0.053219
0.271437 0.090971 0.080646
0.690348 0.279755 0.286497
0.903658 0.619149 0.640716
0.964140 0.844199 0.831248
0.179848 0.249626 0.011346
0.243577 0.240930 0.090477
0.684954 0.299165 0.280376
0.904140 0.623096 0.639484
0.964170 0.844380 0.831196
0.420574 0.662594 0.125292
0.424224 0.660195 0.124891
0.657809 0.663528 0.265282
0.908492 0.658280 0.629391
0.964405 0.845801 0.830779
0.632265 0.873108 0.467387
0.634749 0.873093 0.467190
0.657099 0.873152 0.466529
0.913978 0.893576 0.502877
0.966717 0.860536 0.826348
0.834310 0.927913 0.745623
0.834475 0.927920 0.745638
0.835769 0.927979 0.745760
0.848483 0.928695 0.747324
0.970512 0.941346 0.754873
0.093851 0.083906 0.195492
0.265870 0.093150 0.211750
0.689299 0.275738 0.313822
0.903561 0.618258 0.645092
0.964138 0.844163 0.831444
0.136624 0.232947 0.208120
0.231358 0.214734 0.205896
0.683740 0.293633 0.306288
0.904045 0.622192 0.643875
0.964168 0.844344 0.831392
0.415294 0.660363 0.166301
0.418843 0.657855 0.165101
0.655594 0.660106 0.279396
0.908420 0.657284 0.633898
0.964403 0.845765 0.830976
0.631141 0.873435 0.472011
0.633632 0.873418 0.471809
0.656068 0.873456 0.471086
0.914147 0.893702 0.507060
0.966718 0.860500 0.826554
0.834267 0.927930 0.745802
0.834432 0.927938 0.745817
0.835727 0.927996 0.745938
0.848451 0.928710 0.747500
0.970531 0.941361 0.755073
0.226427 0.219622 0.595011
0.269420 0.218003 0.596802
0.679602 0.257500 0.629981
0.902658 0.611257 0.681327
0.964121 0.843879 0.832984
0.217595 0.239201 0.594805
0.252862 0.236113 0.595556
0.672911 0.266291 0.626832
0.903151 0.615084 0.680271
0.964151 0.844060 0.832932
0.289496 0.657223 0.627577
0.293437 0.654051 0.626849
0.650523 0.642356 0.633492
0.907685 0.649391 0.671582
0.964387 0.845480 0.832523
0.620933 0.876482 0.511946
0.623493 0.876447 0.511656
0.646745 0.876298 0.510106
0.915716 0.894940 0.543706
0.966725 0.860217 0.828169
0.833924 0.928068 0.747208
0.834090 0.928075 0.747223
0.835393 0.928133 0.747342
0.848204 0.928832 0.748884
0.970676 0.941473 0.756649
0.593554 0.539965 0.861325
0.601310 0.539281 0.861389
0.672441 0.534161 0.861811
0.889357 0.542516 0.860913
0.963861 0.841065 0.848504
0.591335 0.545494 0.861649
0.599040 0.544789 0.861713
0.669439 0.539486 0.862130
0.889676 0.545427 0.861052
0.963893 0.841244 0.848460
0.575390 0.594131 0.864439
0.582809 0.593310 0.864514
0.647786 0.586899 0.864985
0.892689 0.571194 0.862348
0.964146 0.842661 0.848107
0.510512 0.896655 0.861030
0.512622 0.896691 0.861134
0.532026 0.897117 0.862071
0.933599 0.905109 0.874090
0.966690 0.857406 0.844380
0.830159 0.929589 0.761995
0.830337 0.929595 0.762006
0.831728 0.929639 0.762095
0.845456 0.930193 0.763381
0.972135 0.942624 0.772699
0.890860 0.840559 0.911447
0.891217 0.840497 0.911439
0.894028 0.840009 0.911372
0.922845 0.834518 0.910487
0.956831 0.806625 0.907148
0.890751 0.840847 0.911476
0.891109 0.840786 0.911468
0.893919 0.840298 0.911401
0.922727 0.834813 0.910518
0.956861 0.806776 0.907161
0.889903 0.843106 0.911699
0.890259 0.843045 0.911691
0.893061 0.842562 0.911627
0.921802 0.837127 0.910761
0.957096 0.807971 0.907265
0.881511 0.865557 0.913875
0.881858 0.865502 0.913871
0.884590 0.865066 0.913843
0.912658 0.860117 0.913211
0.959556 0.820427 0.908370
0.774757 0.941545 0.909302
0.774958 0.941557 0.909314
0.776536 0.941658 0.909408
0.792756 0.942706 0.910337
0.983453 0.953008 0.919858
