color-grading/luts/03_combined_slog3/BNC_SLog3_L06_Nostalgic.cube
TITLE "BNC SLog3 L06 Nostalgic"
# BNC Grade v1.0 - S-Log3/S-Gamut3.Cine -> BNC Base -> Soft vintage look: lifted blacks, warm greens, cyan-leaning shadows and a gentle highlight shoulder.
# Input: S-Log3 / S-Gamut3.Cine | Output: Rec.709 Gamma 2.4
LUT_3D_SIZE 5
DOMAIN_MIN 0.0 0.0 0.0
DOMAIN_MAX 1.0 1.0 1.0
0.029886 0.033920 0.036817
0.215044 0.081130 0.070062
0.686049 0.219369 0.242064
0.920839 0.585614 0.607839
0.974064 0.853118 0.826652
0.130466 0.212720 0.070432
0.178403 0.205439 0.084148
0.680746 0.241778 0.235159
0.921628 0.590142 0.606172
0.974077 0.853340 0.826652
0.474390 0.629591 0.000000
0.475335 0.627233 0.000000
0.663420 0.638951 0.164049
0.928465 0.630170 0.591798
0.974173 0.855081 0.826665
0.681431 0.846423 0.376535
0.683768 0.846380 0.375816
0.705026 0.846200 0.370419
0.941186 0.873631 0.417003
0.974965 0.872620 0.827631
0.874186 0.911871 0.711680
0.874382 0.911868 0.711655
0.875915 0.911843 0.711460
0.890947 0.911665 0.709658
0.973632 0.935950 0.831589
0.034325 0.066795 0.137812
0.208243 0.077691 0.191459
0.684798 0.214760 0.272263
0.920679 0.584577 0.612858
0.974067 0.853082 0.826845
0.058158 0.194099 0.183839
0.158206 0.178809 0.181928
0.679268 0.235585 0.263835
0.921474 0.589096 0.611219
0.974080 0.853304 0.826845
0.465141 0.628150 0.000000
0.466183 0.625652 0.000000
0.660762 0.635880 0.186271
0.928381 0.629081 0.597088
0.974176 0.855046 0.826858
0.680211 0.847108 0.383216
0.682555 0.847065 0.382510
0.703907 0.846869 0.377190
0.941501 0.873967 0.421785
0.974972 0.872589 0.827825
0.874109 0.911916 0.711940
0.874305 0.911913 0.711915
0.875839 0.911888 0.711719
0.890887 0.911708 0.709916
0.973647 0.935975 0.831756
0.153271 0.160296 0.604966
0.206355 0.159030 0.606067
0.669798 0.177940 0.619589
0.919089 0.576196 0.654040
0.974087 0.852804 0.828355
0.140655 0.182581 0.603708
0.185617 0.179413 0.604035
0.662735 0.189838 0.616483
0.919923 0.580638 0.652664
0.974100 0.853026 0.828356
0.277493 0.646462 0.614205
0.279478 0.643080 0.613812
0.663006 0.633852 0.624080
0.927323 0.620205 0.640809
0.974199 0.854771 0.828371
0.668741 0.853326 0.438551
0.671178 0.853267 0.437894
0.693499 0.852913 0.432839
0.944401 0.877137 0.463920
0.975030 0.872352 0.829344
0.873491 0.912275 0.713987
0.873689 0.912271 0.713962
0.875237 0.912244 0.713767
0.890415 0.912049 0.711956
0.973764 0.936168 0.833069
0.581691 0.502874 0.866720
0.590191 0.501871 0.866536
0.667944 0.493447 0.864017
0.895779 0.489523 0.847857
0.974124 0.849963 0.843018
0.579581 0.509393 0.867104
0.588029 0.508376 0.866928
0.665022 0.499841 0.864508
0.896377 0.492987 0.847993
0.974140 0.850188 0.843022
0.565324 0.566445 0.869969
0.573481 0.565365 0.869883
0.644800 0.556322 0.868352
0.901894 0.523574 0.849219
0.974272 0.851957 0.843060
0.523896 0.896974 0.841721
0.526041 0.897069 0.841862
0.545989 0.898027 0.843144
0.976729 0.909417 0.852691
0.975442 0.869902 0.844165
0.866388 0.916168 0.735384
0.866603 0.916163 0.735360
0.868291 0.916126 0.735173
0.884909 0.915783 0.733391
0.974950 0.938149 0.846338
0.936634 0.846072 0.889035
0.936956 0.845959 0.888988
0.939466 0.845066 0.888617
0.962030 0.835630 0.884983
0.969023 0.806841 0.879825
0.936570 0.846442 0.889080
0.936892 0.846329 0.889033
0.939403 0.845437 0.888661
0.961990 0.836005 0.885025
0.969045 0.807040 0.879845
0.936063 0.849346 0.889434
0.936386 0.849234 0.889387
0.938905 0.848345 0.889015
0.961676 0.838948 0.885358
0.969219 0.808609 0.880010
0.930655 0.877577 0.892955
0.930981 0.877470 0.892907
0.933532 0.876626 0.892529
0.957740 0.867762 0.888723
0.971008 0.824962 0.881967
0.810304 0.935268 0.882320
0.810532 0.935286 0.882337
0.812322 0.935425 0.882468
0.830655 0.936842 0.883808
0.982653 0.954007 0.936825
