color-grading/luts/03_combined_slog3/BNC_SLog3_L08_Bleach.cube
TITLE "BNC SLog3 L08 Bleach"
# BNC Grade v1.0 - S-Log3/S-Gamut3.Cine -> BNC Base -> Bleach-bypass emulation: heavy contrast, a crushed toe, and cool-leaning desaturation.
# Input: S-Log3 / S-Gamut3.Cine | Output: Rec.709 Gamma 2.4
LUT_3D_SIZE 5
DOMAIN_MIN 0.0 0.0 0.0
DOMAIN_MAX 1.0 1.0 1.0
0.000176 0.000176 0.000176
0.120433 0.072086 0.067097
0.615576 0.326537 0.299410
0.853576 0.673842 0.690538
0.956716 0.938098 0.928695
0.072009 0.133738 0.090225
0.085620 0.112464 0.079942
0.610487 0.331204 0.296552
0.855479 0.678561 0.691186
0.956752 0.938196 0.928727
0.426650 0.665307 0.401512
0.425062 0.662287 0.399725
0.659858 0.682076 0.441767
0.872269 0.720986 0.697943
0.957031 0.938954 0.928974
0.629809 0.862535 0.640276
0.631765 0.862863 0.640309
0.650511 0.866134 0.641282
0.916398 0.913793 0.670319
0.959407 0.945538 0.930842
0.891252 0.940351 0.887696
0.891426 0.940382 0.887729
0.892791 0.940625 0.887986
0.906124 0.943032 0.890592
0.956629 0.951520 0.890697
0.010636 0.028777 0.059849
0.114225 0.069093 0.096739
0.614917 0.325000 0.314020
0.853271 0.672888 0.693806
0.956708 0.938076 0.928738
0.050709 0.097778 0.089975
0.063397 0.074390 0.078060
0.609251 0.328319 0.308579
0.855180 0.677595 0.694460
0.956744 0.938174 0.928770
0.424624 0.661650 0.402644
0.422856 0.658498 0.400571
0.656997 0.677399 0.440597
0.872076 0.719971 0.701298
0.957023 0.938933 0.929018
0.630066 0.862992 0.643304
0.632013 0.863320 0.643338
0.650689 0.866583 0.644318
0.916964 0.914275 0.673296
0.959406 0.945527 0.930900
0.891245 0.940363 0.887826
0.891419 0.940394 0.887859
0.892784 0.940637 0.888116
0.906123 0.943046 0.890726
0.956654 0.951546 0.890877
0.116697 0.220342 0.470985
0.152120 0.222245 0.474277
0.614834 0.337738 0.570929
0.850341 0.665230 0.720957
0.956643 0.937901 0.929066
0.115151 0.222619 0.469979
0.136398 0.222839 0.471233
0.607131 0.335491 0.566473
0.852265 0.669805 0.721689
0.956679 0.937999 0.929099
0.448107 0.659344 0.634273
0.445429 0.655260 0.632202
0.684417 0.680797 0.673392
0.869736 0.711490 0.729331
0.956961 0.938765 0.929355
0.632791 0.867116 0.670079
0.634656 0.867431 0.670099
0.652730 0.870607 0.670983
0.922092 0.918715 0.700639
0.959395 0.945443 0.931347
0.891188 0.940457 0.888839
0.891363 0.940488 0.888872
0.892731 0.940732 0.889132
0.906113 0.943155 0.891774
0.956850 0.951751 0.892282
0.582394 0.550584 0.766277
0.589676 0.550887 0.767137
0.658033 0.555822 0.775538
0.814462 0.589977 0.799841
0.955898 0.936028 0.931698
0.582236 0.556442 0.768277
0.589425 0.556696 0.769112
0.656752 0.561125 0.777258
0.815702 0.593065 0.800991
0.955937 0.936133 0.931738
0.586129 0.610189 0.787009
0.592678 0.610159 0.787717
0.652071 0.611351 0.794261
0.827109 0.621040 0.811500
0.956242 0.936949 0.932049
0.643020 0.891581 0.871772
0.644260 0.891821 0.872037
0.656277 0.894176 0.874620
0.961737 0.956952 0.945630
0.959019 0.944264 0.934805
0.890532 0.941295 0.898398
0.890711 0.941328 0.898435
0.892112 0.941584 0.898723
0.905907 0.944145 0.901663
0.958754 0.953762 0.905733
0.947014 0.933783 0.936599
0.947084 0.933760 0.936596
0.947610 0.933576 0.936568
0.951017 0.930895 0.935741
0.945884 0.908711 0.926710
0.947045 0.933944 0.936668
0.947115 0.933921 0.936665
0.947644 0.933739 0.936638
0.951070 0.931082 0.935822
0.945935 0.908860 0.926769
0.947277 0.935173 0.937193
0.947349 0.935153 0.937192
0.947896 0.934988 0.937175
0.951474 0.932516 0.936448
0.946338 0.910024 0.927231
0.948147 0.944593 0.941139
0.948250 0.944598 0.941156
0.949023 0.944621 0.941277
0.954354 0.943870 0.941577
0.950216 0.921095 0.931736
0.863843 0.938911 0.924562
0.864049 0.938949 0.924605
0.865665 0.939246 0.924945
0.882105 0.942283 0.928436
0.964236 0.962001 0.957059
