color-grading/luts/03_combined_slog3/BNC_SLog3_L03_GoldenHour.cube
TITLE "BNC SLog3 L03 GoldenHour"
# BNC Grade v1.0 - S-Log3/S-Gamut3.Cine -> BNC Base -> Warm, golden-hour glow with an amber split-tone and a soft top end.
# Input: S-Log3 / S-Gamut3.Cine | Output: Rec.709 Gamma 2.4
LUT_3D_SIZE 9
DOMAIN_MIN 0.0 0.0 0.0
DOMAIN_MAX 1.0 1.0 1.0
0.011767 0.011709 0.011689
0.060547 0.007548 0.000000
0.213951 0.035781 0.003704
0.456524 0.012653 0.043389
0.748160 0.115306 0.168677
0.911958 0.323732 0.366971
0.955869 0.575657 0.595045
0.966079 0.772099 0.752839
0.968778 0.877846 0.843814
0.028217 0.044702 0.000000
0.026638 0.032035 0.003196
0.191488 0.036688 0.002632
0.446415 0.045665 0.006368
0.745504 0.131647 0.163584
0.912210 0.329446 0.364377
0.956028 0.577646 0.594094
0.966114 0.772519 0.752665
0.968792 0.877918 0.843778
0.090964 0.193901 0.005081
0.089231 0.185131 0.006194
0.171980 0.173915 0.004976
0.430291 0.127389 0.008789
0.741520 0.159238 0.154998
0.912651 0.339012 0.360167
0.956282 0.580840 0.592570
0.966104 0.773273 0.752494
0.968781 0.878071 0.843793
0.090437 0.418359 0.016959
0.091962 0.414357 0.006382
0.103044 0.407988 0.012940
0.378290 0.393686 0.004857
0.737016 0.294484 0.095985
0.914488 0.373496 0.345882
0.957080 0.591165 0.587667
0.966153 0.775531 0.751830
0.968807 0.878476 0.843705
0.187884 0.680663 0.022375
0.191144 0.679547 0.036379
0.196071 0.677839 0.032069
0.235811 0.672700 0.032476
0.666071 0.660686 0.029670
0.936646 0.549850 0.210105
0.959920 0.626121 0.570183
0.966323 0.782631 0.749750
0.968796 0.879839 0.843638
0.312928 0.845261 0.023596
0.315949 0.844969 0.034540
0.320492 0.844562 0.034182
0.336576 0.843269 0.027522
0.425606 0.840386 0.024374
0.877536 0.829835 0.020579
0.960276 0.775777 0.519187
0.966645 0.806520 0.743749
0.968823 0.884019 0.843322
0.473222 0.905140 0.402102
0.474851 0.905147 0.401779
0.477475 0.905157 0.401265
0.486019 0.905196 0.399643
0.515979 0.905378 0.394450
0.644278 0.906671 0.373203
0.950146 0.907181 0.433807
0.965345 0.896432 0.740888
0.968790 0.897296 0.842881
0.692431 0.931481 0.610976
0.692899 0.931485 0.610910
0.693641 0.931492 0.610806
0.695967 0.931511 0.610481
0.703239 0.931571 0.609467
0.726868 0.931740 0.606232
0.819499 0.931935 0.594622
0.962196 0.937662 0.724769
0.968032 0.934522 0.847999
0.836758 0.942632 0.727248
0.836857 0.942632 0.727235
0.837014 0.942632 0.727215
0.837505 0.942632 0.727153
0.839028 0.942632 0.726961
0.843813 0.942629 0.726362
0.859448 0.942594 0.724438
0.916856 0.942050 0.717451
0.966154 0.947103 0.823702
0.011903 0.011457 0.026672
0.053846 0.000000 0.025531
0.212240 0.015967 0.002605
0.454510 0.003626 0.075890
0.747600 0.111559 0.184182
0.911840 0.322368 0.374234
0.955829 0.575182 0.597463
0.966076 0.772010 0.753331
0.968806 0.877800 0.843840
0.015497 0.027853 0.019510
0.019622 0.018723 0.018309
0.187146 0.030747 0.002978
0.445148 0.000000 0.059752
0.744873 0.128193 0.179183
0.912094 0.328047 0.371654
0.955990 0.577169 0.596517
0.966110 0.772429 0.753157
0.968787 0.877911 0.843876
0.088119 0.182041 0.004776
0.086111 0.172782 0.005692
0.165603 0.160737 0.006874
0.430964 0.105727 0.007814
0.740742 0.155830 0.170914
0.912538 0.337555 0.367470
0.956245 0.580361 0.595003
0.966101 0.773183 0.752986
0.968808 0.878025 0.843818
0.086037 0.413154 0.016304
0.089294 0.409025 0.014754
0.099511 0.402524 0.015858
0.375947 0.387588 0.012700
0.735114 0.288233 0.124647
0.914325 0.371926 0.353387
0.957049 0.590677 0.590131
0.966148 0.775446 0.752327
0.968802 0.878469 0.843803
0.179068 0.679705 0.034473
0.181398 0.678612 0.030225
0.186572 0.676877 0.019250
0.228650 0.671514 0.032218
0.665322 0.658956 0.019917
0.936504 0.547442 0.225017
0.959836 0.625725 0.572902
0.966309 0.782559 0.750266
0.968791 0.879832 0.843737
0.308383 0.845547 0.037539
0.311461 0.845254 0.043123
0.316084 0.844844 0.042263
0.332430 0.843542 0.035610
0.422624 0.840793 0.026035
0.877673 0.829543 0.022025
0.960358 0.775329 0.521805
0.966667 0.806409 0.744198
0.968817 0.884013 0.843423
0.472992 0.905256 0.404631
0.474619 0.905262 0.404311
0.477240 0.905272 0.403802
0.485775 0.905311 0.402197
0.515717 0.905496 0.397056
0.644017 0.906807 0.375932
0.950235 0.907275 0.435726
0.965369 0.896375 0.741275
0.968818 0.897257 0.842890
0.692357 0.931511 0.611479
0.692825 0.931515 0.611414
0.693567 0.931522 0.611310
0.695894 0.931542 0.610986
0.703169 0.931602 0.609974
0.726804 0.931772 0.606745
0.819460 0.931970 0.595155
0.962216 0.937685 0.725072
0.968037 0.934519 0.848072
0.836745 0.942638 0.727351
0.836844 0.942638 0.727339
0.837001 0.942638 0.727319
0.837492 0.942638 0.727257
0.839015 0.942638 0.727065
0.843801 0.942636 0.726466
0.859437 0.942601 0.724542
0.916852 0.942057 0.717558
0.966158 0.947108 0.823762
0.033040 0.002279 0.148811
0.051618 0.003259 0.149176
0.209663 0.004525 0.148816
0.451737 0.001943 0.149932
0.746744 0.105329 0.212118
0.911639 0.320208 0.386187
0.955764 0.574427 0.601312
0.966070 0.771867 0.754112
0.968798 0.877788 0.843995
0.031886 0.008570 0.143275
0.032653 0.002280 0.141128
0.184915 0.005226 0.137869
0.441448 0.012028 0.138249
0.743982 0.122172 0.207042
0.911896 0.325834 0.383614
0.955926 0.576412 0.600376
0.966105 0.772287 0.753939
0.968779 0.877899 0.844031
0.066840 0.166943 0.137147
0.065595 0.156601 0.134382
0.159858 0.139441 0.130669
0.435143 0.046844 0.108204
0.739692 0.149914 0.198895
0.912344 0.335251 0.379470
0.956184 0.579599 0.598877
0.966096 0.773041 0.753767
0.968800 0.878013 0.843974
0.015684 0.406709 0.061918
0.012703 0.402612 0.051960
0.039170 0.396178 0.014477
0.372812 0.378068 0.017169
0.732076 0.279004 0.163682
0.914137 0.369310 0.365592
0.956996 0.589902 0.594055
0.966141 0.775308 0.753113
0.968793 0.878458 0.843959
0.156332 0.679188 0.020470
0.160430 0.677980 0.032308
0.166402 0.676197 0.012382
0.213916 0.670483 0.032601
0.664226 0.656224 0.023705
0.936164 0.543740 0.248069
0.959717 0.625072 0.577194
0.966344 0.782369 0.750982
0.968815 0.879782 0.843820
0.299259 0.846204 0.027673
0.302466 0.845911 0.035239
0.307350 0.845559 0.033917
0.324585 0.844496 0.023859
0.417816 0.841469 0.043443
0.877921 0.829088 0.031826
0.960528 0.774571 0.525776
0.966672 0.806271 0.744985
0.968841 0.883965 0.843506
0.472630 0.905440 0.408644
0.474254 0.905446 0.408329
0.476871 0.905457 0.407829
0.485392 0.905496 0.406250
0.515255 0.905695 0.401120
0.643604 0.907025 0.380268
0.950377 0.907427 0.438807
0.965378 0.896314 0.742080
0.968814 0.897245 0.843045
0.692240 0.931559 0.612279
0.692708 0.931563 0.612214
0.693451 0.931570 0.612110
0.695779 0.931590 0.611787
0.703059 0.931651 0.610778
0.726703 0.931822 0.607558
0.819398 0.932025 0.596000
0.962248 0.937723 0.725553
0.968044 0.934514 0.848187
0.836724 0.942648 0.727515
0.836823 0.942648 0.727502
0.836980 0.942648 0.727483
0.837471 0.942649 0.727421
0.838995 0.942648 0.727229
0.843781 0.942646 0.726630
0.859419 0.942612 0.724709
0.916845 0.942069 0.717729
0.966165 0.947117 0.823856
0.063024 0.004359 0.351085
0.080321 0.000144 0.350863
0.197935 0.009601 0.351805
0.442213 0.010909 0.356861
0.743223 0.084534 0.347346
0.910843 0.313452 0.429413
0.955539 0.572054 0.613494
0.966052 0.771422 0.756563
0.968805 0.877712 0.844406
0.061391 0.009839 0.349422
0.070461 0.005509 0.348551
0.171895 0.009884 0.348555
0.430771 0.009807 0.351988
0.740441 0.102848 0.342162
0.911114 0.318915 0.426742
0.955705 0.574030 0.612590
0.966087 0.771841 0.756391
0.968786 0.877823 0.844442
0.063271 0.087149 0.354417
0.066060 0.077107 0.352583
0.125308 0.060303 0.351854
0.414991 0.008720 0.346072
0.736097 0.130656 0.333810
0.911586 0.328057 0.422445
0.955971 0.577203 0.611142
0.966078 0.772596 0.756219
0.968808 0.877938 0.844385
0.016130 0.385248 0.347499
0.017383 0.380525 0.346195
0.009638 0.373077 0.344248
0.370919 0.353185 0.343322
0.725097 0.250489 0.307142
0.913464 0.361108 0.408360
0.956811 0.587464 0.606482
0.966188 0.774778 0.755465
0.968801 0.878383 0.844371
0.075889 0.677602 0.198847
0.082968 0.676381 0.197578
0.096197 0.674436 0.195547
0.165173 0.668442 0.188413
0.664741 0.649460 0.093484
0.933959 0.533364 0.318841
0.959463 0.622802 0.590493
0.966349 0.781911 0.753420
0.968798 0.879737 0.844289
0.286480 0.847743 0.145958
0.289002 0.847572 0.144208
0.293257 0.847302 0.141362
0.308948 0.846474 0.131776
0.399991 0.844266 0.085728
0.879042 0.827576 0.035873
0.961061 0.772200 0.538551
0.966684 0.805838 0.747456
0.968824 0.883924 0.843982
0.471517 0.906027 0.421231
0.473132 0.906033 0.420930
0.475733 0.906045 0.420453
0.484196 0.906090 0.418935
0.513706 0.906357 0.413712
0.642322 0.907727 0.393901
0.950819 0.907972 0.449501
0.965499 0.896029 0.744008
0.968804 0.897210 0.843529
0.691875 0.931710 0.614790
0.692344 0.931714 0.614725
0.693088 0.931721 0.614623
0.695420 0.931742 0.614302
0.702713 0.931804 0.613303
0.726388 0.931980 0.610113
0.819206 0.932199 0.598654
0.962326 0.937863 0.727464
0.968050 0.934513 0.848655
0.836660 0.942680 0.728028
0.836759 0.942680 0.728015
0.836916 0.942680 0.727995
0.837407 0.942680 0.727933
0.838931 0.942680 0.727742
0.843720 0.942678 0.727145
0.859365 0.942645 0.725228
0.916822 0.942105 0.718261
0.966185 0.947142 0.824152
0.154925 0.061620 0.636442
0.172243 0.057733 0.636430
0.208988 0.049970 0.636702
0.417007 0.022973 0.634574
0.721775 0.030159 0.632404
0.906077 0.288936 0.608097
0.954620 0.564536 0.652516
0.966047 0.769938 0.764178
0.968827 0.877478 0.845679
0.148964 0.082876 0.635407
0.165159 0.079847 0.635325
0.199312 0.074564 0.635460
0.405768 0.026287 0.636494
0.719598 0.029105 0.631752
0.906239 0.294258 0.606333
0.954801 0.566481 0.651726
0.966084 0.770358 0.764011
0.968808 0.877590 0.845714
0.140108 0.113880 0.634126
0.154672 0.111012 0.633929
0.185299 0.106382 0.633840
0.385364 0.080682 0.635692
0.716504 0.033530 0.631126
0.906536 0.303120 0.603496
0.955090 0.569607 0.650460
0.966077 0.771115 0.763837
0.968829 0.877704 0.845660
0.110302 0.257713 0.639432
0.122260 0.251843 0.638586
0.146213 0.242842 0.637436
0.310501 0.216341 0.636507
0.702569 0.155403 0.627078
0.907898 0.334711 0.594252
0.956009 0.579725 0.646381
0.966129 0.773389 0.763192
0.968821 0.878152 0.845649
0.018420 0.666744 0.613067
0.007596 0.665343 0.612996
0.011429 0.663138 0.612907
0.103937 0.656240 0.612775
0.676058 0.638943 0.609296
0.923721 0.500463 0.555892
0.958973 0.614729 0.632360
0.966309 0.780536 0.761169
0.968816 0.879513 0.845575
0.287261 0.852984 0.400008
0.289512 0.852789 0.399285
0.293323 0.852481 0.398135
0.307509 0.851531 0.394492
0.391953 0.848990 0.382298
0.890243 0.830595 0.301358
0.962556 0.764922 0.582188
0.966757 0.804432 0.755142
0.968839 0.883715 0.845290
0.467325 0.908276 0.461916
0.468896 0.908286 0.461622
0.471428 0.908303 0.461154
0.479698 0.908365 0.459675
0.508981 0.908637 0.454917
0.638423 0.910107 0.437402
0.952371 0.909909 0.485244
0.965790 0.895226 0.750671
0.968857 0.897005 0.844772
0.690748 0.932184 0.622696
0.691219 0.932189 0.622633
0.691967 0.932196 0.622534
0.694311 0.932218 0.622223
0.701644 0.932285 0.621254
0.725418 0.932476 0.618160
0.818620 0.932747 0.607021
0.962579 0.938303 0.733429
0.968106 0.934481 0.849875
0.836461 0.942779 0.729621
0.836561 0.942779 0.729608
0.836718 0.942779 0.729589
0.837210 0.942779 0.729527
0.838736 0.942779 0.729337
0.843530 0.942778 0.728745
0.859198 0.942748 0.726842
0.916754 0.942216 0.719917
0.966229 0.947237 0.825339
0.323074 0.237603 0.862822
0.333004 0.236610 0.862753
0.350055 0.235016 0.862623
0.415697 0.229663 0.861948
0.699901 0.201805 0.853670
0.896885 0.214059 0.839678
0.949157 0.538989 0.787344
0.965830 0.765231 0.789324
0.968846 0.876791 0.849711
0.319295 0.244008 0.862791
0.329043 0.242994 0.862725
0.345782 0.241372 0.862603
0.410242 0.235986 0.861972
0.695674 0.208218 0.853519
0.896645 0.218121 0.839370
0.949363 0.540808 0.786925
0.965870 0.765652 0.789173
0.968858 0.876866 0.849681
0.313405 0.254675 0.862757
0.322873 0.253619 0.862696
0.339131 0.251940 0.862584
0.401760 0.246460 0.862021
0.689005 0.219003 0.853496
0.896261 0.224828 0.838864
0.949695 0.543733 0.786253
0.965869 0.766414 0.788997
0.968846 0.877022 0.849699
0.295635 0.293806 0.862858
0.304299 0.292526 0.862805
0.319172 0.290510 0.862715
0.376455 0.284200 0.862314
0.667745 0.257442 0.854587
0.895043 0.248322 0.837111
0.950767 0.553225 0.784091
0.965940 0.768701 0.788375
0.968866 0.877439 0.849634
0.242506 0.521326 0.867938
0.249765 0.518428 0.867976
0.261960 0.513852 0.868036
0.307277 0.499729 0.868221
0.589279 0.455843 0.863740
0.896842 0.366234 0.833308
0.954420 0.586407 0.776681
0.966244 0.775803 0.786362
0.968882 0.878786 0.849530
0.260605 0.858452 0.782516
0.262313 0.858231 0.782578
0.265227 0.857883 0.782679
0.276299 0.856818 0.783016
0.345952 0.854150 0.784471
0.917620 0.839716 0.771976
0.964988 0.737994 0.743612
0.966888 0.799866 0.780510
0.968915 0.883015 0.849265
0.454924 0.917831 0.620728
0.456408 0.917849 0.620574
0.458807 0.917878 0.620330
0.466687 0.917981 0.619562
0.495115 0.918404 0.617123
0.627599 0.920713 0.608352
0.959246 0.919701 0.637803
0.966730 0.892638 0.772959
0.968927 0.896457 0.848894
0.687244 0.933732 0.648754
0.687722 0.933737 0.648699
0.688482 0.933746 0.648610
0.690863 0.933773 0.648333
0.698320 0.933857 0.647470
0.722439 0.934101 0.644710
0.816863 0.934560 0.634690
0.963428 0.939784 0.753197
0.968267 0.934388 0.853775
0.835852 0.943089 0.734658
0.835952 0.943090 0.734645
0.836110 0.943090 0.734626
0.836603 0.943090 0.734567
0.838135 0.943091 0.734381
0.842948 0.943093 0.733804
0.858685 0.943072 0.731946
0.916549 0.942569 0.725157
0.966369 0.947534 0.829017
0.594012 0.492367 0.917480
0.598039 0.491807 0.917318
0.604495 0.490912 0.917050
0.625546 0.488039 0.916093
0.699212 0.478168 0.911736
0.901562 0.438420 0.891869
0.936337 0.464102 0.887306
0.963692 0.748085 0.868931
0.968922 0.874424 0.862161
0.592665 0.495265 0.917604
0.596696 0.494703 0.917445
0.603132 0.493805 0.917181
0.624113 0.490926 0.916242
0.697597 0.481037 0.911944
0.901527 0.441170 0.891902
0.936475 0.465692 0.887293
0.963674 0.748609 0.868861
0.968888 0.874558 0.862213
0.590534 0.499916 0.917795
0.594568 0.499351 0.917640
0.600988 0.498449 0.917384
0.621857 0.495558 0.916472
0.695048 0.485644 0.912271
0.901474 0.445589 0.891955
0.936697 0.468243 0.887274
0.963749 0.749262 0.868781
0.968901 0.874686 0.862187
0.583901 0.514915 0.918346
0.587940 0.514343 0.918205
0.594369 0.513428 0.917971
0.614927 0.510506 0.917144
0.687170 0.500522 0.913254
0.901334 0.459892 0.892124
0.937422 0.476462 0.887212
0.963854 0.751542 0.868493
0.968901 0.875139 0.862176
0.563694 0.565508 0.919434
0.567698 0.564930 0.919344
0.574097 0.564008 0.919192
0.594460 0.561060 0.918631
0.663624 0.551086 0.915794
0.897112 0.508101 0.894444
0.940490 0.503648 0.887570
0.964278 0.758616 0.867621
0.968951 0.876478 0.862059
0.509975 0.773468 0.907805
0.513367 0.772915 0.907959
0.518845 0.772038 0.908202
0.536776 0.769288 0.908952
0.599602 0.760507 0.911014
0.862857 0.717939 0.902708
0.954262 0.624248 0.888197
0.965540 0.782667 0.864868
0.969030 0.880764 0.861840
0.408539 0.926370 0.865433
0.409818 0.926394 0.865472
0.411876 0.926432 0.865535
0.418585 0.926561 0.865738
0.442377 0.927065 0.866442
0.571297 0.930674 0.870110
0.969399 0.933442 0.885194
0.969007 0.882339 0.859745
0.969157 0.894539 0.861629
0.676220 0.939462 0.752738
0.676721 0.939473 0.752712
0.677516 0.939489 0.752670
0.680011 0.939541 0.752541
0.687852 0.939700 0.752138
0.713386 0.940197 0.750833
0.812193 0.941608 0.745764
0.966699 0.946136 0.833849
0.968753 0.934078 0.866467
0.833993 0.944113 0.751486
0.834094 0.944113 0.751475
0.834254 0.944113 0.751458
0.834753 0.944115 0.751403
0.836303 0.944120 0.751236
0.841175 0.944132 0.750712
0.857131 0.944146 0.749022
0.915968 0.943742 0.742734
0.966828 0.948511 0.841010
0.843373 0.728147 0.918770
0.844328 0.727955 0.918694
0.845845 0.727650 0.918572
0.850615 0.726687 0.918182
0.865692 0.723599 0.916879
0.912947 0.712925 0.912041
0.958375 0.680738 0.902813
0.959300 0.692699 0.899123
0.968435 0.865163 0.897834
0.843085 0.728871 0.918794
0.844040 0.728679 0.918718
0.845557 0.728374 0.918597
0.850324 0.727411 0.918208
0.865394 0.724324 0.916909
0.912694 0.713652 0.912079
0.958434 0.681400 0.902817
0.959341 0.693048 0.899129
0.968445 0.865245 0.897835
0.842630 0.730020 0.918832
0.843585 0.729828 0.918756
0.845100 0.729523 0.918636
0.849864 0.728561 0.918249
0.864922 0.725476 0.916957
0.912291 0.714805 0.912140
0.958529 0.682451 0.902825
0.959406 0.693601 0.899139
0.968460 0.865375 0.897835
0.841213 0.733632 0.918945
0.842165 0.733441 0.918871
0.843677 0.733137 0.918753
0.848429 0.732177 0.918374
0.863451 0.729099 0.917104
0.911019 0.718432 0.912328
0.958754 0.685905 0.902778
0.959536 0.695492 0.899104
0.968466 0.865844 0.897857
0.836856 0.745046 0.919262
0.837801 0.744856 0.919193
0.839302 0.744554 0.919083
0.844021 0.743602 0.918727
0.858933 0.740546 0.917529
0.906966 0.729905 0.912900
0.959473 0.696798 0.902651
0.959894 0.701615 0.898949
0.968532 0.867230 0.897904
0.823430 0.783009 0.919844
0.824358 0.782827 0.919793
0.825830 0.782537 0.919712
0.830456 0.781622 0.919447
0.845064 0.778674 0.918520
0.893396 0.768237 0.914546
0.961780 0.733277 0.902299
0.961248 0.722086 0.898648
0.968673 0.871694 0.898106
0.767229 0.910675 0.907357
0.768124 0.910626 0.907407
0.769546 0.910549 0.907486
0.774023 0.910306 0.907735
0.788252 0.909539 0.908520
0.836624 0.906956 0.911118
0.968709 0.874326 0.903522
0.966058 0.810168 0.899367
0.969159 0.886244 0.899014
0.622726 0.942920 0.890833
0.623249 0.942937 0.890849
0.624082 0.942963 0.890875
0.626702 0.943044 0.890955
0.635013 0.943303 0.891210
0.662979 0.944182 0.892078
0.774096 0.947650 0.895554
0.970400 0.954876 0.935954
0.969979 0.931918 0.906394
0.828381 0.947889 0.818357
0.828486 0.947890 0.818352
0.828652 0.947892 0.818345
0.829172 0.947899 0.818322
0.830784 0.947921 0.818252
0.835861 0.947987 0.818028
0.852568 0.948174 0.817281
0.914796 0.948328 0.813947
0.968620 0.952607 0.889228
0.958388 0.865821 0.910220
0.958465 0.865772 0.910204
0.958586 0.865694 0.910178
0.958962 0.865450 0.910098
0.960093 0.864696 0.909852
0.963332 0.862322 0.909108
0.968054 0.859280 0.907356
0.967282 0.839148 0.904714
0.966803 0.828841 0.904024
0.958365 0.865976 0.910225
0.958442 0.865927 0.910209
0.958563 0.865849 0.910183
0.958939 0.865606 0.910103
0.960072 0.864851 0.909857
0.963314 0.862479 0.909112
0.968085 0.859374 0.907361
0.967252 0.839364 0.904722
0.966811 0.828914 0.904030
0.958329 0.866223 0.910233
0.958406 0.866174 0.910217
0.958528 0.866096 0.910191
0.958904 0.865853 0.910111
0.960039 0.865098 0.909865
0.963286 0.862726 0.909120
0.968076 0.859613 0.907374
0.967278 0.839589 0.904742
0.966825 0.829029 0.904039
0.958215 0.866991 0.910259
0.958293 0.866942 0.910242
0.958415 0.866865 0.910217
0.958794 0.866622 0.910136
0.959934 0.865868 0.909889
0.963199 0.863498 0.909142
0.968119 0.860246 0.907406
0.967315 0.840365 0.904800
0.966819 0.829470 0.904058
0.957858 0.869365 0.910338
0.957936 0.869316 0.910322
0.958060 0.869239 0.910296
0.958445 0.868997 0.910215
0.959603 0.868245 0.909966
0.962922 0.865883 0.909212
0.968201 0.862280 0.907504
0.967434 0.842764 0.904986
0.966903 0.830671 0.904139
0.956674 0.876706 0.910587
0.956756 0.876657 0.910571
0.956886 0.876581 0.910544
0.957289 0.876341 0.910461
0.958505 0.875598 0.910207
0.961997 0.873262 0.909434
0.968427 0.868593 0.907740
0.967747 0.850377 0.905620
0.967082 0.834612 0.904390
0.952080 0.899199 0.911380
0.952176 0.899154 0.911363
0.952326 0.899082 0.911334
0.952794 0.898857 0.911246
0.954208 0.898158 0.910976
0.958305 0.895960 0.910149
0.968396 0.888710 0.907745
0.968637 0.874732 0.908316
0.967616 0.847931 0.905384
0.912346 0.945058 0.907030
0.912533 0.945053 0.907035
0.912828 0.945045 0.907042
0.913745 0.945021 0.907063
0.916555 0.944940 0.907124
0.924979 0.944640 0.907268
0.947351 0.943038 0.907090
0.970338 0.939884 0.925805
0.969486 0.901039 0.912715
0.795776 0.950679 0.900753
0.795890 0.950682 0.900757
0.796070 0.950687 0.900762
0.796633 0.950704 0.900779
0.798380 0.950754 0.900832
0.803868 0.950912 0.900998
0.822044 0.951423 0.901534
0.894560 0.953129 0.903290
0.970540 0.958361 0.943055
