color-grading/luts/03_combined_slog3/BNC_SLog3_L09_Nocturne.cube
TITLE "BNC SLog3 L09 Nocturne"
# BNC Grade v1.0 - S-Log3/S-Gamut3.Cine -> BNC Base -> Cool, blue-leaning night grade with deep, protected shadows.
# Input: S-Log3 / S-Gamut3.Cine | Output: Rec.709 Gamma 2.4
LUT_3D_SIZE 33
DOMAIN_MIN 0.0 0.0 0.0
DOMAIN_MAX 1.0 1.0 1.0
0.001297 0.001315 0.001329
0.001297 0.001315 0.001329
0.001557 0.001324 0.001339
0.007427 0.002310 0.002240
0.022977 0.008221 0.009001
0.045186 0.020806 0.025984
0.070285 0.038181 0.052209
0.104215 0.058188 0.080992
0.152795 0.074507 0.096718
0.205974 0.089057 0.109448
0.263005 0.102158 0.120313
0.326428 0.113983 0.129553
0.395181 0.123931 0.137511
0.470408 0.132718 0.146507
0.542644 0.141989 0.158871
0.612772 0.155496 0.178593
0.679251 0.177011 0.206339
0.741141 0.207498 0.241588
0.798642 0.244816 0.282728
0.828059 0.289386 0.334323
0.850486 0.342269 0.393138
0.869271 0.400224 0.457387
0.886315 0.464970 0.526653
0.902471 0.533482 0.591464
0.916253 0.596331 0.651900
0.928281 0.655830 0.706603
0.937967 0.708433 0.753607
0.945563 0.753903 0.794980
0.951639 0.793820 0.830612
0.955976 0.828913 0.860519
0.959110 0.860153 0.883861
0.961475 0.884473 0.900751
0.963207 0.902593 0.912746
0.001297 0.001315 0.001329
0.001297 0.001315 0.001329
0.001297 0.001315 0.001329
0.004629 0.001680 0.001649
0.016552 0.005422 0.005636
0.038081 0.016355 0.019692
0.064067 0.033817 0.045485
0.097823 0.055120 0.077083
0.146580 0.072648 0.095048
0.201188 0.087854 0.108410
0.258937 0.101329 0.119620
0.323121 0.113516 0.129106
0.392387 0.123850 0.137091
0.468282 0.133262 0.145976
0.541214 0.143128 0.158132
0.611782 0.157212 0.177694
0.678631 0.178987 0.205434
0.740755 0.209438 0.240811
0.798425 0.246495 0.282045
0.828093 0.290896 0.333732
0.850574 0.343596 0.392677
0.869386 0.401322 0.456996
0.886447 0.465938 0.526374
0.902583 0.534211 0.591281
0.916338 0.596854 0.651772
0.928342 0.656208 0.706523
0.938007 0.708686 0.753553
0.945589 0.754080 0.794945
0.951656 0.793943 0.830590
0.955988 0.828998 0.860508
0.959117 0.860209 0.883857
0.961479 0.884507 0.900749
0.963209 0.902614 0.912746
0.001297 0.001315 0.001329
0.001297 0.001315 0.001329
0.001297 0.001315 0.001329
0.002741 0.001415 0.001419
0.011460 0.003549 0.003515
0.030808 0.012200 0.014074
0.057822 0.029417 0.038750
0.091707 0.051854 0.072618
0.140350 0.070750 0.093334
0.196355 0.086628 0.107343
0.254880 0.100506 0.118920
0.319811 0.113078 0.128664
0.389601 0.123861 0.136698
0.466157 0.133952 0.145470
0.539794 0.144426 0.157414
0.610800 0.159064 0.176805
0.678017 0.181052 0.204533
0.740374 0.211436 0.240034
0.798210 0.248211 0.281364
0.828129 0.292432 0.333142
0.850664 0.344939 0.392217
0.869502 0.402429 0.456605
0.886580 0.466912 0.526095
0.902696 0.534941 0.591098
0.916423 0.597378 0.651644
0.928403 0.656586 0.706443
0.938047 0.708939 0.753499
0.945616 0.754258 0.794910
0.951674 0.794065 0.830568
0.955999 0.829083 0.860497
0.959125 0.860265 0.883853
0.961484 0.884541 0.900747
0.963212 0.902634 0.912745
0.002584 0.005183 0.002922
0.002132 0.004278 0.002444
0.001858 0.003493 0.002074
0.001948 0.002868 0.001838
0.008188 0.003195 0.002571
0.024305 0.008967 0.009827
0.051799 0.025270 0.032486
0.085964 0.048518 0.067816
0.134232 0.068863 0.091614
0.191531 0.085401 0.106260
0.250860 0.099711 0.118222
0.316512 0.112701 0.128232
0.386830 0.124017 0.136335
0.464037 0.134823 0.144991
0.538386 0.145908 0.156719
0.609830 0.161064 0.175926
0.677410 0.183212 0.203634
0.739998 0.213494 0.239257
0.797999 0.249967 0.280685
0.828168 0.293996 0.332553
0.850755 0.346298 0.391757
0.869619 0.403547 0.456215
0.886713 0.467893 0.525816
0.902809 0.535674 0.590914
0.916508 0.597904 0.651515
0.928464 0.656965 0.706363
0.938087 0.709193 0.753445
0.945642 0.754436 0.794875
0.951691 0.794187 0.830546
0.956011 0.829168 0.860486
0.959132 0.860321 0.883849
0.961488 0.884575 0.900745
0.963215 0.902655 0.912745
0.007865 0.018217 0.013719
0.007134 0.015876 0.011574
0.006408 0.013796 0.009711
0.005699 0.011949 0.008087
0.005618 0.010883 0.006647
0.019575 0.011480 0.009060
0.047207 0.023214 0.028598
0.081121 0.045691 0.063476
0.128542 0.067137 0.089995
0.186820 0.084244 0.105196
0.246921 0.099003 0.117539
0.313241 0.112453 0.127817
0.384087 0.124401 0.136010
0.461927 0.135922 0.144543
0.536995 0.147605 0.156048
0.608872 0.163227 0.175056
0.676811 0.185472 0.202739
0.739629 0.215614 0.238480
0.797790 0.251762 0.280009
0.828209 0.295588 0.331966
0.850848 0.347673 0.391297
0.869739 0.404678 0.455825
0.886848 0.468879 0.525537
0.902922 0.536409 0.590731
0.916593 0.598431 0.651387
0.928525 0.657344 0.706283
0.938126 0.709448 0.753391
0.945669 0.754614 0.794840
0.951708 0.794309 0.830524
0.956022 0.829253 0.860474
0.959140 0.860376 0.883844
0.961493 0.884609 0.900743
0.963217 0.902675 0.912744
0.014104 0.043441 0.039513
0.013021 0.039914 0.035757
0.012069 0.036426 0.032053
0.011253 0.033036 0.028481
0.010612 0.030059 0.025377
0.010716 0.028686 0.023497
0.038686 0.031983 0.031787
0.076514 0.046990 0.062219
0.124052 0.066596 0.088933
0.182437 0.083451 0.104251
0.243135 0.098554 0.116912
0.310026 0.112498 0.127442
0.381388 0.125143 0.135732
0.459834 0.137310 0.144129
0.535624 0.149554 0.155401
0.607928 0.165567 0.174198
0.676220 0.187840 0.201848
0.739266 0.217797 0.237703
0.797585 0.253599 0.279335
0.828253 0.297209 0.331380
0.850944 0.349065 0.390839
0.869859 0.405822 0.455436
0.886983 0.469871 0.525258
0.903036 0.537146 0.590547
0.916679 0.598959 0.651258
0.928586 0.657724 0.706203
0.938166 0.709702 0.753337
0.945695 0.754792 0.794805
0.951725 0.794432 0.830502
0.956034 0.829338 0.860463
0.959147 0.860432 0.883840
0.961497 0.884643 0.900742
0.963220 0.902696 0.912743
0.025011 0.077636 0.073392
0.024091 0.074240 0.070426
0.022888 0.070869 0.067350
0.021906 0.067489 0.064166
0.020891 0.064213 0.060988
0.019945 0.061578 0.058392
0.019901 0.061380 0.058822
0.057388 0.068913 0.074816
0.117732 0.077024 0.090953
0.178039 0.087250 0.104313
0.238828 0.099563 0.116439
0.306161 0.113586 0.127115
0.378106 0.126856 0.135479
0.457256 0.139573 0.143668
0.533945 0.152413 0.154630
0.606771 0.168771 0.173140
0.675496 0.190973 0.200738
0.738822 0.220623 0.236732
0.797332 0.255959 0.278495
0.828312 0.299278 0.330650
0.851065 0.350829 0.390265
0.870012 0.407270 0.454950
0.887154 0.471120 0.524908
0.903178 0.538072 0.590316
0.916786 0.599623 0.651097
0.928663 0.658201 0.706102
0.938216 0.710021 0.753270
0.945728 0.755015 0.794762
0.951747 0.794585 0.830475
0.956048 0.829444 0.860449
0.959156 0.860502 0.883835
0.961503 0.884686 0.900739
0.963224 0.902721 0.912742
0.041227 0.122546 0.104736
0.039781 0.119564 0.102831
0.038613 0.116534 0.100895
0.037161 0.113507 0.098920
0.036029 0.110463 0.096931
0.034790 0.107543 0.094991
0.033829 0.104836 0.093183
0.034817 0.107706 0.094818
0.103083 0.112664 0.103142
0.171052 0.114526 0.110092
0.234241 0.115956 0.118701
0.301376 0.120632 0.127434
0.373805 0.131742 0.135404
0.453769 0.144230 0.143159
0.531682 0.157397 0.153628
0.605203 0.173847 0.171689
0.674509 0.195709 0.199192
0.738218 0.224769 0.235372
0.796987 0.259387 0.277324
0.828402 0.302260 0.329630
0.851241 0.353348 0.389462
0.870231 0.409336 0.454268
0.887395 0.472889 0.524417
0.903378 0.539376 0.589993
0.916936 0.600558 0.650871
0.928770 0.658870 0.705961
0.938285 0.710470 0.753175
0.945775 0.755329 0.794700
0.951777 0.794801 0.830436
0.956069 0.829594 0.860429
0.959169 0.860601 0.883827
0.961511 0.884746 0.900736
0.963228 0.902757 0.912741
0.068205 0.171900 0.133989
0.066741 0.169499 0.132646
0.065253 0.167079 0.131281
0.064005 0.164618 0.129925
0.062488 0.162174 0.128524
0.060992 0.159742 0.127121
0.059452 0.156840 0.125456
0.059502 0.155238 0.123582
0.072889 0.161144 0.118628
0.156031 0.162373 0.123293
0.228735 0.158380 0.125061
0.297123 0.153398 0.131600
0.369257 0.148241 0.136437
0.449589 0.154871 0.142863
0.528925 0.166314 0.152467
0.603249 0.181796 0.169829
0.673267 0.202670 0.197165
0.737456 0.230613 0.233573
0.796549 0.264156 0.275784
0.828537 0.306360 0.328288
0.851483 0.356770 0.388400
0.870530 0.412135 0.453368
0.887718 0.475261 0.523765
0.903644 0.541114 0.589563
0.917136 0.601803 0.650571
0.928913 0.659761 0.705774
0.938378 0.711065 0.753049
0.945837 0.755745 0.794619
0.951818 0.795086 0.830385
0.956096 0.829792 0.860403
0.959187 0.860731 0.883817
0.961521 0.884825 0.900732
0.963235 0.902804 0.912740
0.098464 0.223642 0.160405
0.097420 0.221795 0.159546
0.096354 0.219931 0.158671
0.095270 0.218052 0.157780
0.094171 0.216161 0.156875
0.093065 0.214262 0.155959
0.091775 0.211889 0.154825
0.090033 0.208925 0.153156
0.093888 0.209770 0.148543
0.143258 0.213077 0.145159
0.214436 0.214047 0.136759
0.293522 0.206148 0.133501
0.367099 0.196013 0.139636
0.445686 0.183081 0.143605
0.525927 0.183926 0.151294
0.600961 0.194988 0.167491
0.671766 0.213277 0.194525
0.736523 0.239018 0.231200
0.796004 0.270909 0.273765
0.828741 0.312070 0.326528
0.851822 0.361453 0.386998
0.870939 0.415956 0.452179
0.888152 0.478455 0.522900
0.903998 0.543434 0.588992
0.917402 0.603466 0.650172
0.929102 0.660947 0.705524
0.938500 0.711857 0.752882
0.945919 0.756298 0.794510
0.951871 0.795465 0.830317
0.956088 0.830117 0.860398
0.959210 0.860904 0.883804
0.961535 0.884930 0.900726
0.963243 0.902867 0.912738
0.128711 0.277067 0.182794
0.127849 0.275554 0.182220
0.126981 0.274037 0.181640
0.126108 0.272517 0.181052
0.125476 0.270965 0.180550
0.124598 0.269442 0.179951
0.123390 0.267552 0.179153
0.122154 0.264901 0.178161
0.121436 0.262595 0.175696
0.127570 0.266753 0.159617
0.204141 0.267162 0.164372
0.278439 0.266240 0.144559
0.363846 0.256161 0.137374
0.446149 0.241086 0.140332
0.524447 0.222432 0.149652
0.598781 0.218965 0.164591
0.670116 0.230232 0.191118
0.735444 0.251447 0.228081
0.795358 0.280743 0.271129
0.829063 0.320161 0.324233
0.852302 0.367937 0.385149
0.871506 0.421221 0.450610
0.888740 0.482777 0.521749
0.904470 0.546540 0.588232
0.917757 0.605691 0.649641
0.929353 0.662527 0.705192
0.938663 0.712912 0.752659
0.946027 0.757033 0.794366
0.951941 0.795969 0.830226
0.956135 0.830466 0.860352
0.959240 0.861133 0.883786
0.961553 0.885070 0.900718
0.963254 0.902951 0.912735
0.159595 0.336720 0.201139
0.159084 0.335450 0.200881
0.158310 0.334203 0.200480
0.157789 0.332925 0.200211
0.157265 0.331644 0.199936
0.156483 0.330388 0.199522
0.155705 0.328794 0.199100
0.154725 0.326556 0.198533
0.153128 0.323763 0.197349
0.153510 0.322702 0.190317
0.196074 0.324660 0.180210
0.265739 0.325286 0.174220
0.349622 0.321438 0.147158
0.441259 0.308203 0.135058
0.528199 0.287667 0.136391
0.599214 0.264954 0.158417
0.668892 0.258765 0.186519
0.734410 0.271164 0.224027
0.794678 0.295718 0.267731
0.829588 0.331896 0.321270
0.852997 0.377049 0.382714
0.872305 0.428565 0.448544
0.889538 0.488664 0.520216
0.905100 0.550710 0.587219
0.918230 0.608678 0.648934
0.929687 0.664637 0.704748
0.938879 0.714318 0.752363
0.946171 0.758011 0.794175
0.952035 0.796638 0.830105
0.956198 0.830929 0.860291
0.959245 0.861487 0.883788
0.961549 0.885296 0.900732
0.963245 0.903095 0.912754
0.190145 0.400761 0.213875
0.189684 0.399749 0.213714
0.189223 0.398736 0.213551
0.188762 0.397723 0.213386
0.188303 0.396710 0.213219
0.187849 0.395698 0.213052
0.187221 0.394438 0.212793
0.186279 0.392688 0.212355
0.185219 0.390399 0.211742
0.184101 0.387750 0.209663
0.191000 0.388010 0.193796
0.260487 0.388009 0.196181
0.334481 0.388291 0.175894
0.425930 0.381974 0.143733
0.522709 0.366274 0.129492
0.604801 0.340915 0.133013
0.671588 0.313185 0.175958
0.734351 0.305339 0.218334
0.794156 0.319736 0.263466
0.830480 0.349474 0.317510
0.854033 0.390116 0.379514
0.873446 0.438977 0.445827
0.890629 0.496749 0.518171
0.905941 0.556325 0.585863
0.918861 0.612704 0.647990
0.930129 0.667461 0.704155
0.939165 0.716196 0.751968
0.946361 0.759315 0.793919
0.952159 0.797529 0.829945
0.956281 0.831546 0.860209
0.959299 0.861890 0.883757
0.961581 0.885541 0.900719
0.963264 0.903242 0.912749
0.220531 0.470926 0.222988
0.220342 0.470086 0.222991
0.219830 0.469270 0.222716
0.219644 0.468427 0.222718
0.219140 0.467608 0.222444
0.218965 0.466762 0.222444
0.218358 0.465734 0.222104
0.217877 0.464264 0.221903
0.217020 0.462354 0.221298
0.215861 0.459940 0.219787
0.214656 0.457422 0.213994
0.254738 0.456065 0.212706
0.325362 0.456295 0.209181
0.406478 0.455294 0.174219
0.506704 0.446931 0.138115
0.597582 0.430007 0.133015
0.678524 0.401720 0.142443
0.739358 0.370110 0.203787
0.794790 0.360230 0.257369
0.832108 0.376933 0.312762
0.855626 0.409398 0.375321
0.875110 0.454036 0.442257
0.892130 0.507969 0.515429
0.907063 0.563919 0.584043
0.919707 0.618162 0.646725
0.930716 0.671253 0.703357
0.939545 0.718712 0.751441
0.946613 0.761056 0.793578
0.952323 0.798715 0.829730
0.956348 0.832427 0.860131
0.959369 0.862425 0.883714
0.961623 0.885866 0.900701
0.963290 0.903436 0.912743
0.251741 0.541933 0.236302
0.251461 0.541346 0.236073
0.251186 0.540758 0.235845
0.250919 0.540168 0.235617
0.250663 0.539577 0.235392
0.250421 0.538985 0.235167
0.250142 0.538244 0.234889
0.249814 0.537203 0.234505
0.249547 0.535824 0.234013
0.249661 0.534011 0.233404
0.251433 0.531682 0.232739
0.262172 0.529079 0.232551
0.315034 0.528570 0.234109
0.392751 0.529882 0.224375
0.483325 0.528577 0.177315
0.581685 0.519362 0.139196
0.667426 0.502489 0.157102
0.743542 0.471024 0.173334
0.800099 0.432717 0.240408
0.836255 0.421231 0.304755
0.858349 0.440134 0.369833
0.877583 0.476360 0.437555
0.894203 0.523725 0.511723
0.908567 0.574298 0.581585
0.920840 0.625610 0.645021
0.931495 0.676364 0.702281
0.940049 0.722094 0.750733
0.946948 0.763385 0.793122
0.952540 0.800298 0.829443
0.956494 0.833520 0.859985
0.959428 0.863185 0.883685
0.961679 0.886297 0.900677
0.963324 0.903693 0.912734
0.285098 0.606536 0.261801
0.284979 0.606130 0.261608
0.284871 0.605722 0.261416
0.284776 0.605315 0.261225
0.284693 0.604907 0.261035
0.284625 0.604500 0.260847
0.284564 0.603989 0.260613
0.284531 0.603274 0.260290
0.284604 0.602329 0.259873
0.284976 0.601085 0.259343
0.286270 0.599471 0.258710
0.290704 0.597474 0.258101
0.307675 0.595518 0.258149
0.371424 0.596227 0.259754
0.459264 0.598653 0.245433
0.556386 0.597158 0.189450
0.648902 0.587736 0.148790
0.728818 0.572827 0.188889
0.799682 0.543484 0.215159
0.847834 0.502274 0.279713
0.865065 0.489989 0.358513
0.881495 0.510041 0.430913
0.897048 0.546111 0.506626
0.910625 0.588929 0.578256
0.922356 0.635867 0.642708
0.932525 0.683286 0.700816
0.940717 0.726661 0.749779
0.947390 0.766513 0.792508
0.952827 0.802414 0.829057
0.956646 0.835038 0.859822
0.959552 0.864130 0.883608
0.961725 0.886910 0.900669
0.963345 0.904067 0.912745
0.317136 0.665545 0.287018
0.317131 0.665273 0.286860
0.317135 0.665001 0.286704
0.317149 0.664729 0.286548
0.317175 0.664456 0.286393
0.317214 0.664184 0.286239
0.317284 0.663844 0.286049
0.317425 0.663368 0.285785
0.317706 0.662740 0.285444
0.318279 0.661915 0.285009
0.319512 0.660840 0.284471
0.322369 0.659473 0.283857
0.329761 0.657858 0.283317
0.352781 0.656563 0.283423
0.428840 0.658549 0.283507
0.527875 0.661727 0.260018
0.622008 0.658975 0.199933
0.709895 0.649214 0.160923
0.783357 0.635345 0.219838
0.847618 0.609157 0.260860
0.876647 0.571475 0.328450
0.889897 0.558774 0.415301
0.901215 0.577609 0.498743
0.913429 0.609969 0.573652
0.924375 0.650143 0.639517
0.933880 0.692711 0.698794
0.941600 0.732864 0.748482
0.947974 0.770731 0.791676
0.953206 0.805252 0.828535
0.956902 0.836990 0.859558
0.959681 0.865434 0.883531
0.961795 0.887710 0.900649
0.963404 0.904518 0.912729
0.347144 0.716930 0.312410
0.347242 0.716759 0.312281
0.347350 0.716587 0.312153
0.347468 0.716416 0.312025
0.347596 0.716246 0.311898
0.347736 0.716075 0.311772
0.347929 0.715863 0.311616
0.348233 0.715566 0.311400
0.348704 0.715175 0.311119
0.349464 0.714663 0.310758
0.350758 0.713998 0.310301
0.353110 0.713147 0.309744
0.357775 0.712102 0.309118
0.368427 0.710984 0.308585
0.397121 0.710491 0.308513
0.486271 0.714198 0.303589
0.591390 0.717588 0.268871
0.682489 0.713937 0.205808
0.762442 0.704639 0.180022
0.830941 0.692363 0.252159
0.873631 0.671135 0.316900
0.898323 0.635696 0.386315
0.909630 0.622337 0.479960
0.917652 0.640300 0.566070
0.927006 0.670240 0.634991
0.935634 0.705613 0.695947
0.942763 0.741354 0.746697
0.948743 0.776446 0.790540
0.953705 0.809071 0.827824
0.957159 0.839721 0.859270
0.959862 0.867153 0.883417
0.961897 0.888759 0.900614
0.963459 0.905148 0.912729
0.375575 0.761457 0.339006
0.375750 0.761351 0.338899
0.375932 0.761244 0.338793
0.376121 0.761138 0.338687
0.376319 0.761032 0.338582
0.376525 0.760926 0.338477
0.376795 0.760795 0.338347
0.377198 0.760611 0.338166
0.377777 0.760370 0.337930
0.378631 0.760054 0.337624
0.379934 0.759644 0.337231
0.382031 0.759118 0.336738
0.385624 0.758466 0.336141
0.392298 0.757711 0.335475
0.405990 0.757013 0.334857
0.442302 0.757389 0.334471
0.546246 0.762670 0.323772
0.648539 0.764956 0.275537
0.733740 0.760049 0.209910
0.808096 0.751617 0.208365
0.867406 0.741371 0.290946
0.893427 0.725449 0.375450
0.914248 0.696035 0.453396
0.925439 0.682561 0.546848
0.930951 0.698003 0.627006
0.937839 0.723409 0.691800
0.944271 0.753085 0.744187
0.949747 0.784244 0.788962
0.954359 0.814237 0.826844
0.957566 0.843296 0.858816
0.960079 0.869472 0.883279
0.962041 0.890137 0.900556
0.963540 0.905971 0.912722
0.401970 0.797904 0.366878
0.402195 0.797850 0.366794
0.402426 0.797797 0.366710
0.402663 0.797743 0.366627
0.402905 0.797690 0.366544
0.403154 0.797637 0.366462
0.403473 0.797572 0.366359
0.403939 0.797481 0.366217
0.404587 0.797361 0.366031
0.405505 0.797206 0.365789
0.406833 0.797007 0.365477
0.408810 0.796755 0.365079
0.411865 0.796445 0.364583
0.416825 0.796089 0.363986
0.425403 0.795743 0.363313
0.443047 0.795717 0.362716
0.488156 0.797385 0.361913
0.602167 0.804204 0.344550
0.700547 0.805777 0.290886
0.778151 0.800143 0.221715
0.845677 0.793049 0.244004
0.888247 0.785121 0.339125
0.909034 0.772701 0.435945
0.926913 0.748629 0.524871
0.937179 0.735199 0.607963
0.941210 0.747936 0.684111
0.946168 0.769470 0.740519
0.951034 0.794965 0.786713
0.955212 0.821307 0.825473
0.958034 0.848202 0.858250
0.960385 0.872529 0.883061
0.962212 0.891992 0.900493
0.963653 0.907048 0.912701
0.426300 0.824697 0.397448
0.426552 0.824675 0.397375
0.426807 0.824654 0.397302
0.427065 0.824633 0.397230
0.427328 0.824612 0.397158
0.427595 0.824591 0.397087
0.427933 0.824566 0.396997
0.428419 0.824530 0.396873
0.429083 0.824485 0.396710
0.429998 0.824427 0.396497
0.431275 0.824354 0.396219
0.433087 0.824265 0.395860
0.435717 0.824162 0.395401
0.439669 0.824056 0.394826
0.446097 0.823999 0.394142
0.457592 0.824143 0.393410
0.480514 0.824942 0.392708
0.535317 0.828149 0.390830
0.652539 0.835983 0.366295
0.744725 0.837149 0.311263
0.816723 0.832017 0.249612
0.874272 0.827453 0.289601
0.903634 0.823279 0.393658
0.922110 0.815226 0.501765
0.936579 0.795129 0.590290
0.946107 0.781835 0.666130
0.949153 0.791692 0.733172
0.952616 0.809822 0.783362
0.956260 0.831136 0.823561
0.958681 0.854766 0.857401
0.960803 0.876569 0.882719
0.962455 0.894426 0.900379
0.963787 0.908492 0.912685
0.450164 0.844119 0.433010
0.450414 0.844115 0.432949
0.450666 0.844110 0.432888
0.450922 0.844106 0.432828
0.451181 0.844102 0.432768
0.451442 0.844099 0.432708
0.451774 0.844094 0.432633
0.452248 0.844089 0.432529
0.452891 0.844083 0.432392
0.453772 0.844077 0.432213
0.454989 0.844073 0.431979
0.456698 0.844075 0.431678
0.459142 0.844090 0.431292
0.462730 0.844138 0.430806
0.468186 0.844255 0.430212
0.476891 0.844528 0.429516
0.491731 0.845169 0.428748
0.519750 0.846770 0.427837
0.584324 0.851559 0.424129
0.698449 0.859577 0.393073
0.783876 0.860329 0.339228
0.848759 0.855820 0.286358
0.895185 0.854450 0.343685
0.916338 0.854958 0.457448
0.932435 0.851143 0.564578
0.944399 0.835479 0.651063
0.951825 0.823461 0.719934
0.954967 0.829834 0.776618
0.957347 0.845016 0.821013
0.959458 0.863655 0.856186
0.961296 0.881995 0.882249
0.962761 0.897658 0.900216
0.963954 0.910403 0.912664
0.475585 0.857768 0.473279
0.475852 0.857776 0.473233
0.476121 0.857785 0.473187
0.476392 0.857793 0.473141
0.476666 0.857802 0.473096
0.476941 0.857811 0.473051
0.477288 0.857822 0.472995
0.477780 0.857838 0.472916
0.478443 0.857861 0.472813
0.479339 0.857892 0.472678
0.480559 0.857936 0.472502
0.482235 0.858000 0.472275
0.484564 0.858095 0.471982
0.487855 0.858238 0.471612
0.492606 0.858464 0.471152
0.499670 0.858834 0.470599
0.510602 0.859476 0.469958
0.529025 0.860717 0.469272
0.564044 0.863473 0.468275
0.630435 0.869395 0.462397
0.738854 0.877030 0.427190
0.818773 0.877334 0.376494
0.874093 0.873279 0.333372
0.908744 0.875039 0.403897
0.927118 0.879990 0.523720
0.940697 0.879727 0.623303
0.950582 0.868827 0.704350
0.955754 0.859447 0.768275
0.958434 0.863951 0.816986
0.960339 0.875537 0.854301
0.961886 0.889158 0.881520
0.963128 0.901944 0.899989
0.964193 0.912880 0.912592
0.505332 0.869219 0.520967
0.505594 0.869230 0.520935
0.505858 0.869242 0.520902
0.506123 0.869253 0.520869
0.506389 0.869264 0.520837
0.506657 0.869276 0.520804
0.506993 0.869291 0.520764
0.507468 0.869312 0.520708
0.508104 0.869340 0.520633
0.508957 0.869378 0.520536
0.510107 0.869431 0.520409
0.511665 0.869505 0.520243
0.513792 0.869608 0.520028
0.516724 0.869756 0.519753
0.520835 0.869974 0.519406
0.526834 0.870316 0.518991
0.535873 0.870878 0.518520
0.549966 0.871844 0.518006
0.572750 0.873587 0.517359
0.610158 0.876802 0.515659
0.675241 0.882941 0.507180
0.775945 0.890506 0.469565
0.849840 0.890714 0.423052
0.893351 0.886778 0.387752
0.920118 0.891577 0.471082
0.935872 0.898712 0.584285
0.947452 0.901182 0.677858
0.954712 0.895348 0.754529
0.958903 0.888316 0.810247
0.961167 0.890879 0.851067
0.962537 0.898457 0.880322
0.963600 0.907498 0.899570
0.964477 0.916135 0.912488
0.540051 0.880373 0.571305
0.540314 0.880387 0.571294
0.540578 0.880402 0.571283
0.540842 0.880417 0.571273
0.541108 0.880432 0.571263
0.541375 0.880446 0.571252
0.541710 0.880465 0.571240
0.542182 0.880492 0.571222
0.542813 0.880528 0.571199
0.543657 0.880576 0.571170
0.544789 0.880641 0.571133
0.546316 0.880731 0.571085
0.548384 0.880854 0.571027
0.551206 0.881025 0.570956
0.555090 0.881269 0.570875
0.560500 0.881620 0.570788
0.568139 0.882139 0.570703
0.579106 0.882929 0.570626
0.595105 0.884164 0.570519
0.618573 0.886130 0.570110
0.655304 0.889526 0.568301
0.717540 0.895616 0.558650
0.810254 0.901977 0.521267
0.876330 0.902148 0.480982
0.909188 0.898739 0.451250
0.929710 0.905070 0.535149
0.943304 0.913453 0.643892
0.952150 0.917769 0.734664
0.958032 0.914280 0.798913
0.961458 0.909073 0.845467
0.963163 0.910111 0.878139
0.964106 0.914618 0.898878
0.964822 0.920327 0.912285
0.581377 0.891281 0.619438
0.581613 0.891296 0.619440
0.581849 0.891311 0.619441
0.582086 0.891326 0.619443
0.582323 0.891341 0.619445
0.582560 0.891356 0.619447
0.582858 0.891375 0.619449
0.583276 0.891401 0.619452
0.583832 0.891436 0.619457
0.584572 0.891483 0.619463
0.585559 0.891547 0.619472
0.586876 0.891632 0.619485
0.588638 0.891747 0.619503
0.591003 0.891903 0.619530
0.594188 0.892117 0.619569
0.598496 0.892413 0.619627
0.604353 0.892826 0.619708
0.612354 0.893412 0.619817
0.623324 0.894251 0.619934
0.639085 0.895539 0.620054
0.662681 0.897636 0.619948
0.698836 0.901145 0.618191
0.755446 0.906723 0.608085
0.841642 0.911998 0.572121
0.897588 0.911624 0.539335
0.921918 0.909223 0.515202
0.937859 0.915979 0.594690
0.948995 0.925553 0.707178
0.956049 0.929549 0.782634
0.960730 0.927545 0.836164
0.963421 0.923559 0.874140
0.964579 0.923314 0.897550
0.965223 0.925600 0.911851
0.623773 0.901749 0.665977
0.623951 0.901761 0.665982
0.624129 0.901772 0.665988
0.624308 0.901784 0.665993
0.624486 0.901796 0.665999
0.624665 0.901807 0.666005
0.624889 0.901822 0.666012
0.625204 0.901843 0.666022
0.625623 0.901870 0.666035
0.626179 0.901907 0.666053
0.626919 0.901956 0.666077
0.627906 0.902021 0.666110
0.629223 0.902109 0.666154
0.630986 0.902229 0.666214
0.633355 0.902391 0.666298
0.636548 0.902613 0.666413
0.640880 0.902921 0.666575
0.646796 0.903353 0.666800
0.654951 0.903972 0.667112
0.666318 0.904878 0.667522
