color-grading/luts/03_combined_slog3/BNC_SLog3_L11_Acros.cube
TITLE "BNC SLog3 L11 Acros"
# BNC Grade v1.0 - S-Log3/S-Gamut3.Cine -> BNC Base -> Fujifilm Acros-style fine-grain black & white with punchy contrast and a gentle toe.
# Input: S-Log3 / S-Gamut3.Cine | Output: Rec.709 Gamma 2.4
LUT_3D_SIZE 9
DOMAIN_MIN 0.0 0.0 0.0
DOMAIN_MAX 1.0 1.0 1.0
0.001404 0.001404 0.001404
0.013093 0.013093 0.013093
0.116781 0.116781 0.116781
0.315146 0.315146 0.315146
0.551702 0.551702 0.551702
0.724837 0.724837 0.724837
0.851225 0.851225 0.851225
0.931771 0.931771 0.931771
0.952497 0.952497 0.952497
0.009885 0.009885 0.009885
0.008473 0.008473 0.008473
0.100073 0.100073 0.100073
0.307637 0.307637 0.307637
0.550361 0.550361 0.550361
0.725521 0.725521 0.725520
0.851740 0.851740 0.851740
0.931852 0.931851 0.931851
0.952506 0.952506 0.952506
0.107241 0.107241 0.107241
0.100375 0.100375 0.100375
0.136270 0.136270 0.136270
0.303379 0.303379 0.303379
0.548914 0.548913 0.548913
0.726751 0.726751 0.726751
0.852572 0.852572 0.852572
0.931979 0.931979 0.931979
0.952522 0.952522 0.952521
0.296057 0.296057 0.296057
0.293189 0.293189 0.293189
0.290061 0.290061 0.290061
0.367921 0.367921 0.367921
0.560922 0.560922 0.560922
0.732038 0.732038 0.732038
0.855321 0.855321 0.855321
0.932379 0.932379 0.932379
0.952569 0.952569 0.952569
0.522751 0.522751 0.522751
0.522265 0.522265 0.522265
0.521716 0.521716 0.521715
0.524158 0.524158 0.524158
0.662221 0.662221 0.662221
0.780447 0.780447 0.780447
0.865383 0.865383 0.865383
0.933636 0.933636 0.933636
0.952717 0.952717 0.952717
0.680645 0.680645 0.680645
0.680904 0.680904 0.680904
0.681365 0.681365 0.681365
0.683312 0.683312 0.683312
0.699945 0.699945 0.699945
0.865580 0.865580 0.865580
0.912019 0.912019 0.912019
0.937754 0.937754 0.937754
0.953183 0.953183 0.953183
0.788220 0.788220 0.788220
0.788590 0.788590 0.788590
0.789191 0.789191 0.789190
0.791177 0.791177 0.791177
0.798521 0.798521 0.798521
0.836163 0.836163 0.836163
0.946614 0.946614 0.946614
0.951954 0.951954 0.951954
0.954700 0.954700 0.954700
0.884849 0.884849 0.884849
0.884989 0.884989 0.884989
0.885211 0.885211 0.885211
0.885907 0.885907 0.885907
0.888084 0.888084 0.888084
0.895153 0.895153 0.895153
0.921168 0.921168 0.921168
0.960441 0.960441 0.960441
0.960073 0.960073 0.960073
0.932924 0.932924 0.932923
0.932943 0.932943 0.932943
0.932974 0.932974 0.932974
0.933070 0.933070 0.933070
0.933368 0.933368 0.933367
0.934293 0.934293 0.934292
0.937209 0.937209 0.937209
0.946823 0.946823 0.946823
0.963530 0.963530 0.963530
0.002805 0.002805 0.002805
0.011859 0.011859 0.011859
0.114236 0.114236 0.114236
0.313968 0.313968 0.313968
0.551455 0.551455 0.551455
0.724909 0.724909 0.724909
0.851256 0.851256 0.851256
0.931775 0.931775 0.931775
0.952497 0.952497 0.952497
0.005723 0.005723 0.005723
0.004513 0.004513 0.004513
0.095565 0.095565 0.095565
0.306081 0.306081 0.306081
0.550038 0.550038 0.550038
0.725576 0.725576 0.725576
0.851769 0.851769 0.851769
0.931855 0.931855 0.931855
0.952507 0.952507 0.952507
0.097631 0.097631 0.097631
0.090329 0.090329 0.090329
0.125534 0.125534 0.125534
0.299845 0.299845 0.299845
0.548426 0.548426 0.548426
0.726779 0.726778 0.726778
0.852599 0.852599 0.852599
0.931983 0.931983 0.931983
0.952522 0.952522 0.952522
0.291785 0.291785 0.291785
0.288846 0.288846 0.288846
0.285454 0.285454 0.285454
0.363324 0.363324 0.363323
0.558929 0.558929 0.558928
0.731958 0.731958 0.731958
0.855338 0.855338 0.855338
0.932383 0.932383 0.932383
0.952570 0.952570 0.952570
0.521620 0.521620 0.521620
0.521111 0.521111 0.521111
0.520517 0.520517 0.520517
0.522756 0.522756 0.522756
0.660912 0.660912 0.660912
0.779698 0.779698 0.779698
0.865371 0.865371 0.865371
0.933639 0.933639 0.933639
0.952718 0.952718 0.952718
0.680526 0.680525 0.680525
0.680780 0.680780 0.680780
0.681235 0.681234 0.681234
0.683156 0.683156 0.683156
0.699656 0.699656 0.699656
0.865450 0.865450 0.865450
0.911929 0.911929 0.911929
0.937754 0.937754 0.937754
0.953183 0.953183 0.953183
0.788245 0.788245 0.788245
0.788614 0.788614 0.788614
0.789213 0.789213 0.789213
0.791195 0.791195 0.791195
0.798526 0.798526 0.798526
0.836144 0.836144 0.836144
0.946635 0.946635 0.946635
0.951949 0.951949 0.951949
0.954700 0.954700 0.954700
0.884852 0.884852 0.884852
0.884992 0.884992 0.884992
0.885214 0.885214 0.885214
0.885910 0.885910 0.885909
0.888087 0.888087 0.888087
0.895156 0.895156 0.895156
0.921172 0.921172 0.921172
0.960446 0.960446 0.960446
0.960072 0.960072 0.960072
0.932924 0.932924 0.932924
0.932944 0.932944 0.932943
0.932974 0.932974 0.932974
0.933071 0.933071 0.933071
0.933368 0.933368 0.933368
0.934293 0.934293 0.934293
0.937210 0.937210 0.937210
0.946824 0.946824 0.946824
0.963531 0.963531 0.963531
0.016263 0.016263 0.016263
0.024494 0.024494 0.024494
0.121040 0.121040 0.121040
0.314132 0.314132 0.314132
0.551319 0.551319 0.551319
0.725074 0.725074 0.725074
0.851310 0.851310 0.851310
0.931782 0.931782 0.931782
0.952498 0.952498 0.952498
0.015728 0.015728 0.015728
0.015864 0.015864 0.015864
0.100991 0.100991 0.100991
0.305595 0.305595 0.305595
0.549777 0.549777 0.549777
0.725714 0.725714 0.725714
0.851820 0.851820 0.851820
0.931862 0.931862 0.931862
0.952508 0.952508 0.952508
0.092647 0.092647 0.092647
0.084861 0.084861 0.084861
0.116508 0.116508 0.116508
0.296595 0.296595 0.296595
0.547909 0.547909 0.547909
0.726871 0.726871 0.726871
0.852646 0.852646 0.852646
0.931989 0.931989 0.931989
0.952523 0.952523 0.952523
0.285890 0.285890 0.285890
0.282757 0.282757 0.282757
0.278878 0.278878 0.278878
0.356419 0.356419 0.356419
0.556124 0.556124 0.556124
0.731880 0.731880 0.731880
0.855371 0.855371 0.855371
0.932389 0.932389 0.932389
0.952571 0.952571 0.952571
0.519921 0.519921 0.519921
0.519375 0.519375 0.519375
0.518710 0.518710 0.518710
0.520621 0.520621 0.520620
0.658883 0.658883 0.658883
0.778544 0.778544 0.778544
0.865356 0.865356 0.865356
0.933644 0.933644 0.933644
0.952719 0.952719 0.952719
0.680362 0.680362 0.680362
0.680610 0.680610 0.680609
0.681053 0.681053 0.681053
0.682936 0.682936 0.682936
0.699221 0.699221 0.699221
0.865257 0.865257 0.865257
0.911789 0.911789 0.911789
0.937754 0.937754 0.937754
0.953184 0.953184 0.953184
0.788287 0.788287 0.788287
0.788655 0.788655 0.788655
0.789251 0.789251 0.789251
0.791227 0.791227 0.791227
0.798538 0.798538 0.798538
0.836117 0.836117 0.836117
0.946669 0.946669 0.946669
0.951942 0.951942 0.951942
0.954700 0.954700 0.954700
0.884857 0.884857 0.884857
0.884997 0.884996 0.884996
0.885218 0.885218 0.885218
0.885914 0.885914 0.885914
0.888092 0.888092 0.888092
0.895161 0.895161 0.895161
0.921178 0.921178 0.921177
0.960454 0.960454 0.960454
0.960072 0.960072 0.960072
0.932925 0.932925 0.932925
0.932945 0.932945 0.932944
0.932975 0.932975 0.932975
0.933072 0.933072 0.933071
0.933369 0.933369 0.933369
0.934294 0.934294 0.934294
0.937211 0.937211 0.937211
0.946825 0.946825 0.946825
0.963533 0.963533 0.963533
0.099090 0.099090 0.099090
0.105103 0.105103 0.105103
0.159345 0.159345 0.159345
0.326937 0.326937 0.326937
0.555262 0.555262 0.555262
0.726177 0.726177 0.726177
0.851513 0.851513 0.851513
0.931803 0.931803 0.931803
0.952501 0.952501 0.952501
0.098700 0.098700 0.098700
0.101975 0.101975 0.101975
0.144254 0.144254 0.144254
0.318056 0.318056 0.318056
0.553305 0.553305 0.553305
0.726722 0.726722 0.726722
0.852015 0.852015 0.852015
0.931883 0.931883 0.931883
0.952511 0.952511 0.952510
0.113254 0.113254 0.113254
0.111581 0.111581 0.111581
0.128443 0.128443 0.128443
0.305449 0.305449 0.305449
0.550620 0.550620 0.550620
0.727720 0.727720 0.727720
0.852828 0.852828 0.852828
0.932010 0.932010 0.932010
0.952526 0.952526 0.952526
0.284685 0.284685 0.284685
0.281256 0.281256 0.281256
0.276419 0.276419 0.276419
0.348698 0.348698 0.348698
0.552319 0.552319 0.552319
0.732149 0.732149 0.732149
0.855510 0.855510 0.855510
0.932408 0.932408 0.932408
0.952574 0.952573 0.952573
0.516713 0.516713 0.516713
0.516039 0.516039 0.516039
0.515143 0.515143 0.515143
0.515935 0.515935 0.515935
0.653745 0.653745 0.653745
0.775297 0.775297 0.775297
0.865348 0.865348 0.865347
0.933660 0.933659 0.933659
0.952721 0.952721 0.952721
0.680105 0.680105 0.680105
0.680331 0.680331 0.680331
0.680739 0.680739 0.680739
0.682497 0.682497 0.682497
0.698102 0.698102 0.698102
0.864794 0.864794 0.864794
0.911377 0.911377 0.911377
0.937756 0.937756 0.937756
0.953186 0.953186 0.953186
0.788439 0.788439 0.788439
0.788803 0.788803 0.788803
0.789393 0.789393 0.789393
0.791348 0.791348 0.791347
0.798597 0.798597 0.798597
0.836055 0.836055 0.836055
0.946782 0.946782 0.946782
0.951920 0.951920 0.951920
0.954701 0.954701 0.954701
0.884872 0.884872 0.884872
0.885012 0.885012 0.885012
0.885234 0.885234 0.885234
0.885930 0.885930 0.885930
0.888110 0.888109 0.888109
0.895179 0.895179 0.895179
0.921197 0.921197 0.921196
0.960478 0.960478 0.960478
0.960070 0.960070 0.960070
0.932928 0.932928 0.932928
0.932947 0.932947 0.932947
0.932978 0.932978 0.932978
0.933075 0.933074 0.933074
0.933372 0.933372 0.933372
0.934297 0.934297 0.934297
0.937215 0.937215 0.937215
0.946829 0.946829 0.946829
0.963538 0.963538 0.963538
0.254720 0.254720 0.254720
0.259245 0.259245 0.259245
0.270656 0.270656 0.270656
0.370508 0.370508 0.370508
0.577949 0.577949 0.577949
0.736684 0.736684 0.736684
0.852483 0.852483 0.852483
0.931883 0.931883 0.931883
0.952510 0.952510 0.952510
0.254778 0.254777 0.254777
0.258699 0.258699 0.258699
0.268626 0.268626 0.268626
0.363908 0.363908 0.363908
0.575649 0.575649 0.575649
0.737024 0.737024 0.737024
0.852961 0.852961 0.852961
0.931962 0.931962 0.931962
0.952520 0.952520 0.952520
0.256616 0.256616 0.256616
0.259613 0.259613 0.259613
0.267424 0.267424 0.267424
0.353851 0.353851 0.353851
0.572152 0.572152 0.572152
0.737666 0.737666 0.737666
0.853736 0.853736 0.853736
0.932088 0.932088 0.932087
0.952535 0.952535 0.952535
0.295852 0.295852 0.295852
0.295034 0.295034 0.295034
0.295479 0.295479 0.295479
0.338659 0.338659 0.338659
0.564737 0.564737 0.564737
0.740687 0.740687 0.740687
0.856293 0.856293 0.856293
0.932482 0.932482 0.932482
0.952582 0.952582 0.952582
0.528890 0.528890 0.528890
0.527985 0.527985 0.527985
0.526664 0.526664 0.526664
0.524797 0.524796 0.524796
0.655539 0.655539 0.655539
0.772888 0.772888 0.772888
0.865692 0.865692 0.865692
0.933721 0.933721 0.933721
0.952730 0.952730 0.952730
0.684686 0.684686 0.684686
0.684839 0.684839 0.684839
0.685127 0.685127 0.685127
0.686461 0.686461 0.686461
0.699746 0.699746 0.699745
0.866694 0.866694 0.866694
0.910376 0.910376 0.910376
0.937773 0.937773 0.937773
0.953193 0.953193 0.953193
0.789266 0.789266 0.789266
0.789615 0.789615 0.789615
0.790181 0.790181 0.790181
0.792062 0.792062 0.792062
0.799090 0.799090 0.799090
0.836108 0.836108 0.836108
0.947209 0.947209 0.947209
0.951855 0.951855 0.951855
0.954705 0.954705 0.954705
0.884935 0.884935 0.884935
0.885075 0.885075 0.885075
0.885298 0.885298 0.885297
0.885994 0.885994 0.885994
0.888177 0.888177 0.888177
0.895247 0.895247 0.895247
0.921266 0.921266 0.921266
0.960554 0.960554 0.960554
0.960064 0.960064 0.960064
0.932938 0.932938 0.932937
0.932957 0.932957 0.932957
0.932988 0.932988 0.932988
0.933084 0.933084 0.933084
0.933382 0.933382 0.933382
0.934307 0.934307 0.934307
0.937226 0.937226 0.937226
0.946843 0.946843 0.946843
0.963553 0.963553 0.963553
0.426682 0.426682 0.426682
0.430009 0.430009 0.430009
0.436006 0.436006 0.436006
0.462148 0.462148 0.462148
0.615216 0.615216 0.615216
0.755889 0.755889 0.755889
0.859429 0.859429 0.859429
0.932258 0.932258 0.932258
0.952542 0.952542 0.952542
0.426885 0.426885 0.426885
0.430074 0.430074 0.430073
0.435829 0.435829 0.435828
0.460993 0.460993 0.460993
0.613404 0.613404 0.613404
0.755994 0.755994 0.755994
0.859843 0.859843 0.859843
0.932334 0.932334 0.932334
0.952552 0.952552 0.952551
0.427537 0.427537 0.427537
0.430509 0.430508 0.430508
0.435885 0.435885 0.435885
0.459523 0.459523 0.459523
0.610566 0.610566 0.610566
0.756211 0.756211 0.756211
0.860512 0.860512 0.860512
0.932456 0.932456 0.932456
0.952567 0.952567 0.952567
0.432915 0.432915 0.432915
0.435206 0.435206 0.435206
0.439403 0.439403 0.439403
0.458345 0.458345 0.458345
0.602256 0.602256 0.602256
0.757385 0.757385 0.757385
0.862723 0.862723 0.862723
0.932837 0.932837 0.932837
0.952614 0.952614 0.952614
0.515520 0.515520 0.515519
0.515374 0.515374 0.515374
0.515410 0.515410 0.515410
0.518425 0.518425 0.518425
0.603304 0.603304 0.603304
0.771012 0.771012 0.771012
0.870860 0.870860 0.870860
0.934035 0.934035 0.934035
0.952760 0.952760 0.952760
0.705207 0.705207 0.705207
0.705255 0.705255 0.705255
0.705361 0.705361 0.705361
0.705985 0.705985 0.705985
0.714137 0.714137 0.714137
0.880993 0.880993 0.880992
0.910596 0.910596 0.910596
0.937947 0.937947 0.937946
0.953220 0.953220 0.953219
0.796598 0.796598 0.796598
0.796903 0.796903 0.796903
0.797398 0.797398 0.797398
0.799055 0.799055 0.799055
0.805375 0.805375 0.805374
0.840804 0.840804 0.840804
0.949622 0.949622 0.949622
0.951711 0.951711 0.951711
0.954719 0.954719 0.954719
0.885290 0.885290 0.885290
0.885430 0.885430 0.885430
0.885653 0.885653 0.885653
0.886351 0.886351 0.886351
0.888541 0.888541 0.888541
0.895615 0.895615 0.895615
0.921592 0.921592 0.921592
0.960811 0.960811 0.960811
0.960049 0.960049 0.960049
0.932973 0.932973 0.932973
0.932992 0.932992 0.932992
0.933023 0.933023 0.933023
0.933120 0.933120 0.933119
0.933417 0.933417 0.933417
0.934343 0.934343 0.934343
0.937266 0.937266 0.937265
0.946888 0.946888 0.946888
0.963602 0.963602 0.963602
0.636694 0.636694 0.636694
0.638323 0.638323 0.638323
0.640962 0.640962 0.640962
0.649808 0.649808 0.649808
0.683444 0.683444 0.683444
0.800115 0.800115 0.800115
0.856915 0.856915 0.856915
0.934717 0.934717 0.934717
0.952683 0.952683 0.952683
0.636997 0.636997 0.636997
0.638617 0.638617 0.638617
0.641230 0.641230 0.641230
0.649987 0.649987 0.649987
0.683339 0.683339 0.683339
0.800419 0.800419 0.800419
0.857233 0.857233 0.857233
0.934785 0.934785 0.934785
0.952692 0.952692 0.952692
0.637518 0.637518 0.637518
0.639122 0.639122 0.639122
0.641699 0.641699 0.641699
0.650315 0.650315 0.650315
0.683215 0.683215 0.683215
0.800920 0.800920 0.800920
0.857747 0.857747 0.857747
0.934892 0.934892 0.934892
0.952707 0.952707 0.952707
0.639466 0.639466 0.639465
0.641015 0.641015 0.641015
0.643508 0.643508 0.643508
0.651702 0.651702 0.651701
0.683167 0.683167 0.683167
0.802645 0.802645 0.802645
0.859432 0.859432 0.859432
0.935229 0.935229 0.935229
0.952753 0.952753 0.952753
0.648671 0.648671 0.648671
0.650032 0.650032 0.650032
0.652233 0.652233 0.652233
0.659455 0.659455 0.659455
0.686450 0.686450 0.686450
0.805447 0.805447 0.805447
0.865473 0.865473 0.865473
0.936289 0.936289 0.936288
0.952894 0.952894 0.952894
0.720929 0.720929 0.720929
0.721541 0.721541 0.721541
0.722554 0.722554 0.722554
0.726074 0.726074 0.726074
0.740562 0.740562 0.740562
0.832553 0.832553 0.832553
0.895883 0.895883 0.895883
0.939743 0.939743 0.939743
0.953340 0.953340 0.953340
0.812292 0.812292 0.812291
0.812513 0.812513 0.812513
0.812872 0.812872 0.812872
0.814059 0.814059 0.814059
0.818480 0.818480 0.818479
0.847608 0.847608 0.847608
0.953782 0.953782 0.953782
0.952046 0.952046 0.952046
0.954799 0.954798 0.954798
0.888823 0.888823 0.888823
0.888962 0.888962 0.888962
0.889182 0.889182 0.889181
0.889871 0.889871 0.889871
0.892038 0.892038 0.892038
0.899063 0.899063 0.899063
0.924235 0.924235 0.924235
0.961894 0.961894 0.961893
0.960019 0.960019 0.960018
0.933143 0.933143 0.933143
0.933163 0.933163 0.933163
0.933194 0.933194 0.933193
0.933290 0.933290 0.933290
0.933588 0.933588 0.933588
0.934514 0.934514 0.934514
0.937442 0.937442 0.937442
0.947068 0.947068 0.947068
0.963760 0.963760 0.963760
0.832773 0.832773 0.832773
0.833177 0.833177 0.833177
0.833821 0.833821 0.833820
0.835855 0.835855 0.835855
0.842398 0.842398 0.842398
0.865505 0.865505 0.865505
0.914516 0.914516 0.914516
0.929525 0.929525 0.929524
0.953645 0.953645 0.953645
0.832853 0.832853 0.832853
0.833257 0.833257 0.833257
0.833899 0.833899 0.833899
0.835930 0.835930 0.835930
0.842461 0.842461 0.842461
0.865522 0.865522 0.865522
0.914644 0.914644 0.914643
0.929589 0.929588 0.929588
0.953653 0.953653 0.953653
0.832983 0.832983 0.832983
0.833385 0.833385 0.833385
0.834026 0.834025 0.834025
0.836050 0.836050 0.836050
0.842562 0.842562 0.842562
0.865551 0.865551 0.865551
0.914846 0.914846 0.914845
0.929690 0.929690 0.929690
0.953666 0.953666 0.953666
0.833404 0.833404 0.833404
0.833802 0.833802 0.833802
0.834437 0.834437 0.834437
0.836443 0.836443 0.836443
0.842895 0.842895 0.842895
0.865658 0.865658 0.865658
0.915479 0.915479 0.915479
0.930009 0.930009 0.930009
0.953707 0.953707 0.953707
0.834868 0.834868 0.834868
0.835255 0.835255 0.835255
0.835871 0.835871 0.835871
0.837818 0.837818 0.837818
0.844085 0.844085 0.844085
0.866161 0.866161 0.866160
0.917470 0.917470 0.917469
0.931014 0.931014 0.931014
0.953834 0.953834 0.953833
0.841084 0.841084 0.841084
0.841434 0.841434 0.841434
0.841991 0.841991 0.841991
0.843754 0.843754 0.843754
0.849436 0.849436 0.849436
0.869442 0.869442 0.869442
0.923930 0.923930 0.923930
0.934334 0.934334 0.934334
0.954231 0.954231 0.954231
0.879164 0.879164 0.879164
0.879390 0.879390 0.879390
0.879749 0.879749 0.879749
0.880884 0.880884 0.880884
0.884530 0.884530 0.884530
0.897154 0.897154 0.897154
0.941862 0.941862 0.941862
0.946595 0.946595 0.946595
0.955533 0.955533 0.955533
0.891507 0.891507 0.891507
0.891635 0.891635 0.891635
0.891837 0.891837 0.891837
0.892475 0.892475 0.892475
0.894499 0.894499 0.894499
0.901286 0.901286 0.901286
0.926184 0.926184 0.926183
0.963639 0.963639 0.963639
0.960230 0.960230 0.960230
0.934535 0.934535 0.934535
0.934554 0.934554 0.934554
0.934584 0.934584 0.934584
0.934678 0.934678 0.934678
0.934970 0.934970 0.934969
0.935876 0.935876 0.935876
0.938750 0.938750 0.938750
0.948174 0.948174 0.948174
0.964380 0.964380 0.964380
0.932726 0.932726 0.932726
0.932775 0.932775 0.932775
0.932853 0.932853 0.932853
0.933095 0.933095 0.933095
0.933843 0.933843 0.933843
0.936163 0.936163 0.936162
0.943317 0.943317 0.943316
0.950487 0.950487 0.950487
0.951082 0.951082 0.951081
0.932735 0.932735 0.932735
0.932784 0.932784 0.932784
0.932861 0.932861 0.932861
0.933103 0.933103 0.933103
0.933851 0.933851 0.933851
0.936168 0.936168 0.936168
0.943318 0.943318 0.943318
0.950502 0.950502 0.950502
0.951090 0.951090 0.951090
0.932748 0.932748 0.932748
0.932797 0.932797 0.932797
0.932874 0.932874 0.932874
0.933116 0.933116 0.933116
0.933863 0.933863 0.933863
0.936178 0.936178 0.936178
0.943320 0.943320 0.943320
0.950526 0.950526 0.950526
0.951103 0.951103 0.951103
0.932789 0.932789 0.932789
0.932838 0.932838 0.932838
0.932915 0.932915 0.932915
0.933156 0.933156 0.933156
0.933900 0.933900 0.933900
0.936207 0.936207 0.936207
0.943327 0.943327 0.943327
0.950601 0.950601 0.950601
0.951144 0.951144 0.951144
0.932921 0.932921 0.932921
0.932969 0.932969 0.932969
0.933045 0.933045 0.933045
0.933283 0.933283 0.933283
0.934019 0.934019 0.934019
0.936300 0.936300 0.936300
0.943352 0.943352 0.943352
0.950834 0.950834 0.950834
0.951271 0.951271 0.951271
0.933360 0.933360 0.933360
0.933407 0.933407 0.933407
0.933480 0.933480 0.933480
0.933710 0.933710 0.933710
0.934419 0.934419 0.934419
0.936622 0.936622 0.936621
0.943456 0.943456 0.943456
0.951552 0.951552 0.951552
0.951669 0.951669 0.951669
0.935063 0.935063 0.935063
0.935103 0.935103 0.935103
0.935168 0.935168 0.935168
0.935369 0.935369 0.935369
0.935993 0.935993 0.935993
0.937935 0.937935 0.937935
0.944038 0.944038 0.944038
0.953767 0.953767 0.953767
0.952964 0.952964 0.952964
0.943168 0.943168 0.943168
0.943193 0.943193 0.943193
0.943232 0.943232 0.943232
0.943354 0.943354 0.943354
0.943732 0.943732 0.943732
0.944904 0.944903 0.944903
0.948555 0.948555 0.948555
0.960174 0.960174 0.960174
0.957806 0.957806 0.957806
0.935833 0.935833 0.935833
0.935851 0.935851 0.935851
0.935881 0.935881 0.935881
0.935973 0.935973 0.935973
0.936257 0.936257 0.936257
0.937139 0.937139 0.937139
0.939946 0.939946 0.939946
0.949467 0.949467 0.949467
0.965635 0.965635 0.965635
