color-grading/luts/03_combined_slog3/BNC_SLog3_L02_Print2383.cube
TITLE "BNC SLog3 L02 Print2383"
# BNC Grade v1.0 — S-Log3/S-Gamut3.Cine -> BNC Base -> Kodak 2383 print-stock emulation: punchy contrast, a crushed toe, cool-leaning shadows against warm highlights, and an overall desaturated, filmic roll-off.
# Input: S-Log3 / S-Gamut3.Cine | Output: Rec.709 Gamma 2.4
LUT_3D_SIZE 9
DOMAIN_MIN 0.0 0.0 0.0
DOMAIN_MAX 1.0 1.0 1.0
0.000551 0.000553 0.000553
0.013520 0.004717 0.003755
0.149530 0.065659 0.048750
0.393573 0.126956 0.096891
0.664675 0.190626 0.184103
0.822483 0.338975 0.371660
0.900146 0.588558 0.623974
0.946890 0.800922 0.808551
0.963140 0.911671 0.898085
0.003034 0.009573 0.003888
0.003183 0.005184 0.002083
0.124544 0.057654 0.042694
0.382813 0.125261 0.094972
0.662301 0.196690 0.181614
0.822752 0.345181 0.370996
0.900418 0.591206 0.623830
0.946967 0.801512 0.808512
0.963152 0.911752 0.898084
0.049125 0.152810 0.084618
0.045900 0.142570 0.080577
0.093801 0.135374 0.054354
0.368433 0.136707 0.094430
0.659035 0.209789 0.178306
0.823278 0.355451 0.370052
0.900837 0.595466 0.623632
0.947087 0.802452 0.808453
0.963169 0.911881 0.898082
0.123024 0.389158 0.143075
0.121980 0.385183 0.142627
0.120040 0.378960 0.141536
0.360095 0.366738 0.124791
0.664263 0.306840 0.167029
0.826074 0.391286 0.367721
0.902067 0.609262 0.623261
0.947445 0.805434 0.808287
0.963222 0.912283 0.898079
0.210245 0.640619 0.188367
0.209934 0.639673 0.187285
0.210497 0.638142 0.186025
0.230599 0.633727 0.185530
0.657246 0.625328 0.206889
0.864862 0.559572 0.312766
0.906106 0.654928 0.623532
0.948367 0.815087 0.808019
0.963376 0.913532 0.898075
0.282678 0.787745 0.269242
0.284663 0.787704 0.268854
0.288053 0.787653 0.268256
0.300892 0.787630 0.266532
0.376696 0.790132 0.263530
0.849926 0.783520 0.261993
0.925676 0.793032 0.563031
0.950401 0.846908 0.808912
0.963751 0.917451 0.898149
0.448772 0.847508 0.482446
0.450257 0.847603 0.482360
0.452650 0.847757 0.482227
0.460452 0.848274 0.481842
0.487933 0.850251 0.480942
0.606970 0.860473 0.478928
0.935907 0.887764 0.593953
0.956242 0.910064 0.761297
0.964406 0.928635 0.898708
0.674732 0.901834 0.687414
0.675216 0.901881 0.687435
0.675983 0.901954 0.687467
0.678384 0.902184 0.687569
0.685868 0.902903 0.687891
0.709905 0.905238 0.688946
0.800243 0.913750 0.689729
0.955269 0.925847 0.753784
0.964907 0.943868 0.876862
0.828721 0.933530 0.814716
0.828830 0.933539 0.814726
0.829003 0.933555 0.814741
0.829541 0.933604 0.814790
0.831209 0.933755 0.814941
0.836427 0.934229 0.815416
0.853180 0.935744 0.816930
0.907931 0.940215 0.817448
0.963162 0.942175 0.831515
0.000259 0.000982 0.003404
0.010927 0.003518 0.004463
0.145366 0.064360 0.047850
0.391774 0.126554 0.099411
0.664560 0.188301 0.194406
0.822981 0.336191 0.376833
0.900269 0.587525 0.625809
0.946877 0.800725 0.808986
0.963137 0.911647 0.898141
0.001485 0.003938 0.002583
0.001891 0.001903 0.001894
0.119188 0.055668 0.041249
0.380850 0.124675 0.096354
0.662067 0.194374 0.191616
0.823230 0.342463 0.376149
0.900553 0.590165 0.625654
0.946956 0.801314 0.808946
0.963148 0.911728 0.898140
0.044741 0.138907 0.079098
0.041236 0.128199 0.074607
0.087760 0.120199 0.048771
0.365494 0.131410 0.094045
0.658560 0.207306 0.187809
0.823714 0.352848 0.375185
0.900989 0.594413 0.625438
0.947079 0.802251 0.808884
0.963166 0.911857 0.898138
0.121749 0.383792 0.142701
0.120184 0.379831 0.141887
0.118513 0.373441 0.140977
0.356870 0.360772 0.123442
0.661871 0.302221 0.177662
0.826274 0.389145 0.372971
0.902264 0.608194 0.625011
0.947443 0.805225 0.808713
0.963219 0.912259 0.898135
0.209442 0.639581 0.191392
0.209084 0.638615 0.190244
0.208865 0.637125 0.188184
0.226566 0.632803 0.185170
0.656473 0.623689 0.206131
0.864947 0.557507 0.320686
0.906249 0.654137 0.625347
0.948387 0.814857 0.808421
0.963375 0.913506 0.898130
0.282796 0.788011 0.273621
0.284764 0.787968 0.273230
0.288128 0.787913 0.272627
0.300882 0.787878 0.270892
0.376362 0.790331 0.267843
0.850420 0.783760 0.261741
0.926060 0.792904 0.565933
0.950417 0.846775 0.809342
0.963753 0.917423 0.898201
0.448673 0.847761 0.484315
0.450158 0.847856 0.484230
0.452550 0.848010 0.484100
0.460354 0.848528 0.483723
0.487846 0.850507 0.482854
0.606975 0.860763 0.481049
0.936009 0.887940 0.594738
0.956268 0.910165 0.762001
0.964406 0.928626 0.898774
0.674666 0.901891 0.687836
0.675151 0.901937 0.687856
0.675918 0.902011 0.687889
0.678322 0.902241 0.687992
0.685813 0.902961 0.688317
0.709871 0.905298 0.689382
0.800255 0.913829 0.690262
0.955290 0.925873 0.753837
0.964912 0.943884 0.876984
0.828705 0.933539 0.814801
0.828814 0.933549 0.814810
0.828986 0.933564 0.814826
0.829525 0.933613 0.814875
0.831194 0.933765 0.815026
0.836413 0.934238 0.815502
0.853172 0.935754 0.817019
0.907935 0.940230 0.817566
0.963169 0.942190 0.831606
0.013636 0.039699 0.060263
0.013912 0.040488 0.061975
0.143956 0.057742 0.115268
0.390852 0.123089 0.133808
0.664972 0.182814 0.214680
0.823857 0.331419 0.385447
0.900437 0.585900 0.628772
0.946854 0.800418 0.809678
0.963132 0.911609 0.898229
0.012656 0.036832 0.056363
0.012313 0.035831 0.055018
0.115963 0.049555 0.102495
0.379201 0.122070 0.125119
0.662261 0.189169 0.211461
0.824083 0.337792 0.384704
0.900739 0.588523 0.628598
0.946935 0.801004 0.809636
0.963143 0.911690 0.898228
0.039270 0.119011 0.104555
0.035726 0.107450 0.098443
0.072536 0.099409 0.098286
0.361998 0.125253 0.113259
0.658324 0.202304 0.206929
0.824516 0.348351 0.383683
0.901205 0.592749 0.628352
0.947061 0.801937 0.809572
0.963161 0.911818 0.898227
0.118896 0.375607 0.145503
0.117613 0.371438 0.144385
0.115559 0.364762 0.142574
0.351675 0.351149 0.120811
0.658246 0.295628 0.198186
0.826751 0.385378 0.381541
0.902560 0.606490 0.627832
0.947437 0.804897 0.809392
0.963215 0.912220 0.898223
0.208905 0.638059 0.199185
0.208472 0.637058 0.197920
0.208082 0.635511 0.195688
0.217735 0.631791 0.184450
0.655164 0.621023 0.205600
0.864881 0.554517 0.334376
0.906508 0.652808 0.628201
0.948417 0.814494 0.809063
0.963372 0.913466 0.898218
0.283050 0.788486 0.280964
0.284991 0.788437 0.280559
0.288311 0.788375 0.279933
0.300924 0.788316 0.278134
0.375889 0.790691 0.275013
0.851212 0.784201 0.262290
0.926677 0.792696 0.570574
0.950446 0.846553 0.810015
0.963756 0.917379 0.898285
0.448513 0.848165 0.487291
0.449997 0.848260 0.487209
0.452390 0.848414 0.487084
0.460194 0.848933 0.486721
0.487706 0.850916 0.485901
0.606996 0.861226 0.484425
0.936167 0.888191 0.595806
0.956309 0.910325 0.763117
0.964408 0.928611 0.898876
0.674561 0.901981 0.688504
0.675046 0.902028 0.688525
0.675815 0.902101 0.688558
0.678222 0.902332 0.688663
0.685725 0.903053 0.688993
0.709817 0.905394 0.690076
0.800275 0.913953 0.691106
0.955338 0.925984 0.754403
0.964920 0.943911 0.877176
0.828679 0.933554 0.814935
0.828788 0.933564 0.814945
0.828960 0.933579 0.814960
0.829499 0.933628 0.815009
0.831169 0.933780 0.815161
0.836391 0.934253 0.815638
0.853159 0.935770 0.817159
0.907940 0.940254 0.817752
0.963178 0.942215 0.831749
0.045135 0.131121 0.206565
0.045250 0.131086 0.207125
0.105301 0.077657 0.329555
0.378290 0.116527 0.333194
0.657720 0.167702 0.327383
0.827131 0.313130 0.418195
0.900703 0.580970 0.638465
0.946752 0.799489 0.811869
0.963115 0.911492 0.898506
0.044738 0.129921 0.204380
0.044733 0.129688 0.204133
0.053585 0.074706 0.325422
0.367003 0.114483 0.328472
0.657701 0.167520 0.322552
0.827383 0.319755 0.417032
0.901072 0.583525 0.638236
0.946840 0.800066 0.811823
0.963126 0.911573 0.898505
0.045394 0.131897 0.208365
0.044926 0.130346 0.205460
0.043937 0.127123 0.216415
0.349575 0.110724 0.321546
0.659251 0.167910 0.314410
0.827815 0.330780 0.415362
0.901643 0.587650 0.637900
0.946978 0.800985 0.811752
0.963144 0.911700 0.898503
0.119875 0.361760 0.335164
0.118414 0.356951 0.333480
0.116342 0.349173 0.330763
0.337914 0.347558 0.345617
0.656236 0.262546 0.301733
0.829565 0.369933 0.411782
0.903309 0.601146 0.637076
0.947391 0.803900 0.811546
0.963200 0.912100 0.898499
0.210427 0.637616 0.266930
0.209757 0.636479 0.265375
0.208879 0.634708 0.262756
0.219229 0.629637 0.254881
0.655562 0.616345 0.204550
0.862617 0.547882 0.385572
0.907527 0.648100 0.637059
0.948486 0.813376 0.811111
0.963362 0.913341 0.898491
0.284470 0.790492 0.307768
0.286327 0.790428 0.307322
0.289510 0.790341 0.306633
0.301677 0.790200 0.304630
0.374986 0.792289 0.300914
0.854559 0.786196 0.262901
0.928604 0.792057 0.585403
0.950564 0.845781 0.812060
0.963764 0.917242 0.898545
0.447978 0.849454 0.496720
0.449463 0.849549 0.496646
0.451856 0.849704 0.496532
0.459666 0.850225 0.496213
0.487245 0.852223 0.495561
0.607163 0.862696 0.495086
0.936719 0.889168 0.600197
0.956440 0.910824 0.766616
0.964393 0.928572 0.899235
0.674227 0.902264 0.690604
0.674714 0.902311 0.690626
0.675487 0.902385 0.690660
0.677905 0.902616 0.690769
0.685444 0.903341 0.691114
0.709642 0.905693 0.692251
0.800346 0.914340 0.693748
0.955469 0.926246 0.755586
0.964915 0.943997 0.877944
0.828597 0.933600 0.815355
0.828706 0.933610 0.815365
0.828879 0.933626 0.815380
0.829419 0.933675 0.815429
0.831091 0.933826 0.815582
0.836321 0.934301 0.816063
0.853118 0.935820 0.817599
0.907959 0.940329 0.818333
0.963205 0.942271 0.832034
0.080064 0.231989 0.420223
0.078469 0.227808 0.430629
0.065708 0.196061 0.473635
0.338311 0.136989 0.572427
0.625032 0.170212 0.572628
0.821458 0.264290 0.580498
0.898443 0.568466 0.672136
0.946174 0.796914 0.818854
0.963050 0.911143 0.899359
0.080646 0.233359 0.418625
0.079350 0.230084 0.426756
0.071620 0.210350 0.456361
0.326066 0.136014 0.573287
0.622794 0.169739 0.571888
0.822254 0.269783 0.579368
0.899004 0.570757 0.671853
0.946280 0.797469 0.818805
0.963063 0.911223 0.899358
0.081652 0.236210 0.419388
0.080677 0.233850 0.424784
0.076875 0.223660 0.445261
0.305276 0.134987 0.576799
0.619579 0.169486 0.571106
0.823619 0.278957 0.577612
0.899902 0.574439 0.671406
0.946447 0.798351 0.818728
0.963082 0.911349 0.899356
0.098548 0.285459 0.487696
0.097211 0.281453 0.485117
0.094660 0.274420 0.484644
0.219620 0.195459 0.609352
0.620327 0.170359 0.579107
0.828890 0.312038 0.572489
0.902713 0.586481 0.670042
0.946964 0.801128 0.818486
0.963143 0.911744 0.899351
0.224276 0.645073 0.609481
0.223150 0.643691 0.609236
0.222806 0.641377 0.608784
0.219878 0.635019 0.608210
0.673231 0.663253 0.651011
0.862158 0.501970 0.567057
0.910455 0.630607 0.667137
0.948421 0.810158 0.817824
0.963321 0.912969 0.899339
0.294001 0.806504 0.453877
0.295717 0.806398 0.453394
0.298668 0.806241 0.452644
0.310065 0.805881 0.450444
0.380883 0.807268 0.446489
0.874501 0.806749 0.362151
0.934333 0.789936 0.634335
0.951127 0.842717 0.818072
0.963776 0.916827 0.899359
0.445981 0.853955 0.528815
0.447470 0.854050 0.528749
0.449873 0.854204 0.528650
0.457724 0.854722 0.528382
0.485584 0.856731 0.527962
0.608177 0.867611 0.529831
0.938623 0.892469 0.614500
0.956864 0.912369 0.777562
0.964403 0.928396 0.900194
0.673126 0.903151 0.697214
0.673620 0.903198 0.697238
0.674403 0.903273 0.697277
0.676857 0.903508 0.697399
0.684509 0.904245 0.697788
0.709048 0.906633 0.699089
0.800636 0.915534 0.701971
0.955891 0.927103 0.759519
0.964947 0.944255 0.880029
0.828339 0.933743 0.816656
0.828449 0.933753 0.816666
0.828623 0.933768 0.816682
0.829165 0.933818 0.816732
0.830845 0.933970 0.816888
0.836100 0.934447 0.817379
0.852988 0.935976 0.818960
0.908020 0.940561 0.820129
0.963284 0.942428 0.832783
0.195959 0.222215 0.810799
0.211321 0.220467 0.811198
0.236227 0.217480 0.811786
0.322612 0.206137 0.812393
0.624516 0.192185 0.788683
0.799905 0.213274 0.785117
0.878263 0.529909 0.789508
0.943527 0.788687 0.840263
0.962799 0.910086 0.901929
0.189337 0.228239 0.810264
0.204768 0.226532 0.810673
0.229668 0.223621 0.811290
0.315452 0.212573 0.812160
0.621649 0.192871 0.790849
0.800648 0.213433 0.785940
0.878832 0.532049 0.789540
0.943643 0.789246 0.840249
0.962813 0.910167 0.901930
0.178553 0.238150 0.809374
0.194172 0.236499 0.809793
0.219151 0.233696 0.810446
0.304124 0.223093 0.811691
0.617467 0.192414 0.795562
0.801962 0.213593 0.787392
0.879750 0.535492 0.789596
0.943828 0.790135 0.840226
0.962834 0.910295 0.901932
0.142076 0.274783 0.807815
0.159500 0.273313 0.808357
0.185907 0.270892 0.809271
0.270487 0.262127 0.812181
0.596667 0.221525 0.797874
0.805290 0.220137 0.791073
0.882741 0.546681 0.789810
0.944405 0.792932 0.840154
0.962899 0.910693 0.901936
0.173582 0.504574 0.791709
0.173278 0.501835 0.794505
0.171437 0.497325 0.800790
0.190744 0.482576 0.821373
0.529737 0.432577 0.829959
0.807910 0.332276 0.792375
0.893320 0.585987 0.790874
0.946197 0.801805 0.839918
0.963101 0.911916 0.901945
0.310548 0.827674 0.790830
0.310540 0.827642 0.790973
0.310312 0.827636 0.791241
0.310662 0.827786 0.792245
0.317699 0.833787 0.800494
0.915366 0.894087 0.864463
0.937582 0.764913 0.797258
0.951729 0.831665 0.838944
0.963696 0.915657 0.901937
0.425227 0.872983 0.662851
0.426797 0.873091 0.662848
0.429334 0.873266 0.662849
0.437670 0.873855 0.662900
0.467745 0.876141 0.663578
0.607755 0.889035 0.673032
0.947834 0.909878 0.688076
0.958719 0.916929 0.813088
0.964390 0.927619 0.903048
0.668916 0.906016 0.719030
0.669433 0.906066 0.719061
0.670252 0.906145 0.719111
0.672817 0.906392 0.719269
0.680834 0.907167 0.719777
0.706539 0.909676 0.721538
0.802264 0.919204 0.728019
0.957301 0.929963 0.772670
0.965009 0.945044 0.886521
0.827488 0.934185 0.820736
0.827600 0.934195 0.820746
0.827776 0.934211 0.820763
0.828325 0.934261 0.820816
0.830029 0.934417 0.820981
0.835363 0.934902 0.821503
0.852535 0.936458 0.823216
0.908245 0.941268 0.825700
0.963544 0.942982 0.835642
0.531322 0.472743 0.866195
0.535872 0.471973 0.865980
0.543128 0.470743 0.865604
0.566434 0.466810 0.864132
0.643046 0.454030 0.857312
0.818411 0.409639 0.835919
0.848309 0.439094 0.837892
0.932979 0.760493 0.888041
0.961850 0.906438 0.909050
0.529796 0.476048 0.866723
0.534361 0.475276 0.866520
0.541615 0.474045 0.866163
0.564916 0.470106 0.864748
0.641647 0.457276 0.857996
0.818781 0.412647 0.836414
0.848683 0.440850 0.838171
0.933101 0.761020 0.888114
0.961865 0.906523 0.909056
0.527363 0.481354 0.867551
0.531950 0.480581 0.867369
0.539214 0.479347 0.867043
0.562504 0.475401 0.865722
0.639419 0.462494 0.859100
0.819382 0.417486 0.837215
0.849287 0.443668 0.838621
0.933294 0.761858 0.888229
0.961888 0.906657 0.909066
0.519646 0.498476 0.870050
0.524285 0.497704 0.869939
0.531643 0.496469 0.869723
0.554906 0.492516 0.868733
0.632357 0.479410 0.862682
0.821391 0.433194 0.839850
0.851260 0.452768 0.840084
0.933901 0.764499 0.888594
0.961960 0.907075 0.909097
0.495551 0.555995 0.876151
0.500162 0.555301 0.876310
0.507538 0.554180 0.876526
0.531031 0.550495 0.876897
0.609281 0.537467 0.874373
0.825116 0.488134 0.849826
0.858283 0.483969 0.845212
0.935813 0.772905 0.889757
0.962183 0.908361 0.909189
0.482115 0.767812 0.884440
0.485331 0.767545 0.884638
0.490513 0.767137 0.884953
0.507378 0.765991 0.885950
0.565184 0.763594 0.889375
0.830401 0.731627 0.897789
0.893540 0.624404 0.869888
0.942087 0.801579 0.893736
0.962865 0.912299 0.909454
0.364914 0.884762 0.859040
0.366235 0.884860 0.859140
0.368362 0.885020 0.859301
0.375300 0.885550 0.859833
0.399969 0.887540 0.861799
0.534898 0.900844 0.874601
0.964491 0.952421 0.932126
0.962933 0.914021 0.908461
0.964305 0.924267 0.910688
0.646585 0.915536 0.809061
0.647140 0.915596 0.809103
0.648021 0.915691 0.809170
0.650788 0.915990 0.809383
0.659499 0.916929 0.810068
0.688007 0.919996 0.812465
0.800097 0.931639 0.824693
0.963100 0.942047 0.830824
0.965190 0.947262 0.905142
0.824289 0.935552 0.833964
0.824404 0.935563 0.833976
0.824587 0.935580 0.833995
0.825158 0.935633 0.834054
0.826930 0.935797 0.834240
0.832488 0.936309 0.834834
0.850523 0.937959 0.836876
0.909361 0.943346 0.842865
0.964389 0.944766 0.844817
0.811550 0.743158 0.906845
0.812536 0.742945 0.906749
0.814096 0.742607 0.906596
0.818943 0.741548 0.906109
0.833598 0.738230 0.904575
0.873898 0.727110 0.899892
0.909289 0.687976 0.888278
0.915556 0.694868 0.888935
0.958195 0.892881 0.923619
0.811316 0.744010 0.907016
0.812304 0.743797 0.906920
0.813867 0.743459 0.906768
0.818725 0.742399 0.906283
0.833418 0.739079 0.904748
0.873822 0.727962 0.900068
0.909482 0.688771 0.888426
0.915663 0.695299 0.889014
0.958211 0.892972 0.923634
0.810943 0.745363 0.907286
0.811934 0.745150 0.907192
0.813501 0.744812 0.907040
0.818375 0.743751 0.906558
0.833129 0.740426 0.905023
0.873700 0.729316 0.900347
0.909788 0.690035 0.888662
0.915834 0.695984 0.889140
0.958237 0.893116 0.923658
0.809754 0.749622 0.908130
0.810753 0.749408 0.908039
0.812336 0.749069 0.907892
0.817260 0.748005 0.907419
0.832204 0.744666 0.905888
0.873313 0.733571 0.901221
0.910751 0.694014 0.889403
0.916371 0.698142 0.889539
0.958316 0.893566 0.923731
0.805834 0.763105 0.910689
0.806862 0.762891 0.910612
0.808489 0.762551 0.910487
0.813562 0.761481 0.910073
0.829083 0.758106 0.908623
0.872039 0.747026 0.903955
0.913781 0.706638 0.891758
0.918072 0.705015 0.890808
0.958561 0.894956 0.923959
0.791781 0.807635 0.916591
0.792825 0.807457 0.916623
0.794486 0.807171 0.916670
0.799727 0.806248 0.916772
0.816357 0.803131 0.916648
0.866965 0.791908 0.912799
0.923714 0.749281 0.899730
0.923788 0.728507 0.895153
0.959318 0.899255 0.924669
0.744359 0.910488 0.912165
0.745311 0.910565 0.912290
0.746825 0.910688 0.912488
0.751590 0.911074 0.913111
0.766732 0.912309 0.915087
0.818117 0.916495 0.921679
0.952459 0.912682 0.931029
0.946353 0.831347 0.914271
0.961670 0.912454 0.926892
0.587801 0.912794 0.888921
0.588358 0.912858 0.888984
0.589242 0.912959 0.889085
0.592028 0.913277 0.889402
0.600871 0.914290 0.890417
0.630678 0.917751 0.893915
0.749975 0.931919 0.908849
0.966114 0.960455 0.951903
0.965377 0.947998 0.937023
0.811392 0.938870 0.880042
0.811510 0.938883 0.880056
0.811697 0.938903 0.880079
0.812280 0.938967 0.880149
0.814093 0.939164 0.880370
0.819814 0.939783 0.881069
0.838779 0.941799 0.883438
0.908655 0.948793 0.893351
0.965388 0.952098 0.899491
0.941993 0.904228 0.931078
0.942058 0.904192 0.931066
0.942161 0.904136 0.931047
0.942479 0.903959 0.930989
0.943420 0.903406 0.930814
0.946048 0.901616 0.930266
0.952046 0.895066 0.928313
0.952450 0.864524 0.921790
0.950715 0.852704 0.919541
0.941989 0.904363 0.931106
0.942054 0.904327 0.931094
0.942158 0.904270 0.931076
0.942475 0.904093 0.931018
0.943419 0.903541 0.930842
0.946050 0.901756 0.930295
0.952058 0.895216 0.928345
0.952481 0.864700 0.921822
0.950733 0.852797 0.919559
0.941982 0.904575 0.931151
0.942048 0.904540 0.931139
0.942151 0.904483 0.931121
0.942470 0.904307 0.931062
0.943418 0.903756 0.930886
0.946055 0.901976 0.930341
0.952077 0.895454 0.928394
0.952530 0.864980 0.921874
0.950760 0.852944 0.919586
0.941958 0.905236 0.931292
0.942025 0.905200 0.931280
0.942130 0.905144 0.931261
0.942452 0.904969 0.931203
0.943410 0.904423 0.931025
0.946068 0.902660 0.930483
0.952136 0.896195 0.928547
0.952684 0.865851 0.922036
0.950845 0.853404 0.919671
0.941866 0.907249 0.931725
0.941934 0.907215 0.931713
0.942043 0.907160 0.931694
0.942377 0.906989 0.931635
0.943369 0.906456 0.931455
0.946099 0.904744 0.930918
0.952310 0.898458 0.929017
0.953155 0.868538 0.922535
0.951109 0.854834 0.919935
0.941359 0.913229 0.933053
0.941436 0.913198 0.933041
0.941558 0.913147 0.933022
0.941934 0.912989 0.932964
0.943048 0.912497 0.932781
0.946089 0.910924 0.932228
0.952779 0.905208 0.930447
0.954588 0.876798 0.924077
0.951931 0.859329 0.920765
0.937315 0.929169 0.936064
0.937418 0.929151 0.936070
0.937580 0.929121 0.936079
0.938085 0.929028 0.936105
0.939615 0.928722 0.936154
0.944004 0.927628 0.936042
0.953450 0.923496 0.934557
0.958725 0.901029 0.928766
0.954554 0.874026 0.923485
0.899572 0.946312 0.930951
0.899766 0.946332 0.930979
0.900073 0.946364 0.931023
0.901029 0.946464 0.931159
0.903947 0.946770 0.931579
0.912649 0.947700 0.932867
0.935666 0.950318 0.936635
0.965554 0.950963 0.943102
0.963155 0.922964 0.933351
0.773231 0.935823 0.913464
0.773354 0.935838 0.913480
0.773550 0.935860 0.913505
0.774160 0.935932 0.913584
0.776055 0.936153 0.913830
0.782012 0.936847 0.914605
0.801778 0.939136 0.917181
0.881189 0.948077 0.927594
0.966243 0.962069 0.955895
