color-grading/luts/03_combined_slog3/BNC_SLog3_L01_Clean.cube
TITLE "BNC SLog3 L01 Clean"
# BNC Grade v1.0 — S-Log3/S-Gamut3.Cine -> BNC Base -> A neutral, true-to-life grade with a light punch -- the default 'just make it look intentional' pass.
# Input: S-Log3 / S-Gamut3.Cine | Output: Rec.709 Gamma 2.4
LUT_3D_SIZE 33
DOMAIN_MIN 0.0 0.0 0.0
DOMAIN_MAX 1.0 1.0 1.0
0.007440 0.007440 0.007440
0.007440 0.007440 0.007440
0.008848 0.007422 0.007423
0.032623 0.006307 0.006866
0.067720 0.000000 0.005438
0.099068 0.000000 0.005996
0.132871 0.000000 0.007265
0.172597 0.005141 0.009725
0.216746 0.006713 0.013222
0.266061 0.005149 0.018960
0.321819 0.010171 0.029219
0.384485 0.002410 0.043902
0.453197 0.012246 0.063023
0.527000 0.054419 0.090949
0.597675 0.088382 0.122632
0.666411 0.123426 0.158610
0.731666 0.161318 0.197654
0.792554 0.202092 0.240999
0.849904 0.246557 0.288620
0.879638 0.295056 0.341577
0.901819 0.348810 0.398827
0.918866 0.405809 0.460327
0.931974 0.468014 0.525905
0.942448 0.532596 0.586309
0.950400 0.590971 0.642407
0.956760 0.645588 0.692667
0.961525 0.693411 0.735415
0.965050 0.734436 0.772838
0.967753 0.770219 0.804942
0.969696 0.800924 0.833044
0.971226 0.827842 0.856666
0.972229 0.850092 0.875700
0.972652 0.868463 0.891003
0.007440 0.007440 0.007440
0.007440 0.007440 0.007440
0.007440 0.007440 0.007440
0.022655 0.007066 0.007209
0.056137 0.000000 0.005122
0.089570 0.000000 0.005295
0.124634 0.002882 0.006455
0.166075 0.000000 0.007563
0.211340 0.002206 0.010547
0.261658 0.002038 0.015827
0.318220 0.006794 0.025236
0.381698 0.009802 0.039924
0.450801 0.023287 0.059835
0.524911 0.060487 0.089103
0.596235 0.092475 0.121042
0.665365 0.126737 0.157265
0.730958 0.163975 0.196533
0.792064 0.204288 0.240051
0.849569 0.248395 0.287817
0.879563 0.296617 0.340887
0.901798 0.350128 0.398270
0.918875 0.406871 0.459853
0.931997 0.468930 0.525549
0.942469 0.533273 0.586063
0.950417 0.591451 0.642230
0.956773 0.645931 0.692550
0.961534 0.693638 0.735334
0.965057 0.734594 0.772783
0.967757 0.770327 0.804904
0.969699 0.800999 0.833017
0.971227 0.827894 0.856648
0.972231 0.850126 0.875689
0.972653 0.868486 0.890995
0.007440 0.007440 0.007440
0.007440 0.007440 0.007440
0.007440 0.007440 0.007440
0.014665 0.007359 0.007357
0.044358 0.004925 0.006115
0.079681 0.000000 0.004239
0.116311 0.002602 0.004605
0.159451 0.002799 0.004874
0.205925 0.005620 0.007146
0.257344 0.002585 0.010704
0.314742 0.004680 0.019560
0.379174 0.008204 0.034127
0.448089 0.035964 0.057568
0.522816 0.066544 0.087239
0.594797 0.096756 0.119446
0.664320 0.130179 0.155915
0.730249 0.166714 0.195410
0.791574 0.206543 0.239101
0.849234 0.250271 0.287013
0.879488 0.298203 0.340197
0.901777 0.351460 0.397712
0.918884 0.407941 0.459378
0.932019 0.469852 0.525192
0.942491 0.533953 0.585817
0.950434 0.591931 0.642053
0.956786 0.646274 0.692432
0.961543 0.693866 0.735253
0.965063 0.734753 0.772727
0.967761 0.770435 0.804865
0.969702 0.801074 0.832990
0.971229 0.827945 0.856630
0.972232 0.850161 0.875677
0.972654 0.868509 0.890987
0.006430 0.023548 0.006672
0.006820 0.020337 0.006933
0.007115 0.017331 0.007117
0.009434 0.014709 0.007226
0.035041 0.012231 0.006648
0.070281 0.007076 0.000000
0.108272 0.008528 0.000000
0.152840 0.010698 0.002043
0.200550 0.013409 0.002700
0.252901 0.016102 0.005573
0.311410 0.012075 0.007297
0.376782 0.013287 0.025849
0.445390 0.045962 0.055260
0.520720 0.072700 0.085354
0.593362 0.101250 0.117843
0.663277 0.133761 0.154559
0.729541 0.169539 0.194284
0.791086 0.208857 0.238150
0.848899 0.252186 0.286209
0.879414 0.299816 0.339505
0.901757 0.352807 0.397152
0.918893 0.409022 0.458903
0.932042 0.470779 0.524834
0.942512 0.534634 0.585571
0.950451 0.592414 0.641876
0.956798 0.646617 0.692314
0.961551 0.694094 0.735171
0.965069 0.734911 0.772672
0.967765 0.770543 0.804827
0.969705 0.801149 0.832964
0.971231 0.827997 0.856613
0.972233 0.850195 0.875665
0.972655 0.868533 0.890979
0.000059 0.055587 0.003641
0.000054 0.051274 0.003219
0.000050 0.047039 0.002895
0.000046 0.042921 0.000000
0.026595 0.039503 0.000000
0.062606 0.035853 0.000000
0.102286 0.031122 0.000000
0.147046 0.024930 0.000000
0.195431 0.024964 0.003741
0.248432 0.028180 0.004375
0.307374 0.031550 0.007114
0.373606 0.033817 0.021916
0.442712 0.055295 0.052899
0.518624 0.079046 0.083445
0.591932 0.105983 0.116234
0.662236 0.137495 0.153197
0.728833 0.172454 0.193156
0.790600 0.211235 0.237197
0.848565 0.254140 0.285405
0.879340 0.301455 0.338812
0.901736 0.354170 0.396592
0.918902 0.410115 0.458428
0.932065 0.471712 0.524476
0.942534 0.535318 0.585324
0.950468 0.592897 0.641699
0.956811 0.646961 0.692196
0.961560 0.694322 0.735090
0.965075 0.735070 0.772616
0.967769 0.770651 0.804788
0.969708 0.801224 0.832937
0.971233 0.828048 0.856595
0.972235 0.850230 0.875653
0.972656 0.868556 0.890972
0.001922 0.087877 0.004608
0.000089 0.084105 0.003906
0.000085 0.080256 0.003324
0.003463 0.076367 0.000000
0.017079 0.072743 0.000000
0.052514 0.069607 0.000000
0.095701 0.065328 0.000000
0.142693 0.058727 0.000934
0.191522 0.049252 0.001544
0.244344 0.044042 0.000000
0.303511 0.046247 0.007118
0.370485 0.047858 0.016879
0.440066 0.064671 0.050465
0.516533 0.085666 0.081510
0.590509 0.110985 0.114615
0.661199 0.141391 0.151828
0.728127 0.175469 0.192025
0.790115 0.213679 0.236243
0.848230 0.256135 0.284600
0.879267 0.303122 0.338119
0.901717 0.355549 0.396031
0.918912 0.411220 0.457952
0.932088 0.472651 0.524117
0.942556 0.536004 0.585077
0.950485 0.593382 0.641521
0.956824 0.647306 0.692078
0.961569 0.694551 0.735009
0.965081 0.735229 0.772560
0.967774 0.770760 0.804750
0.969711 0.801300 0.832910
0.971235 0.828100 0.856578
0.972236 0.850264 0.875641
0.972657 0.868579 0.890964
0.003416 0.121770 0.006042
0.000126 0.118606 0.004012
0.002914 0.115390 0.004081
0.004339 0.112166 0.000000
0.011228 0.108982 0.002135
0.038620 0.106301 0.000000
0.085039 0.103110 0.000000
0.135476 0.098147 0.003652
0.186802 0.090640 0.005282
0.240331 0.079264 0.004897
0.299190 0.068472 0.000000
0.366588 0.066191 0.008434
0.436821 0.077103 0.047269
0.513931 0.094463 0.079041
0.588742 0.117672 0.112576
0.659908 0.146514 0.150107
0.727245 0.179399 0.190605
0.789512 0.216834 0.235047
0.847812 0.258690 0.283592
0.879177 0.305248 0.337249
0.901692 0.357296 0.395328
0.918925 0.412620 0.457356
0.932117 0.473833 0.523668
0.942583 0.536865 0.584767
0.950507 0.593991 0.641299
0.956840 0.647738 0.691930
0.961580 0.694838 0.734907
0.965088 0.735427 0.772490
0.967779 0.770895 0.804702
0.969714 0.801394 0.832877
0.971238 0.828165 0.856555
0.972238 0.850307 0.875626
0.972658 0.868609 0.890954
0.004107 0.161853 0.007686
0.005929 0.159238 0.007502
0.000166 0.156614 0.003893
0.006125 0.153947 0.003726
0.010882 0.151278 0.003371
0.021611 0.148700 0.002878
0.066344 0.145975 0.000000
0.122587 0.142123 0.005054
0.178399 0.136466 0.000000
0.234567 0.127975 0.003957
0.294125 0.115174 0.008344
0.361026 0.098433 0.008550
0.432461 0.097073 0.042304
0.510334 0.108400 0.075453
0.586297 0.127992 0.109680
0.658110 0.154215 0.147671
0.726013 0.185231 0.188604
0.788671 0.221452 0.233363
0.847226 0.262391 0.282177
0.879052 0.308306 0.336027
0.901659 0.359789 0.394339
0.918944 0.414616 0.456518
0.932158 0.475506 0.523035
0.942620 0.538078 0.584332
0.950537 0.594849 0.640986
0.956862 0.648346 0.691722
0.961595 0.695241 0.734763
0.965099 0.735707 0.772392
0.967786 0.771086 0.804634
0.969719 0.801526 0.832830
0.971241 0.828255 0.856524
0.972240 0.850368 0.875605
0.972660 0.868650 0.890941
0.008931 0.205084 0.011863
0.003475 0.202985 0.008842
0.006576 0.200844 0.008563
0.002946 0.198717 0.000000
0.012749 0.196535 0.007796
0.018695 0.194392 0.007682
0.038843 0.191850 0.006807
0.102235 0.188842 0.000000
0.164107 0.184681 0.007075
0.224560 0.178522 0.005913
0.286806 0.169082 0.005604
0.354674 0.154156 0.009511
0.427290 0.132868 0.033401
0.505742 0.131247 0.070326
0.583147 0.143748 0.105756
0.655764 0.165482 0.144401
0.724393 0.193602 0.185933
0.787568 0.227947 0.231123
0.846452 0.267516 0.280298
0.878889 0.312502 0.334403
0.901617 0.363173 0.393024
0.918970 0.417320 0.455406
0.932212 0.477750 0.522193
0.942670 0.539695 0.583754
0.950576 0.595992 0.640571
0.956891 0.649154 0.691446
0.961615 0.695776 0.734573
0.965113 0.736078 0.772262
0.967796 0.771338 0.804545
0.969726 0.801701 0.832768
0.971246 0.828376 0.856483
0.972244 0.850448 0.875578
0.972662 0.868704 0.890923
0.010995 0.252283 0.015939
0.004772 0.250560 0.012750
0.008352 0.248796 0.012411
0.001890 0.247057 0.007348
0.011166 0.245280 0.006779
0.017459 0.243504 0.005889
0.028390 0.241302 0.004353
0.067995 0.238406 0.009011
0.140880 0.235090 0.008757
0.208286 0.230449 0.006940
0.274984 0.223551 0.009660
0.345504 0.212915 0.008752
0.420945 0.195371 0.002665
0.500217 0.172945 0.062103
0.579189 0.169469 0.100298
0.652747 0.182703 0.139967
0.722282 0.206010 0.182354
0.786131 0.237290 0.228134
0.845430 0.274728 0.277797
0.878679 0.318325 0.332241
0.901564 0.367799 0.391273
0.919007 0.421010 0.453927
0.932285 0.480772 0.521073
0.942736 0.541855 0.582986
0.950629 0.597518 0.640019
0.956930 0.650230 0.691079
0.961642 0.696488 0.734321
0.965131 0.736571 0.772090
0.967808 0.771674 0.804425
0.969735 0.801934 0.832686
0.971252 0.828535 0.856429
0.972248 0.850555 0.875541
0.972665 0.868776 0.890899
0.007619 0.304393 0.020727
0.010582 0.302909 0.020314
0.013104 0.301422 0.019830
0.010187 0.299970 0.016296
0.009344 0.298514 0.011276
0.017377 0.297022 0.010362
0.026659 0.295159 0.009057
0.046088 0.292587 0.006391
0.103097 0.289486 0.009533
0.182891 0.285836 0.005566
0.256529 0.280658 0.010407
0.331283 0.272942 0.006247
0.409866 0.260764 0.013977
0.493429 0.241428 0.045069
0.574567 0.216588 0.091998
0.649003 0.211395 0.133805
0.719578 0.225318 0.177512
0.784280 0.251175 0.224130
0.844084 0.285145 0.274454
0.878411 0.326540 0.329358
0.901499 0.374195 0.388939
0.919061 0.426092 0.451961
0.932383 0.484861 0.519579
0.942823 0.544747 0.581963
0.950699 0.599562 0.639285
0.956982 0.651665 0.690590
0.961677 0.697437 0.733985
0.965155 0.737226 0.771860
0.967825 0.772120 0.804267
0.969747 0.802243 0.832576
0.971260 0.828747 0.856356
0.972254 0.850696 0.875492
0.972668 0.868871 0.890867
0.005207 0.362954 0.030190
0.011343 0.361716 0.029644
0.015644 0.360473 0.029163
0.012407 0.359274 0.025965
0.010983 0.358071 0.022263
0.013310 0.356866 0.017502
0.021664 0.355345 0.008990
0.039262 0.353157 0.000000
0.068937 0.350271 0.011129
0.140700 0.346912 0.010639
0.227975 0.342789 0.012226
0.309732 0.336889 0.012863
0.393842 0.328039 0.009162
0.481433 0.313660 0.012829
0.568596 0.292748 0.076996
0.644713 0.265133 0.124576
0.716269 0.257718 0.170796
0.781949 0.272836 0.218721
0.842326 0.300835 0.269963
0.878078 0.338386 0.325501
0.901422 0.383166 0.385817
0.919139 0.433178 0.449340
0.932514 0.490432 0.517582
0.942938 0.548630 0.580598
0.950791 0.602307 0.638306
0.957049 0.653582 0.689938
0.961724 0.698702 0.733539
0.965188 0.738099 0.771555
0.967847 0.772712 0.804058
0.969762 0.802653 0.832431
0.971271 0.829028 0.856260
0.972261 0.850883 0.875428
0.972673 0.868998 0.890825
0.014722 0.426399 0.045788
0.019050 0.425393 0.045229
0.015226 0.424439 0.042681
0.011498 0.423487 0.039875
0.010493 0.422533 0.036865
0.013935 0.421578 0.033589
0.014393 0.420425 0.025866
0.028960 0.418772 0.009686
0.056261 0.416412 0.014539
0.095263 0.413386 0.015980
0.181457 0.409948 0.007474
0.277394 0.405551 0.013525
0.369637 0.399155 0.016561
0.461822 0.389376 0.015778
0.557151 0.373241 0.045939
0.638721 0.350571 0.109027
0.712663 0.319177 0.160813
0.779148 0.309707 0.211243
0.840042 0.325624 0.263864
0.877676 0.355996 0.320315
0.901338 0.396001 0.381625
0.919256 0.443217 0.445841
0.932689 0.498086 0.514904
0.943088 0.553864 0.578775
0.950912 0.606010 0.636998
0.957139 0.656150 0.689068
0.961785 0.700394 0.732944
0.965230 0.739262 0.771150
0.967876 0.773501 0.803779
0.969783 0.803199 0.832238
0.971284 0.829402 0.856133
0.972271 0.851132 0.875342
0.972680 0.869166 0.890769
0.021866 0.496758 0.064068
0.017570 0.495987 0.061818
0.013047 0.495214 0.059468
0.007780 0.494441 0.056948
0.006226 0.493664 0.054339
0.011453 0.492885 0.051630
0.021032 0.491894 0.048496
0.021857 0.490598 0.038779
0.035216 0.488877 0.012646
0.073312 0.486236 0.015269
0.122539 0.482851 0.012833
0.224589 0.478874 0.019302
0.331883 0.473794 0.013584
0.433728 0.466377 0.017198
0.536321 0.455201 0.016886
0.627647 0.437902 0.083233
0.707333 0.413938 0.144628
0.775879 0.379927 0.200148
0.837030 0.367416 0.255362
0.877216 0.383304 0.313267
0.901254 0.414888 0.375956
0.919429 0.457728 0.441149
0.932921 0.508714 0.511298
0.943281 0.560949 0.576331
0.951072 0.611034 0.635247
0.957255 0.659600 0.687903
0.961866 0.702661 0.732151
0.965286 0.740817 0.770609
0.967915 0.774552 0.803407
0.969810 0.803927 0.831982
0.971303 0.829899 0.855963
0.972284 0.851463 0.875228
0.972689 0.869389 0.890695
0.019864 0.569079 0.083810
0.013486 0.568549 0.081707
0.024922 0.567947 0.081219
0.022957 0.567413 0.079036
0.022067 0.566878 0.076777
0.022599 0.566341 0.074432
0.014428 0.565719 0.069869
0.022656 0.564787 0.064563
0.009747 0.563708 0.049601
0.040378 0.562167 0.016998
0.090453 0.559605 0.015753
0.153324 0.556293 0.020205
0.270975 0.552576 0.015487
0.392291 0.547578 0.020441
0.505346 0.539981 0.020837
0.608072 0.528120 0.007694
0.695288 0.509789 0.119051
0.769223 0.482799 0.182470
0.832424 0.443824 0.242634
0.876702 0.428379 0.303455
0.901217 0.444947 0.368184
0.919677 0.479233 0.434817
0.933221 0.523658 0.506408
0.943528 0.570648 0.573039
0.951280 0.617904 0.632892
0.957407 0.664259 0.686338
0.961971 0.705713 0.731089
0.965359 0.742900 0.769887
0.967965 0.775956 0.802913
0.969845 0.804897 0.831640
0.971327 0.830560 0.855737
0.972302 0.851902 0.875076
0.972700 0.869686 0.890597
0.001065 0.635799 0.104880
0.025241 0.635377 0.104506
0.021798 0.635036 0.102534
0.018724 0.634694 0.100515
0.016527 0.634351 0.098446
0.015937 0.634007 0.096322
0.022781 0.633556 0.094038
0.024346 0.632968 0.089573
0.028051 0.632214 0.082432
0.052701 0.631051 0.076430
0.086429 0.629299 0.074419
0.126854 0.627005 0.071390
0.191875 0.624127 0.065345
0.323234 0.620931 0.050094
0.456560 0.616231 0.021442
0.576616 0.608549 0.016150
0.673376 0.596949 0.075264
0.754732 0.579642 0.156421
0.823076 0.553453 0.222868
0.875865 0.513586 0.288776
0.901187 0.495886 0.357191
0.919978 0.511968 0.426168
0.933581 0.544949 0.499712
0.943845 0.584359 0.568577
0.951547 0.627388 0.629706
0.957601 0.670581 0.684223
0.962108 0.709842 0.729664
0.965455 0.745701 0.768920
0.968031 0.777835 0.802252
0.969892 0.806193 0.831185
0.971359 0.831440 0.855436
0.972325 0.852487 0.874875
0.972715 0.870079 0.890466
0.018361 0.697290 0.129300
0.031391 0.697004 0.128964
0.027826 0.696805 0.127156
0.024215 0.696606 0.125314
0.020623 0.696406 0.123439
0.017318 0.696205 0.121528
0.021648 0.695931 0.119488
0.016173 0.695598 0.115552
0.040869 0.695010 0.112968
0.066445 0.694112 0.111797
0.091220 0.692918 0.110244
0.120913 0.691333 0.108191
0.162356 0.689239 0.105506
0.234430 0.686550 0.102153
0.381501 0.683537 0.093837
0.526027 0.679024 0.074018
0.640188 0.671244 0.034132
0.732075 0.659563 0.118403
0.806553 0.642500 0.196065
0.870295 0.617342 0.267166
0.900289 0.580717 0.340666
0.920092 0.562483 0.414066
0.933915 0.575500 0.490400
0.944222 0.604173 0.562459
0.951874 0.640645 0.625362
0.957843 0.679220 0.681345
0.962283 0.715465 0.727743
0.965578 0.749486 0.767620
0.968117 0.780359 0.801367
0.969953 0.807930 0.830576
0.971401 0.832616 0.855034
0.972355 0.853267 0.874606
0.972735 0.870603 0.890292
0.031409 0.751276 0.155927
0.026474 0.751185 0.154307
0.020558 0.751094 0.152666
0.034968 0.750908 0.152374
0.044124 0.750722 0.152083
0.051421 0.750536 0.151791
0.059181 0.750303 0.151426
0.068597 0.749975 0.150914
0.079571 0.749540 0.150234
0.092680 0.748962 0.149331
0.108831 0.748195 0.148135
0.129565 0.747176 0.146548
0.157832 0.745824 0.144452
0.201091 0.744046 0.141713
0.280441 0.741785 0.138293
0.443110 0.739179 0.133127
0.591051 0.734978 0.117614
0.698974 0.727421 0.096711
0.782276 0.716317 0.159272
0.851701 0.700139 0.238797
0.896089 0.676504 0.316570
0.918959 0.641061 0.396260
0.933948 0.622330 0.477076
0.944574 0.633523 0.553786
0.952236 0.659449 0.619357
0.958129 0.691114 0.677390
0.962502 0.723194 0.725132
0.965735 0.754631 0.765863
0.968228 0.783764 0.800177
0.970033 0.810267 0.829760
0.971456 0.834190 0.854496
0.972394 0.854309 0.874247
0.972761 0.871300 0.890059
0.088095 0.797716 0.191911
0.091013 0.797595 0.191676
0.093875 0.797473 0.191442
0.096689 0.797351 0.191207
0.099460 0.797229 0.190972
0.102196 0.797107 0.190737
0.105574 0.796955 0.190444
0.110248 0.796740 0.190031
0.116351 0.796455 0.189485
0.124343 0.796077 0.188761
0.134887 0.795575 0.187802
0.149099 0.794908 0.186533
0.168842 0.794024 0.184855
0.197688 0.792852 0.182647
0.243747 0.791316 0.179779
0.332065 0.789382 0.176231
0.509687 0.787000 0.171755
0.650039 0.782583 0.158194
0.749047 0.774897 0.141240
0.825871 0.764229 0.201315
0.888114 0.749288 0.285486
0.914670 0.728258 0.370644
0.932483 0.696312 0.457026
0.944511 0.677888 0.540990
0.952511 0.686493 0.610877
0.958424 0.707676 0.671868
0.962761 0.733944 0.721547
0.965929 0.761686 0.763469
0.968367 0.788386 0.798569
0.970135 0.813427 0.828660
0.971527 0.836304 0.853773
0.972446 0.855704 0.873765
0.972796 0.872229 0.889748
0.136138 0.837723 0.233984
0.137847 0.837645 0.233793
0.139560 0.837567 0.233603
0.141277 0.837489 0.233412
0.142997 0.837411 0.233222
0.144722 0.837333 0.233032
0.146888 0.837235 0.232793
0.149941 0.837098 0.232459
0.154019 0.836916 0.232016
0.159487 0.836675 0.231429
0.166872 0.836354 0.230652
0.176953 0.835929 0.229623
0.190961 0.835366 0.228262
0.210997 0.834619 0.226465
0.241086 0.833635 0.224103
0.291049 0.832361 0.221047
0.387528 0.830798 0.217275
0.571815 0.828681 0.212430
0.702949 0.824131 0.199742
0.792452 0.816413 0.184068
0.862996 0.806204 0.245908
0.908136 0.792395 0.337629
0.928132 0.772860 0.428648
0.942788 0.743464 0.521122
0.952281 0.725688 0.598480
0.958609 0.731640 0.663969
0.963023 0.749134 0.716542
0.966152 0.771464 0.760170
0.968538 0.794749 0.796378
0.970264 0.817725 0.827171
0.971618 0.839152 0.852795
0.972513 0.857577 0.873118
0.972840 0.873470 0.889331
0.182165 0.870793 0.280531
0.183374 0.870747 0.280371
0.184590 0.870701 0.280211
0.185812 0.870655 0.280051
0.187039 0.870609 0.279891
0.188274 0.870563 0.279732
0.189827 0.870506 0.279532
0.192023 0.870425 0.279251
0.194966 0.870318 0.278880
0.198927 0.870176 0.278388
0.204288 0.869989 0.277737
0.211609 0.869740 0.276875
0.221736 0.869412 0.275734
0.236017 0.868977 0.274228
0.256939 0.868408 0.272244
0.289494 0.867673 0.269649
0.343847 0.866754 0.266307
0.448263 0.865702 0.262190
0.628347 0.863944 0.256197
0.747825 0.859461 0.243887
0.830020 0.851924 0.228499
0.892559 0.842389 0.294835
0.922231 0.829830 0.392934
0.938420 0.812079 0.492223
0.950376 0.784765 0.579325
0.958261 0.767282 0.652197
0.963154 0.771013 0.709362
0.966362 0.785202 0.755538
0.968732 0.803624 0.793356
0.970419 0.823619 0.825134
0.971731 0.843012 0.851464
0.972599 0.860103 0.872243
0.972898 0.875133 0.888768
0.230070 0.896106 0.332655
0.230978 0.896082 0.332526
0.231892 0.896058 0.332396
0.232810 0.896034 0.332266
0.233735 0.896010 0.332136
0.234665 0.895986 0.332006
0.235837 0.895957 0.331844
0.237495 0.895915 0.331616
0.239721 0.895860 0.331314
0.242720 0.895787 0.330915
0.246785 0.895690 0.330385
0.252334 0.895564 0.329683
0.259993 0.895397 0.328755
0.270717 0.895179 0.327526
0.286042 0.894896 0.325903
0.308587 0.894535 0.323764
0.343190 0.894089 0.320960
0.400378 0.893577 0.317333
0.512151 0.893154 0.312838
0.679650 0.891932 0.305033
0.787327 0.887946 0.292460
0.862238 0.881208 0.276400
0.914128 0.873191 0.348179
0.932895 0.862481 0.454457
0.946139 0.846036 0.551876
0.956207 0.820342 0.633567
0.962723 0.803127 0.698583
0.966421 0.804849 0.748837
0.968905 0.816199 0.789105
0.970589 0.831789 0.822309
0.971865 0.848277 0.849634
0.972706 0.863526 0.871049
0.972972 0.877367 0.888005
0.282356 0.912548 0.388489
0.283084 0.912542 0.388384
0.283815 0.912535 0.388279
0.284549 0.912529 0.388174
0.285286 0.912522 0.388069
0.286027 0.912516 0.387964
0.286958 0.912508 0.387833
0.288273 0.912497 0.387649
0.290030 0.912483 0.387405
0.292387 0.912465 0.387082
0.295559 0.912441 0.386655
0.299852 0.912410 0.386090
0.305705 0.912372 0.385343
0.313762 0.912325 0.384355
0.325004 0.912270 0.383053
0.340989 0.912213 0.381338
0.364332 0.912168 0.379089
0.400795 0.912191 0.376169
0.463621 0.912446 0.372443
0.570189 0.913124 0.367634
0.723545 0.912419 0.358156
0.821751 0.909018 0.345484
0.888190 0.903245 0.328979
0.926739 0.897183 0.405192
0.941224 0.889027 0.516473
0.952046 0.874905 0.606555
0.960607 0.851207 0.681316
0.965890 0.834111 0.738646
0.968906 0.834344 0.782921
0.970723 0.843249 0.818306
0.972006 0.855494 0.847077
0.972830 0.868193 0.869405
0.973063 0.880378 0.886961
0.338416 0.923505 0.450701
0.338983 0.923503 0.450617
0.339552 0.923501 0.450532
0.340122 0.923499 0.450447
0.340694 0.923497 0.450363
0.341268 0.923495 0.450278
0.341988 0.923492 0.450172
0.343004 0.923489 0.450024
0.344358 0.923484 0.449827
0.346167 0.923479 0.449566
0.348591 0.923472 0.449220
0.351851 0.923463 0.448762
0.356256 0.923453 0.448155
0.362251 0.923442 0.447350
0.370511 0.923433 0.446285
0.382281 0.923431 0.444877
0.399463 0.923452 0.443019
0.425171 0.923525 0.440576
0.464616 0.923712 0.437374
0.525392 0.924165 0.432924
0.623997 0.925185 0.426045
0.762350 0.926271 0.415756
0.852038 0.924342 0.402136
0.907292 0.919244 0.384551
0.936027 0.914991 0.467870
0.947723 0.908810 0.572165
0.956811 0.897308 0.656328
0.963719 0.876981 0.722102
0.968284 0.860818 0.773383
0.970664 0.859464 0.812429
0.972104 0.865490 0.843422
0.972955 0.874593 0.867099
0.973169 0.884454 0.885515
0.396944 0.932315 0.512198
0.397406 0.932317 0.512138
0.397870 0.932318 0.512079
0.398334 0.932320 0.512019
0.398801 0.932322 0.511959
0.399268 0.932324 0.511899
0.399855 0.932326 0.511825
0.400682 0.932330 0.511720
0.401784 0.932335 0.511581
0.403255 0.932341 0.511396
0.405224 0.932350 0.511151
0.407867 0.932362 0.510826
0.411432 0.932380 0.510394
0.416265 0.932405 0.509820
0.422862 0.932442 0.509057
0.431949 0.932498 0.508039
0.444602 0.932584 0.506680
0.462450 0.932720 0.504860
0.487938 0.932937 0.502411
0.524449 0.933281 0.499090
0.580150 0.933867 0.494524
0.671503 0.934863 0.488017
0.796242 0.935744 0.478137
0.877090 0.935267 0.464513
0.921955 0.931503 0.446340
0.943301 0.928550 0.527019
0.953120 0.923901 0.624286
0.960358 0.914278 0.698592
0.966206 0.896800 0.757787
0.970002 0.882089 0.803341
0.972010 0.879537 0.837996
0.973035 0.883410 0.863782
0.973279 0.889992 0.883475
0.458681 0.939871 0.566520
0.459039 0.939874 0.566479
0.459398 0.939877 0.566437
0.459757 0.939879 0.566395
0.460117 0.939882 0.566353
0.460477 0.939885 0.566311
0.460928 0.939888 0.566259
0.461563 0.939893 0.566186
0.462405 0.939900 0.566089
0.463526 0.939909 0.565960
0.465019 0.939921 0.565789
0.467008 0.939937 0.565562
0.469666 0.939958 0.565261
0.473226 0.939988 0.564862
0.478006 0.940028 0.564332
0.484450 0.940084 0.563627
0.493173 0.940162 0.562690
0.505029 0.940272 0.561440
0.521193 0.940427 0.559770
0.544276 0.940664 0.557534
0.578639 0.941043 0.554519
0.631118 0.941648 0.550400
0.712421 0.942523 0.544558
0.826162 0.943219 0.535650
0.896478 0.942693 0.523349
0.933048 0.940810 0.506884
0.949315 0.938669 0.581183
0.957257 0.935071 0.669356
0.963249 0.927101 0.735728
0.968069 0.912261 0.788498
0.971349 0.898985 0.829498
0.972930 0.895530 0.858815
0.973347 0.897527 0.880513
0.517085 0.946218 0.617409
0.517328 0.946220 0.617381
0.517570 0.946223 0.617353
0.517813 0.946225 0.617324
0.518056 0.946228 0.617296
0.518299 0.946230 0.617268
0.518604 0.946233 0.617233
0.519033 0.946238 0.617183
0.519602 0.946244 0.617117
0.520358 0.946251 0.617030
0.521365 0.946262 0.616915
0.522707 0.946276 0.616761
0.524499 0.946295 0.616558
0.526897 0.946320 0.616288
0.530118 0.946355 0.615930
0.534461 0.946402 0.615455
0.540352 0.946466 0.614822
0.548403 0.946557 0.613979
0.559513 0.946685 0.612856
