color-grading/luts/03_combined_slog3/BNC_SLog3_L08_Bleach.cube
TITLE "BNC SLog3 L08 Bleach"
# BNC Grade v1.0 - S-Log3/S-Gamut3.Cine -> BNC Base -> Bleach-bypass emulation: heavy contrast, a crushed toe, and cool-leaning desaturation.
# Input: S-Log3 / S-Gamut3.Cine | Output: Rec.709 Gamma 2.4
LUT_3D_SIZE 33
DOMAIN_MIN 0.0 0.0 0.0
DOMAIN_MAX 1.0 1.0 1.0
0.000176 0.000176 0.000176
0.000176 0.000176 0.000176
0.000204 0.000182 0.000182
0.001140 0.000627 0.000561
0.005025 0.002741 0.002435
0.015977 0.008908 0.008000
0.040328 0.023590 0.021688
0.075485 0.045945 0.043045
0.120433 0.072086 0.067097
0.173960 0.100447 0.092069
0.230770 0.129960 0.117868
0.289723 0.160064 0.144023
0.353329 0.192043 0.171687
0.422624 0.226422 0.201532
0.488985 0.259287 0.231202
0.553623 0.292367 0.263380
0.615576 0.326537 0.299410
0.673780 0.362672 0.340324
0.719248 0.398017 0.382525
0.741560 0.428624 0.422002
0.760947 0.464005 0.466856
0.780857 0.506564 0.518249
0.803453 0.558429 0.576531
0.828687 0.617134 0.634959
0.853576 0.673842 0.690538
0.878117 0.729248 0.742503
0.899497 0.779267 0.788218
0.916914 0.823156 0.828649
0.930860 0.861970 0.863374
0.941371 0.893420 0.890511
0.948818 0.915650 0.909194
0.953605 0.929444 0.921030
0.956716 0.938098 0.928695
0.000176 0.000176 0.000176
0.000176 0.000176 0.000176
0.000176 0.000176 0.000176
0.000649 0.000371 0.000341
0.003164 0.001722 0.001528
0.011457 0.006329 0.005657
0.033593 0.019413 0.017744
0.069291 0.042021 0.039299
0.114407 0.068853 0.064237
0.168995 0.097840 0.089782
0.226973 0.128004 0.116163
0.286653 0.158508 0.142675
0.350738 0.190753 0.170567
0.420634 0.225465 0.200660
0.487631 0.258739 0.230542
0.552687 0.292195 0.262847
0.615011 0.326725 0.299005
0.673509 0.363157 0.340043
0.719268 0.398731 0.382389
0.741750 0.429421 0.421943
0.761179 0.464818 0.466845
0.781101 0.507329 0.518251
0.803716 0.559174 0.576589
0.828915 0.617734 0.635031
0.853757 0.674292 0.690598
0.878254 0.729583 0.742559
0.899588 0.779497 0.788259
0.916974 0.823320 0.828681
0.930898 0.862083 0.863400
0.941394 0.893488 0.890529
0.948830 0.915686 0.909205
0.953611 0.929462 0.921035
0.956720 0.938108 0.928698
0.000176 0.000176 0.000176
0.000176 0.000176 0.000176
0.000176 0.000176 0.000176
0.000359 0.000236 0.000228
0.001954 0.001065 0.000946
0.007926 0.004347 0.003872
0.027048 0.015432 0.014017
0.063148 0.038100 0.035545
0.108441 0.065612 0.061352
0.164012 0.095220 0.087481
0.223146 0.126031 0.114442
0.283578 0.156950 0.141323
0.348148 0.189465 0.169449
0.418638 0.224515 0.199792
0.486285 0.258224 0.229902
0.551761 0.292065 0.262337
0.614458 0.326955 0.298621
0.673249 0.363680 0.339779
0.719295 0.399472 0.382264
0.741944 0.430234 0.421891
0.761416 0.465645 0.466840
0.781349 0.508102 0.518256
0.803980 0.559924 0.576648
0.829144 0.618337 0.635103
0.853939 0.674743 0.690659
0.878392 0.729920 0.742616
0.899678 0.779728 0.788300
0.917034 0.823484 0.828714
0.930936 0.862197 0.863426
0.941416 0.893556 0.890547
0.948842 0.915722 0.909216
0.953618 0.929480 0.921041
0.956723 0.938117 0.928701
0.000538 0.000797 0.000521
0.000440 0.000642 0.000426
0.000358 0.000511 0.000349
0.000321 0.000411 0.000294
0.001294 0.000743 0.000646
0.005466 0.002988 0.002653
0.021321 0.012023 0.010857
0.057200 0.034294 0.031899
0.102713 0.062396 0.058442
0.159069 0.092616 0.085193
0.219306 0.124048 0.112713
0.280510 0.155395 0.139973
0.345565 0.188183 0.168335
0.416639 0.223578 0.198933
0.484950 0.257751 0.229286
0.550849 0.291985 0.261852
0.613916 0.327230 0.298260
0.672999 0.364242 0.339533
0.719328 0.400240 0.382151
0.742144 0.431063 0.421846
0.761656 0.466484 0.466840
0.781599 0.508884 0.518265
0.804247 0.560679 0.576709
0.829374 0.618942 0.635177
0.854122 0.675196 0.690721
0.878530 0.730257 0.742673
0.899769 0.779958 0.788341
0.917094 0.823648 0.828746
0.930974 0.862310 0.863453
0.941438 0.893625 0.890565
0.948854 0.915758 0.909227
0.953624 0.929498 0.921047
0.956727 0.938127 0.928704
0.002392 0.003667 0.002350
0.002015 0.003078 0.001971
0.001694 0.002580 0.001651
0.001422 0.002158 0.001381
0.001430 0.001882 0.001228
0.004193 0.002604 0.002152
0.017658 0.009909 0.008900
0.052115 0.031048 0.028790
0.097498 0.059383 0.055678
0.154270 0.090085 0.082967
0.215497 0.122081 0.110995
0.277461 0.153851 0.138631
0.342996 0.186916 0.167230
0.414644 0.222667 0.198086
0.483630 0.257330 0.228697
0.549953 0.291962 0.261397
0.613387 0.327556 0.297923
0.672760 0.364845 0.339306
0.719370 0.401035 0.382049
0.742349 0.431908 0.421809
0.761901 0.467337 0.466845
0.781854 0.509678 0.518278
0.804516 0.561440 0.576773
0.829605 0.619549 0.635251
0.854306 0.675651 0.690783
0.878668 0.730594 0.742730
0.899860 0.780189 0.788382
0.917154 0.823812 0.828779
0.931012 0.862424 0.863479
0.941461 0.893693 0.890584
0.948866 0.915794 0.909237
0.953630 0.929516 0.921052
0.956730 0.938136 0.928707
0.007879 0.012819 0.008393
0.006926 0.011141 0.007265
0.006050 0.009634 0.006259
0.005258 0.008299 0.005374
0.004611 0.007214 0.004660
0.004761 0.006465 0.004241
0.014478 0.009113 0.007656
0.048374 0.028781 0.026569
0.093499 0.057039 0.053498
0.149834 0.087745 0.080905
0.211792 0.120169 0.109323
0.274453 0.152332 0.137308
0.340452 0.185676 0.166140
0.412659 0.221797 0.197260
0.482329 0.256974 0.228142
0.549075 0.292005 0.260975
0.612874 0.327937 0.297613
0.672534 0.365493 0.339099
0.719419 0.401859 0.381960
0.742559 0.432770 0.421778
0.762150 0.468204 0.466855
0.782112 0.510482 0.518296
0.804787 0.562207 0.576838
0.829837 0.620158 0.635326
0.854489 0.676106 0.690845
0.878807 0.730932 0.742787
0.899951 0.780421 0.788423
0.917214 0.823977 0.828811
0.931050 0.862537 0.863505
0.941483 0.893761 0.890602
0.948879 0.915830 0.909248
0.953637 0.929534 0.921058
0.956734 0.938146 0.928710
0.019658 0.038236 0.026322
0.018436 0.035118 0.024062
0.017198 0.032081 0.021871
0.015959 0.029165 0.019780
0.014757 0.026451 0.017847
0.013786 0.024275 0.016311
0.015180 0.022140 0.015090
0.043000 0.029455 0.025302
0.088868 0.055092 0.051281
0.145472 0.085596 0.078935
0.207503 0.117990 0.107399
0.270799 0.150518 0.135711
0.337329 0.184204 0.164821
0.410204 0.220812 0.196274
0.480739 0.256648 0.227508
0.548008 0.292168 0.260501
0.612257 0.328503 0.297269
0.672270 0.366370 0.338872
0.719492 0.402933 0.381867
0.742830 0.433874 0.421751
0.762469 0.469308 0.466877
0.782441 0.511503 0.518323
0.805129 0.563175 0.576922
0.830128 0.620924 0.635421
0.854720 0.676679 0.690924
0.878980 0.731356 0.742859
0.900065 0.780710 0.788474
0.917289 0.824183 0.828852
0.931098 0.862679 0.863538
0.941511 0.893847 0.890625
0.948894 0.915875 0.909262
0.953645 0.929556 0.921065
0.956738 0.938157 0.928714
0.037637 0.081997 0.057549
0.035975 0.078985 0.055525
0.034415 0.075952 0.053455
0.032951 0.072909 0.051349
0.031585 0.069881 0.049228
0.030346 0.066968 0.047168
0.029233 0.063830 0.044941
0.039915 0.061029 0.044150
0.083726 0.068470 0.056566
0.140628 0.089170 0.079137
0.202997 0.117590 0.106091
0.266152 0.148687 0.133854
0.333179 0.182570 0.163185
0.406880 0.219805 0.195061
0.478608 0.256507 0.226769
0.546587 0.292649 0.259959
0.611445 0.329488 0.296877
0.671937 0.367736 0.338615
0.719616 0.404521 0.381773
0.743228 0.435480 0.421738
0.762928 0.470894 0.466922
0.782912 0.512966 0.518373
0.805614 0.564547 0.577046
0.830539 0.622004 0.635556
0.855045 0.677486 0.691036
0.879224 0.731952 0.742960
0.900225 0.781118 0.788547
0.917395 0.824472 0.828910
0.931164 0.862879 0.863584
0.941551 0.893967 0.890657
0.948915 0.915937 0.909280
0.953656 0.929588 0.921075
0.956744 0.938174 0.928720
0.072009 0.133738 0.090225
0.070248 0.131115 0.088593
0.068479 0.128479 0.086950
0.066705 0.125835 0.085301
0.064932 0.123191 0.083650
0.063174 0.120570 0.082011
0.061084 0.117447 0.080056
0.059998 0.113697 0.077825
0.085620 0.112464 0.079942
0.139135 0.119148 0.092262
0.200708 0.134645 0.112395
0.263231 0.156263 0.135988
0.328942 0.183753 0.162557
0.402954 0.219945 0.194113
0.476073 0.257216 0.226210
0.544882 0.293881 0.259522
0.610487 0.331204 0.296552
0.671575 0.369817 0.338401
0.719826 0.406785 0.381716
0.743790 0.437721 0.421769
0.763559 0.473066 0.467010
0.783554 0.514957 0.518461
0.806267 0.566393 0.577219
0.831087 0.623445 0.635738
0.855479 0.678561 0.691186
0.879548 0.732746 0.743095
0.900437 0.781659 0.788643
0.917535 0.824857 0.828986
0.931253 0.863144 0.863645
0.941603 0.894125 0.890699
0.948943 0.916021 0.909305
0.953670 0.929629 0.921088
0.956752 0.938196 0.928727
0.111647 0.192485 0.126373
0.110173 0.190310 0.125047
0.108689 0.188121 0.123713
0.107197 0.185919 0.122369
0.105700 0.183709 0.121020
0.104202 0.181495 0.119667
0.102339 0.178741 0.117983
0.099892 0.175071 0.115739
0.104858 0.171491 0.114277
0.143408 0.171965 0.119364
0.203041 0.178304 0.132535
0.265030 0.188785 0.149742
0.329187 0.204230 0.170455
0.400052 0.227363 0.196107
0.473628 0.261057 0.226796
0.543093 0.297027 0.259653
0.609492 0.334399 0.296554
0.671260 0.373130 0.338374
0.720186 0.410085 0.381772
0.744601 0.440901 0.421900
0.764438 0.476072 0.467178
0.784440 0.517693 0.518615
0.807150 0.568888 0.577466
0.831820 0.625374 0.635985
0.856058 0.679999 0.691389
0.879979 0.733802 0.743276
0.900719 0.782379 0.788772
0.917721 0.825368 0.829088
0.931370 0.863495 0.863726
0.941672 0.894336 0.890755
0.948980 0.916131 0.909338
0.953690 0.929684 0.921105
0.956763 0.938225 0.928737
0.153925 0.254582 0.163845
0.152781 0.252906 0.162842
0.151628 0.251218 0.161832
0.150468 0.249519 0.160814
0.149302 0.247810 0.159790
0.148130 0.246093 0.158760
0.146659 0.243938 0.157468
0.144608 0.240927 0.155661
0.142566 0.237202 0.153475
0.159274 0.235030 0.154177
0.208989 0.237561 0.162274
0.271087 0.243385 0.175597
0.335175 0.250887 0.191312
0.404024 0.262187 0.210619
0.474063 0.277709 0.232909
0.542171 0.305784 0.261962
0.608860 0.340871 0.297611
0.671199 0.378697 0.338887
0.720835 0.415059 0.382107
0.745804 0.445520 0.422248
0.765682 0.480296 0.467498
0.785675 0.521496 0.518889
0.808351 0.572280 0.577823
0.832803 0.627961 0.636324
0.856834 0.681926 0.691664
0.880552 0.735211 0.743517
0.901093 0.783339 0.788944
0.917967 0.826047 0.829223
0.931525 0.863961 0.863834
0.941763 0.894614 0.890830
0.949030 0.916277 0.909382
0.953716 0.929757 0.921128
0.956777 0.938264 0.928749
0.197197 0.317896 0.201451
0.196290 0.316569 0.200668
0.195380 0.315237 0.199882
0.194467 0.313901 0.199093
0.193552 0.312561 0.198301
0.192634 0.311218 0.197508
0.191484 0.309534 0.196513
0.189871 0.307171 0.195117
0.187771 0.304067 0.193283
0.188822 0.300652 0.191630
0.219936 0.300626 0.195361
0.277879 0.304934 0.205950
0.342924 0.310942 0.219917
0.412379 0.318054 0.236170
0.483116 0.326121 0.254142
0.545949 0.332841 0.272403
0.609929 0.355423 0.301856
0.671940 0.388712 0.340809
0.722059 0.422918 0.383109
0.747655 0.452447 0.423059
0.767483 0.486348 0.468109
0.787427 0.526864 0.519382
0.810001 0.576932 0.578352
0.834128 0.631446 0.636791
0.857875 0.684517 0.692041
0.881316 0.737094 0.743841
0.901591 0.784618 0.789174
0.918295 0.826951 0.829403
0.931731 0.864580 0.863977
0.941884 0.894984 0.890928
0.949095 0.916470 0.909440
0.953750 0.929854 0.921158
0.956796 0.938315 0.928766
0.243164 0.385407 0.241072
0.242441 0.384340 0.240448
0.241717 0.383271 0.239824
0.240992 0.382202 0.239199
0.240267 0.381133 0.238574
0.239542 0.380063 0.237949
0.238635 0.378725 0.237166
0.237365 0.376850 0.236070
0.235693 0.374373 0.234622
0.233710 0.371143 0.232756
0.242049 0.368590 0.232425
0.286952 0.370803 0.239353
0.349603 0.375989 0.251471
0.419959 0.382278 0.266608
0.493888 0.388314 0.283157
0.558250 0.390929 0.298183
0.616900 0.391319 0.315764
0.674957 0.408316 0.346388
0.724529 0.436211 0.385723
0.750641 0.463299 0.424868
0.770167 0.495254 0.469285
0.789963 0.534593 0.520280
0.812288 0.583376 0.579151
0.835918 0.636160 0.637442
0.859280 0.688019 0.692561
0.882336 0.739617 0.744278
0.902254 0.786328 0.789483
0.918729 0.828156 0.829643
0.932004 0.865402 0.864166
0.942044 0.895473 0.891058
0.949181 0.916725 0.909516
0.953795 0.929982 0.921198
0.956821 0.938383 0.928788
0.292854 0.459403 0.284178
0.292273 0.458528 0.283669
0.291691 0.457651 0.283159
0.291107 0.456772 0.282647
0.290522 0.455891 0.282135
0.289935 0.455008 0.281621
0.289199 0.453900 0.280976
0.288164 0.452340 0.280069
0.286795 0.450266 0.278864
0.285047 0.447518 0.277275
0.283989 0.444065 0.275413
0.302709 0.442621 0.276983
0.357224 0.446196 0.286278
0.425521 0.451991 0.299968
0.502828 0.458671 0.316727
0.572289 0.461624 0.331371
0.633361 0.460311 0.345987
0.685152 0.453382 0.363053
0.730196 0.461796 0.392798
0.755775 0.481339 0.428896
0.774329 0.508854 0.471594
0.793734 0.546004 0.521942
0.815502 0.592419 0.580391
0.838349 0.642570 0.638357
0.861185 0.692780 0.693288
0.883701 0.743011 0.744869
0.903138 0.788621 0.789899
0.919306 0.829766 0.829964
0.932366 0.866495 0.864418
0.942256 0.896120 0.891231
0.949295 0.917063 0.909617
0.953855 0.930151 0.921250
0.956854 0.938472 0.928817
0.342178 0.534500 0.327587
0.341772 0.533874 0.327229
0.341363 0.533247 0.326871
0.340954 0.532618 0.326511
0.340544 0.531987 0.326150
0.340134 0.531354 0.325788
0.339619 0.530559 0.325334
0.338898 0.529440 0.324695
0.337951 0.527950 0.323845
0.336752 0.525971 0.322724
0.335566 0.523393 0.321306
0.337343 0.520477 0.320080
0.368646 0.521344 0.324501
0.431579 0.527033 0.336245
0.508498 0.534860 0.352271
0.584679 0.540795 0.368273
0.650111 0.540982 0.382107
0.704552 0.533826 0.396275
0.744011 0.516860 0.412057
0.765434 0.513890 0.438113
0.781450 0.531602 0.476626
0.799524 0.563384 0.525061
0.820082 0.605306 0.582355
0.841689 0.651395 0.639675
0.863782 0.699305 0.694317
0.885529 0.747594 0.745673
0.904317 0.791706 0.790464
0.920073 0.831922 0.830396
0.932845 0.867949 0.864753
0.942536 0.896976 0.891458
0.949446 0.917509 0.909750
0.953934 0.930374 0.921320
0.956897 0.938591 0.928856
0.386401 0.602923 0.366266
0.386127 0.602488 0.366016
0.385854 0.602053 0.365765
0.385581 0.601617 0.365515
0.385309 0.601180 0.365264
0.385039 0.600742 0.365013
0.384703 0.600194 0.364699
0.384240 0.599423 0.364259
0.383649 0.598401 0.363679
0.382936 0.597050 0.362922
0.382239 0.595285 0.361962
0.382365 0.593088 0.360889
0.388634 0.591104 0.360668
0.432188 0.594400 0.367882
0.505290 0.602616 0.382328
0.588289 0.612211 0.399945
0.659895 0.617444 0.415152
0.720721 0.616951 0.430355
0.767104 0.607478 0.446772
0.786731 0.582518 0.461650
0.794604 0.572676 0.487915
0.808699 0.590747 0.530971
0.826696 0.623957 0.585514
0.846428 0.663957 0.641715
0.867348 0.708336 0.695794
0.887984 0.753817 0.746773
0.905893 0.795877 0.791233
0.921094 0.834818 0.830976
0.933478 0.869883 0.865198
0.942905 0.898109 0.891759
0.949645 0.918097 0.909924
0.954038 0.930670 0.921411
0.956955 0.938747 0.928907
0.426650 0.665307 0.401512
0.426480 0.665015 0.401336
0.426311 0.664723 0.401161
0.426146 0.664430 0.400986
0.425983 0.664138 0.400812
0.425824 0.663845 0.400638
0.425631 0.663479 0.400422
0.425374 0.662966 0.400120
0.425062 0.662287 0.399725
0.424716 0.661393 0.399213
0.424435 0.660226 0.398566
0.424593 0.658745 0.397805
0.426706 0.657047 0.397157
0.438797 0.656223 0.398122
0.494516 0.661930 0.407922
0.579701 0.672884 0.425163
0.659858 0.682076 0.441767
0.727903 0.686609 0.457305
0.781989 0.684798 0.474807
0.813525 0.672717 0.493472
0.818089 0.645716 0.510847
0.823352 0.634543 0.541897
0.836256 0.651162 0.590552
0.853274 0.682244 0.644953
0.872269 0.720986 0.697943
0.891277 0.762315 0.748281
0.908003 0.801550 0.792286
0.922450 0.838724 0.831759
0.934316 0.872458 0.865788
0.943392 0.899605 0.892154
0.949907 0.918872 0.910153
0.954176 0.931060 0.921532
0.957031 0.938954 0.928974
0.462413 0.719498 0.433239
0.462339 0.719313 0.433116
0.462268 0.719129 0.432994
0.462201 0.718945 0.432872
0.462138 0.718761 0.432752
0.462079 0.718578 0.432631
0.462013 0.718349 0.432482
0.461934 0.718030 0.432276
0.461857 0.717610 0.432007
0.461817 0.717059 0.431663
0.461899 0.716347 0.431231
0.462335 0.715445 0.430720
0.463799 0.714373 0.430210
0.468723 0.713397 0.430108
0.487364 0.714031 0.432383
0.556386 0.722716 0.445103
0.648590 0.735768 0.464033
0.725411 0.744720 0.479579
0.787040 0.748549 0.496006
0.828735 0.745196 0.516217
0.844002 0.730955 0.537166
0.846105 0.704609 0.561075
0.850763 0.693436 0.599311
0.863242 0.709465 0.650084
0.879057 0.738929 0.701087
0.895675 0.773987 0.750341
0.910824 0.809325 0.793737
0.924252 0.844020 0.832819
0.935419 0.875883 0.866567
0.944032 0.901575 0.892671
0.950250 0.919889 0.910451
0.954357 0.931574 0.921690
0.957131 0.939227 0.929063
0.493156 0.764134 0.462061
0.493170 0.764036 0.461979
0.493188 0.763939 0.461897
0.493210 0.763843 0.461816
0.493236 0.763747 0.461736
0.493266 0.763651 0.461657
0.493310 0.763532 0.461559
0.493385 0.763367 0.461423
0.493508 0.763150 0.461249
0.493720 0.762870 0.461026
0.494099 0.762510 0.460749
0.494822 0.762062 0.460425
0.496302 0.761542 0.460093
0.499620 0.761052 0.459913
0.508040 0.761023 0.460460
0.533263 0.763282 0.464035
0.618518 0.775754 0.480392
0.710060 0.789367 0.499133
0.781061 0.797448 0.512848
0.833583 0.800195 0.530644
0.861259 0.795540 0.554093
0.869130 0.782456 0.580751
0.872098 0.760234 0.614076
0.877335 0.750434 0.657940
0.888233 0.764568 0.705581
0.901480 0.790127 0.753115
0.914582 0.820077 0.795734
0.926635 0.851242 0.834251
0.936862 0.880426 0.867587
0.944869 0.904162 0.893342
0.950699 0.921221 0.910838
0.954596 0.932249 0.921896
0.957263 0.939587 0.929178
0.516678 0.794872 0.487151
0.516765 0.794837 0.487098
0.516855 0.794803 0.487047
0.516949 0.794769 0.486996
0.517047 0.794736 0.486946
0.517149 0.794703 0.486897
0.517282 0.794663 0.486836
0.517480 0.794608 0.486753
0.517763 0.794539 0.486647
0.518178 0.794453 0.486514
0.518805 0.794350 0.486353
0.519792 0.794237 0.486170
0.521428 0.794138 0.485990
0.524329 0.794121 0.485896
0.529941 0.794383 0.486119
0.542126 0.795516 0.487368
0.575513 0.800032 0.492633
0.674202 0.816560 0.512267
0.763305 0.831215 0.530538
0.827344 0.839352 0.542356
0.866189 0.841735 0.561946
0.883036 0.837926 0.590336
0.890316 0.827814 0.625584
0.894893 0.809577 0.668227
0.899876 0.800941 0.711453
0.909087 0.813090 0.756876
0.919507 0.835070 0.798432
0.929752 0.861123 0.836160
0.938738 0.886442 0.868909
0.945951 0.907532 0.894199
0.951282 0.922953 0.911332
0.954908 0.933135 0.922162
0.957437 0.940060 0.929328
0.535776 0.814776 0.510804
0.535915 0.814775 0.510772
0.536057 0.814774 0.510740
0.536202 0.814773 0.510708
0.536351 0.814773 0.510677
0.536502 0.814774 0.510647
0.536696 0.814775 0.510610
0.536976 0.814778 0.510560
0.537364 0.814785 0.510497
0.537907 0.814798 0.510418
0.538682 0.814826 0.510325
0.539814 0.814879 0.510222
0.541519 0.814984 0.510126
0.544194 0.815192 0.510081
0.548650 0.815624 0.510202
0.556628 0.816553 0.510782
0.573128 0.818839 0.512774
0.616943 0.825976 0.520160
0.722947 0.845318 0.541606
0.806842 0.860182 0.558439
0.860471 0.867513 0.567244
0.887160 0.870422 0.589730
0.899227 0.870232 0.626119
0.908225 0.866647 0.673117
0.913618 0.853450 0.718517
0.918454 0.846018 0.761475
0.925696 0.856056 0.801832
0.933675 0.874393 0.838537
0.941114 0.894288 0.870543
0.947328 0.911868 0.895256
0.952030 0.925185 0.911949
0.955314 0.934289 0.922503
0.957664 0.940679 0.929522
0.554365 0.828781 0.535874
0.554533 0.828796 0.535852
0.554703 0.828811 0.535831
0.554875 0.828827 0.535810
0.555050 0.828843 0.535790
0.555227 0.828859 0.535770
0.555451 0.828881 0.535746
0.555773 0.828912 0.535714
0.556211 0.828955 0.535673
0.556811 0.829015 0.535623
0.557646 0.829102 0.535565
0.558821 0.829230 0.535502
0.560507 0.829421 0.535444
0.562982 0.829718 0.535417
0.566716 0.830193 0.535474
0.572770 0.831022 0.535775
0.583548 0.832627 0.536748
0.605217 0.836151 0.539610
0.660235 0.846043 0.549281
0.766775 0.866520 0.570792
0.843549 0.880414 0.585411
0.882290 0.885508 0.589966
0.900939 0.889324 0.616772
0.912091 0.893205 0.664435
0.921807 0.894751 0.717522
0.928004 0.888411 0.764742
0.932561 0.883677 0.805004
0.938166 0.891170 0.840892
0.943958 0.904150 0.872311
0.949019 0.917310 0.896462
0.952971 0.928019 0.912688
0.955838 0.935784 0.922930
0.957959 0.941487 0.929769
0.574870 0.839756 0.564703
0.575045 0.839779 0.564687
0.575222 0.839803 0.564672
0.575400 0.839826 0.564656
0.575580 0.839850 0.564641
0.575761 0.839874 0.564627
0.575990 0.839904 0.564609
0.576316 0.839948 0.564585
0.576756 0.840007 0.564555
0.577353 0.840089 0.564518
0.578170 0.840201 0.564475
0.579300 0.840360 0.564427
0.580886 0.840586 0.564382
0.583155 0.840917 0.564359
0.586486 0.841419 0.564396
0.591549 0.842207 0.564583
0.599626 0.843518 0.565124
0.613832 0.845944 0.566596
0.642598 0.851165 0.570736
0.702096 0.862628 0.581218
0.805183 0.882672 0.601436
0.871711 0.894367 0.612620
0.896698 0.897233 0.612877
0.910696 0.902172 0.645928
0.922647 0.909330 0.704063
0.932075 0.913700 0.758255
0.938356 0.912245 0.804794
0.942551 0.910274 0.841848
0.946972 0.915654 0.873528
0.950952 0.923835 0.897576
0.954110 0.931520 0.913492
0.956500 0.937692 0.923443
0.958339 0.942532 0.930077
0.599584 0.850627 0.600384
0.599762 0.850653 0.600373
0.599942 0.850680 0.600362
0.600124 0.850706 0.600352
0.600306 0.850733 0.600341
0.600489 0.850760 0.600331
0.600719 0.850795 0.600319
0.601046 0.850843 0.600302
0.601483 0.850909 0.600281
0.602073 0.850997 0.600255
0.602870 0.851118 0.600224
0.603956 0.851284 0.600188
0.605449 0.851514 0.600153
0.607528 0.851838 0.600126
0.610479 0.852307 0.600131
0.614864 0.853022 0.600237
0.621630 0.854160 0.600577
0.632536 0.856059 0.601441
0.650994 0.859400 0.603463
0.683257 0.865477 0.607926
0.743882 0.877329 0.618097
0.840447 0.896051 0.635868
0.892296 0.904857 0.642348
0.907145 0.905910 0.638587
0.919493 0.912338 0.680325
0.931050 0.920656 0.741196
0.939967 0.926427 0.795409
0.945676 0.927503 0.838509
0.949559 0.927493 0.872687
0.952870 0.931048 0.897945
0.955399 0.935680 0.914179
0.957309 0.940075 0.924006
0.958820 0.943868 0.930444
0.629809 0.862535 0.640276
0.629994 0.862566 0.640278
0.630180 0.862597 0.640281
0.630368 0.862628 0.640284
0.630555 0.862660 0.640287
0.630744 0.862691 0.640290
0.630982 0.862731 0.640294
0.631317 0.862788 0.640300
0.631765 0.862863 0.640309
0.632367 0.862965 0.640323
0.633177 0.863102 0.640344
0.634273 0.863289 0.640376
0.635767 0.863544 0.640426
0.637821 0.863898 0.640509
0.640677 0.864394 0.640646
0.644710 0.865102 0.640878
0.650511 0.866134 0.641282
0.659048 0.867677 0.641999
0.671927 0.870049 0.643288
0.691684 0.873758 0.645598
0.724514 0.880057 0.650170
0.784122 0.891617 0.659963
0.871826 0.907832 0.674979
0.907782 0.913774 0.677080
0.916398 0.913793 0.670319
0.927345 0.920820 0.715846
0.938205 0.929489 0.777230
0.945906 0.935207 0.827304
0.951052 0.937409 0.867422
0.954375 0.938179 0.896381
0.956686 0.940338 0.914311
0.958231 0.942932 0.924487
0.959407 0.945538 0.930842
0.666282 0.875307 0.680373
0.666453 0.875338 0.680383
0.666626 0.875369 0.680393
0.666798 0.875400 0.680402
0.666971 0.875431 0.680412
0.667144 0.875462 0.680422
0.667362 0.875501 0.680435
0.667668 0.875556 0.680453
0.668075 0.875629 0.680477
0.668619 0.875727 0.680510
0.669345 0.875858 0.680554
0.670317 0.876033 0.680616
0.671623 0.876269 0.680701
0.673386 0.876589 0.680821
0.675778 0.877024 0.680992
0.679047 0.877621 0.681241
0.683551 0.878448 0.681608
0.689813 0.879606 0.682159
0.698605 0.881241 0.683000
0.711656 0.883696 0.684428
0.732091 0.887587 0.687029
0.765340 0.893954 0.691888
0.820722 0.904377 0.700899
0.896390 0.917756 0.713306
0.919447 0.921330 0.712546
0.924670 0.921039 0.704944
0.934266 0.928008 0.750673
0.943943 0.936270 0.809356
0.950621 0.941696 0.855543
0.955091 0.944254 0.890988
0.957690 0.945039 0.912996
0.959146 0.946128 0.924551
0.960078 0.947546 0.931173
0.704875 0.888210 0.720413
0.705007 0.888234 0.720423
0.705139 0.888259 0.720433
0.705271 0.888283 0.720443
0.705404 0.888308 0.720454
0.705536 0.888332 0.720464
0.705703 0.888363 0.720477
0.705937 0.888406 0.720495
0.706249 0.888464 0.720519
0.706663 0.888540 0.720552
0.707216 0.888642 0.720595
0.707954 0.888779 0.720655
0.708943 0.888962 0.720736
0.710272 0.889208 0.720847
0.712068 0.889542 0.721002
0.714507 0.889996 0.721221
0.717848 0.890619 0.721534
0.722473 0.891485 0.721993
0.728966 0.892704 0.722681
0.738242 0.894453 0.723742
