color-grading/luts/03_combined_slog3/BNC_SLog3_L06_Nostalgic.cube
TITLE "BNC SLog3 L06 Nostalgic"
# BNC Grade v1.0 - S-Log3/S-Gamut3.Cine -> BNC Base -> Soft vintage look: lifted blacks, warm greens, cyan-leaning shadows and a gentle highlight shoulder.
# Input: S-Log3 / S-Gamut3.Cine | Output: Rec.709 Gamma 2.4
LUT_3D_SIZE 9
DOMAIN_MIN 0.0 0.0 0.0
DOMAIN_MAX 1.0 1.0 1.0
0.029886 0.033920 0.036817
0.081673 0.045415 0.044094
0.215044 0.081130 0.070062
0.429780 0.132613 0.129900
0.686049 0.219369 0.242064
0.849596 0.369572 0.408350
0.920839 0.585614 0.607839
0.964565 0.751816 0.739581
0.974064 0.853118 0.826652
0.033338 0.081286 0.045048
0.040840 0.068654 0.043805
0.195409 0.084026 0.066511
0.420338 0.140685 0.125432
0.683898 0.226842 0.239253
0.849899 0.374179 0.406637
0.921142 0.587352 0.607198
0.964637 0.752204 0.739435
0.974069 0.853204 0.826652
0.130466 0.212720 0.070432
0.125140 0.205381 0.068662
0.178403 0.205439 0.084148
0.409199 0.182010 0.122161
0.680746 0.241778 0.235159
0.850441 0.381934 0.403905
0.921628 0.590142 0.606172
0.964752 0.752819 0.739204
0.974077 0.853340 0.826652
0.288905 0.401925 0.103823
0.287015 0.398534 0.103138
0.286604 0.393415 0.101465
0.391286 0.398934 0.141859
0.678856 0.340643 0.226178
0.852721 0.410379 0.395162
0.923195 0.599162 0.602890
0.965111 0.754754 0.738478
0.974101 0.853764 0.826654
0.474390 0.629591 0.000000
0.474601 0.628675 0.000000
0.475335 0.627233 0.000000
0.484736 0.623039 0.000000
0.663420 0.638951 0.164049
0.877279 0.564899 0.337400
0.928465 0.630170 0.591798
0.966226 0.760876 0.736172
0.974173 0.855081 0.826665
0.602527 0.773267 0.000000
0.603367 0.773086 0.000000
0.604788 0.772805 0.000000
0.610107 0.771982 0.000000
0.644022 0.770755 0.000000
0.855264 0.793773 0.177557
0.949503 0.751811 0.526703
0.967828 0.783050 0.730937
0.974389 0.859219 0.826752
0.681431 0.846423 0.376535
0.682326 0.846406 0.376256
0.683768 0.846380 0.375816
0.688468 0.846310 0.374454
0.705026 0.846200 0.370419
0.776637 0.847919 0.363764
0.941186 0.873631 0.417003
0.968449 0.869814 0.730959
0.974965 0.872620 0.827631
0.790756 0.888812 0.593956
0.791094 0.888809 0.593906
0.791630 0.888804 0.593827
0.793305 0.888789 0.593580
0.798517 0.888750 0.592826
0.815159 0.888691 0.590589
0.874687 0.890161 0.587574
0.964453 0.919249 0.726462
0.975687 0.916179 0.839834
0.874186 0.911871 0.711680
0.874262 0.911870 0.711671
0.874382 0.911868 0.711655
0.874757 0.911862 0.711607
0.875915 0.911843 0.711460
0.879522 0.911788 0.711006
0.890947 0.911665 0.709658
0.929117 0.912435 0.707967
0.973632 0.935950 0.831589
0.029076 0.034145 0.059348
0.076001 0.043666 0.064995
0.211875 0.079855 0.083915
0.428153 0.130709 0.145839
0.685556 0.217580 0.252428
0.849469 0.368474 0.414079
0.920778 0.585214 0.609774
0.964557 0.751736 0.740018
0.974065 0.853104 0.826726
0.028486 0.060258 0.055592
0.037110 0.048578 0.051459
0.190952 0.079355 0.073671
0.418510 0.137612 0.139812
0.683376 0.224861 0.249406
0.849772 0.373050 0.412359
0.921082 0.586950 0.609137
0.964629 0.752124 0.739873
0.974070 0.853190 0.826726
0.120235 0.203124 0.068558
0.114700 0.195282 0.066607
0.169658 0.194578 0.085156
0.406084 0.173588 0.133643
0.680159 0.239350 0.244944
0.850312 0.380755 0.409618
0.921570 0.589738 0.608118
0.964744 0.752739 0.739642
0.974078 0.853326 0.826727
0.283056 0.397903 0.103872
0.281164 0.394452 0.103170
0.280596 0.389164 0.101516
0.387364 0.394094 0.145851
0.677157 0.335358 0.235785
0.852584 0.409013 0.400850
0.923141 0.598752 0.604857
0.965103 0.754675 0.738917
0.974102 0.853750 0.826729
0.471223 0.628931 0.000000
0.471446 0.627996 0.000000
0.472189 0.626521 0.000000
0.481633 0.622204 0.000000
0.662366 0.637730 0.171772
0.876972 0.562965 0.344786
0.928434 0.629750 0.593837
0.966221 0.760797 0.736616
0.974174 0.855068 0.826739
0.601247 0.773815 0.000000
0.602095 0.773629 0.000000
0.603531 0.773339 0.000000
0.608894 0.772486 0.000000
0.642998 0.771125 0.000000
0.855246 0.793739 0.184403
0.949687 0.751401 0.528930
0.967836 0.782968 0.731376
0.974391 0.859205 0.826827
0.680963 0.846686 0.379118
0.681859 0.846669 0.378841
0.683303 0.846643 0.378404
0.688010 0.846572 0.377051
0.704597 0.846457 0.373035
0.776400 0.848136 0.366296
0.941306 0.873759 0.418838
0.968483 0.869763 0.731342
0.974968 0.872608 0.827706
0.790610 0.888887 0.594454
0.790949 0.888884 0.594404
0.791485 0.888879 0.594325
0.793162 0.888864 0.594078
0.798382 0.888824 0.593324
0.815043 0.888764 0.591087
0.874646 0.890220 0.588039
0.964482 0.919289 0.726792
0.975693 0.916175 0.839902
0.874156 0.911889 0.711781
0.874232 0.911887 0.711771
0.874352 0.911885 0.711756
0.874727 0.911879 0.711708
0.875886 0.911860 0.711560
0.879494 0.911805 0.711107
0.890924 0.911682 0.709758
0.929111 0.912447 0.708058
0.973637 0.935960 0.831653
0.034325 0.066795 0.137812
0.059034 0.052016 0.179120
0.208243 0.077691 0.191459
0.425984 0.127487 0.200401
0.684798 0.214760 0.272263
0.849260 0.366734 0.423558
0.920679 0.584577 0.612858
0.964543 0.751609 0.740711
0.974067 0.853082 0.826845
0.034392 0.067976 0.135615
0.034199 0.064422 0.141861
0.186029 0.074882 0.181217
0.416079 0.132936 0.191734
0.682575 0.221751 0.268896
0.849561 0.371263 0.421818
0.920984 0.586312 0.612227
0.964616 0.751997 0.740566
0.974072 0.853168 0.826845
0.058158 0.194099 0.183839
0.056775 0.184834 0.179723
0.158206 0.178809 0.181928
0.402516 0.161477 0.179626
0.679268 0.235585 0.263835
0.850099 0.378887 0.419064
0.921474 0.589096 0.611219
0.964731 0.752612 0.740337
0.974080 0.853304 0.826845
0.265501 0.393774 0.106088
0.263871 0.390098 0.105308
0.263778 0.384359 0.103622
0.381452 0.386827 0.166980
0.674752 0.327164 0.253490
0.852362 0.406855 0.410266
0.923053 0.598101 0.607992
0.965091 0.754548 0.739614
0.974103 0.853729 0.826847
0.465141 0.628150 0.000000
0.465397 0.627182 0.000000
0.466183 0.625652 0.000000
0.475832 0.621119 0.000000
0.660762 0.635880 0.186271
0.876379 0.559981 0.357071
0.928381 0.629081 0.597088
0.966212 0.760672 0.737320
0.974176 0.855046 0.826858
0.599040 0.774790 0.000000
0.599903 0.774595 0.000000
0.601363 0.774290 0.000000
0.606810 0.773387 0.000000
0.641268 0.771802 0.000000
0.855237 0.793712 0.195382
0.949976 0.750752 0.532513
0.967850 0.782837 0.732073
0.974393 0.859184 0.826945
0.680211 0.847108 0.383216
0.681108 0.847091 0.382942
0.682555 0.847065 0.382510
0.687273 0.846991 0.381172
0.703907 0.846869 0.377190
0.776018 0.848487 0.370326
0.941501 0.873967 0.421785
0.968536 0.869684 0.731950
0.974972 0.872589 0.827825
0.790378 0.889006 0.595244
0.790717 0.889003 0.595194
0.791254 0.888998 0.595115
0.792935 0.888983 0.594869
0.798165 0.888942 0.594115
0.814859 0.888879 0.591877
0.874582 0.890313 0.588779
0.964529 0.919353 0.727316
0.975702 0.916170 0.840009
0.874109 0.911916 0.711940
0.874185 0.911915 0.711930
0.874305 0.911913 0.711915
0.874680 0.911907 0.711867
0.875839 0.911888 0.711719
0.879450 0.911833 0.711266
0.890887 0.911708 0.709916
0.929101 0.912468 0.708204
0.973647 0.935975 0.831756
0.051698 0.118720 0.314419
0.069239 0.084575 0.360206
0.194547 0.092153 0.366971
0.417927 0.118738 0.378494
0.682210 0.205327 0.378631
0.848514 0.361261 0.458298
0.920348 0.582573 0.622628
0.964499 0.751211 0.742887
0.974072 0.853015 0.827214
0.051774 0.124113 0.308917
0.052964 0.101401 0.345086
0.170111 0.095045 0.362023
0.407491 0.121166 0.374134
0.679906 0.211543 0.374572
0.848814 0.365647 0.456400
0.920657 0.584301 0.622019
0.964572 0.751599 0.742744
0.974077 0.853100 0.827214
0.054843 0.150341 0.328337
0.054369 0.141536 0.334184
0.123852 0.123308 0.357702
0.391619 0.133838 0.367946
0.676426 0.223734 0.368192
0.849350 0.373031 0.453390
0.921154 0.587076 0.621045
0.964688 0.752215 0.742516
0.974085 0.853236 0.827215
0.132662 0.391696 0.373884
0.131586 0.387440 0.372454
0.134064 0.380682 0.370296
0.371915 0.371534 0.377401
0.670118 0.301595 0.351213
0.851604 0.400120 0.443914
0.922756 0.596050 0.617930
0.965052 0.754152 0.741801
0.974109 0.853661 0.827217
0.442375 0.629738 0.198193
0.442659 0.628643 0.197116
0.443523 0.626904 0.195447
0.454243 0.621620 0.191117
0.657262 0.632106 0.267093
0.873610 0.551367 0.399904
0.928190 0.626973 0.607408
0.966183 0.760279 0.739530
0.974182 0.854979 0.827228
0.591787 0.778104 0.103940
0.592631 0.777916 0.101845
0.594067 0.777620 0.098442
0.599495 0.776724 0.087100
0.634884 0.774695 0.051270
0.855414 0.793910 0.232119
0.950852 0.748751 0.544159
0.967891 0.782428 0.734263
0.974401 0.859119 0.827316
0.677762 0.848466 0.396068
0.678666 0.848448 0.395803
0.680123 0.848420 0.395385
0.684876 0.848341 0.394091
0.701661 0.848197 0.390232
0.774769 0.849631 0.383055
0.942138 0.874652 0.431319
0.968703 0.869435 0.733862
0.974987 0.872531 0.828196
0.789642 0.889382 0.597726
0.789983 0.889379 0.597676
0.790524 0.889374 0.597597
0.792215 0.889358 0.597352
0.797479 0.889315 0.596601
0.814273 0.889243 0.594360
0.874377 0.890608 0.591106
0.964677 0.919555 0.728967
0.975731 0.916155 0.840345
0.873959 0.912003 0.712438
0.874035 0.912002 0.712429
0.874156 0.912000 0.712413
0.874532 0.911994 0.712365
0.875694 0.911974 0.712217
0.879312 0.911918 0.711764
0.890773 0.911791 0.710412
0.929069 0.912531 0.708660
0.973675 0.936022 0.832076
0.153271 0.160296 0.604966
0.170808 0.159665 0.605211
0.206355 0.159030 0.606067
0.396247 0.160041 0.612902
0.669798 0.177940 0.619589
0.843950 0.343039 0.605771
0.919089 0.576196 0.654040
0.964345 0.749963 0.749725
0.974087 0.852804 0.828355
0.147898 0.167559 0.604287
0.164431 0.166684 0.604436
0.197703 0.165636 0.605092
0.385502 0.165631 0.611602
0.667057 0.181978 0.618348
0.844237 0.346987 0.604469
0.919409 0.577900 0.653510
0.964420 0.750351 0.749587
0.974092 0.852890 0.828356
0.140655 0.182581 0.603708
0.155594 0.181235 0.603696
0.185617 0.179413 0.604035
0.367668 0.177266 0.609801
0.662735 0.189838 0.616483
0.844755 0.353636 0.602392
0.919923 0.580638 0.652664
0.964539 0.750968 0.749367
0.974100 0.853026 0.828356
0.142556 0.288275 0.610891
0.150530 0.283552 0.610096
0.168480 0.276461 0.609067
0.308324 0.258773 0.609971
0.650691 0.235749 0.612567
0.846979 0.378068 0.595785
0.921588 0.589507 0.649954
0.964911 0.752908 0.748674
0.974124 0.853451 0.828359
0.277493 0.646462 0.614205
0.278025 0.645153 0.614047
0.279478 0.643080 0.613812
0.294585 0.636829 0.613386
0.663006 0.633852 0.624080
0.866590 0.519447 0.572680
0.927323 0.620205 0.640809
0.966073 0.759048 0.746477
0.974199 0.854771 0.828371
0.559148 0.794349 0.384635
0.560171 0.794107 0.383955
0.561901 0.793725 0.382875
0.568346 0.792536 0.379488
0.608720 0.789107 0.369135
0.860525 0.800539 0.400270
0.952760 0.743118 0.585342
0.967997 0.781149 0.741170
0.974424 0.858916 0.828462
0.668741 0.853326 0.438551
0.669674 0.853303 0.438297
0.671178 0.853267 0.437894
0.676090 0.853161 0.436641
0.693499 0.852913 0.432839
0.770248 0.853700 0.424212
0.944401 0.877137 0.463920
0.969222 0.868658 0.739905
0.975030 0.872352 0.829344
0.787257 0.890583 0.605553
0.787605 0.890579 0.605504
0.788157 0.890574 0.605426
0.789882 0.890556 0.605185
0.795254 0.890506 0.604442
0.812372 0.890406 0.602204
0.873696 0.891559 0.598486
0.965146 0.920196 0.734193
0.975821 0.916106 0.841388
0.873491 0.912275 0.713987
0.873568 0.912273 0.713978
0.873689 0.912271 0.713962
0.874067 0.912264 0.713914
0.875237 0.912244 0.713767
0.878878 0.912186 0.713313
0.890415 0.912049 0.711956
0.928968 0.912731 0.710081
0.973764 0.936168 0.833069
0.327556 0.287739 0.804251
0.336013 0.287153 0.804340
0.350582 0.286244 0.804499
0.407026 0.283531 0.805112
0.652155 0.274549 0.803946
0.829854 0.295006 0.795085
0.912577 0.554301 0.763906
0.963666 0.745880 0.772092
0.974121 0.852142 0.831896
0.324967 0.292287 0.804378
0.333236 0.291671 0.804462
0.347486 0.290715 0.804614
0.402768 0.287868 0.805216
0.649017 0.278601 0.804130
0.829849 0.297609 0.795062
0.912897 0.555899 0.763634
0.963746 0.746270 0.771969
0.974127 0.852228 0.831896
0.321090 0.299994 0.804629
0.329061 0.299323 0.804705
0.342810 0.298285 0.804845
0.396262 0.295204 0.805426
0.643944 0.285430 0.804458
0.829871 0.301986 0.795039
0.913414 0.558469 0.763200
0.963874 0.746890 0.771774
0.974135 0.852364 0.831898
0.311069 0.329459 0.805978
0.318108 0.328547 0.806019
0.330292 0.327133 0.806107
0.378049 0.322956 0.806563
0.627329 0.310761 0.805828
0.830241 0.318045 0.795093
0.915105 0.566817 0.761822
0.964274 0.748839 0.771160
0.974162 0.852791 0.831901
0.319720 0.521247 0.817909
0.323590 0.518758 0.817847
0.330380 0.514842 0.817757
0.358324 0.502911 0.817584
0.574140 0.469934 0.816688
0.837718 0.406719 0.797430
0.921161 0.596060 0.757268
0.965527 0.755013 0.769211
0.974243 0.854115 0.831919
0.413390 0.822965 0.766610
0.414290 0.822774 0.766675
0.415834 0.822476 0.766782
0.421787 0.821588 0.767161
0.462191 0.819846 0.769200
0.883788 0.820722 0.774421
0.948836 0.726340 0.736477
0.968104 0.777011 0.763996
0.974486 0.858277 0.832022
0.610119 0.876660 0.602949
0.611218 0.876644 0.602796
0.612993 0.876620 0.602553
0.618827 0.876546 0.601796
0.639930 0.876349 0.599471
0.738691 0.875986 0.592641
0.955577 0.889993 0.606343
0.970853 0.866200 0.760253
0.975155 0.871786 0.832917
0.778570 0.894706 0.631440
0.778942 0.894701 0.631395
0.779531 0.894694 0.631323
0.781376 0.894672 0.631100
0.787125 0.894605 0.630410
0.805409 0.894430 0.628282
0.871028 0.894934 0.623388
0.966722 0.922378 0.751728
0.976101 0.915952 0.844671
0.871971 0.913144 0.718894
0.872049 0.913142 0.718884
0.872172 0.913140 0.718869
0.872558 0.913132 0.718822
0.873752 0.913110 0.718675
0.877468 0.913044 0.718223
0.889249 0.912877 0.716854
0.928629 0.913374 0.714609
0.974042 0.936627 0.836182
0.581691 0.502874 0.866720
0.584954 0.502487 0.866651
0.590191 0.501871 0.866536
0.607330 0.499920 0.866112
0.667944 0.493447 0.864017
0.846033 0.466892 0.851438
0.895779 0.489523 0.847857
0.959282 0.730500 0.843817
0.974124 0.849963 0.843018
0.580868 0.505376 0.866869
0.584129 0.504987 0.866801
0.589344 0.504367 0.866688
0.606405 0.502404 0.866272
0.666805 0.495899 0.864207
0.846073 0.469163 0.851575
0.896008 0.490852 0.847909
0.959370 0.730884 0.843780
0.974130 0.850050 0.843019
0.579581 0.509393 0.867104
0.582839 0.509001 0.867039
0.588029 0.508376 0.866928
0.604967 0.506395 0.866525
0.665022 0.499841 0.864508
0.846144 0.472820 0.851796
0.896377 0.492987 0.847993
0.959511 0.731495 0.843722
0.974140 0.850188 0.843022
0.575708 0.522379 0.867836
0.578948 0.521977 0.867777
0.584113 0.521336 0.867678
0.600689 0.519305 0.867315
0.659630 0.512608 0.865453
0.846427 0.484717 0.852517
0.897586 0.499884 0.848265
0.959953 0.733419 0.843538
0.974173 0.850619 0.843030
0.565324 0.566445 0.869969
0.568460 0.566028 0.869938
0.573481 0.565365 0.869883
0.589530 0.563260 0.869662
0.644800 0.556322 0.868352
0.842402 0.526407 0.855541
0.901894 0.523574 0.849219
0.961355 0.739533 0.842949
0.974272 0.851957 0.843060
0.559145 0.750831 0.870179
0.561523 0.750396 0.870310
0.565377 0.749709 0.870519
0.578107 0.747578 0.871178
0.623808 0.740986 0.873146
0.825884 0.710645 0.869417
0.923741 0.630035 0.853786
0.965440 0.760950 0.840961
0.974573 0.856168 0.843199
0.523896 0.896974 0.841721
0.524717 0.897010 0.841775
0.526041 0.897069 0.841862
0.530375 0.897266 0.842144
0.545989 0.898027 0.843144
0.636093 0.903460 0.848808
0.976729 0.909417 0.852691
0.974527 0.856357 0.839388
0.975442 0.869902 0.844165
0.730577 0.912435 0.737934
0.731009 0.912441 0.737898
0.731694 0.912451 0.737842
0.733846 0.912480 0.737665
0.740630 0.912565 0.737113
0.762910 0.912757 0.735367
0.848975 0.912369 0.730053
0.973172 0.931871 0.823608
0.976968 0.915431 0.855340
0.866388 0.916168 0.735384
0.866471 0.916166 0.735374
0.866603 0.916163 0.735360
0.867016 0.916154 0.735314
0.868291 0.916126 0.735173
0.872268 0.916038 0.734738
0.884909 0.915783 0.733391
0.927228 0.915687 0.730148
0.974950 0.938149 0.846338
0.811223 0.719040 0.884220
0.811977 0.718902 0.884170
0.813174 0.718683 0.884090
0.816940 0.717992 0.883834
0.828852 0.715774 0.882972
0.868688 0.707918 0.879519
0.934353 0.678029 0.870672
0.947099 0.682794 0.869416
0.973024 0.841323 0.875389
0.811075 0.719674 0.884270
0.811828 0.719536 0.884221
0.813025 0.719317 0.884141
0.816787 0.718626 0.883886
0.828690 0.716408 0.883027
0.868493 0.708555 0.879584
0.934463 0.678625 0.870707
0.947171 0.683116 0.869432
0.973033 0.841411 0.875397
0.810842 0.720681 0.884351
0.811594 0.720543 0.884302
0.812789 0.720324 0.884223
0.816547 0.719634 0.883969
0.828436 0.717417 0.883115
0.868186 0.709568 0.879687
0.934639 0.679571 0.870761
0.947286 0.683626 0.869458
0.973047 0.841551 0.875410
0.810123 0.723846 0.884602
0.810872 0.723709 0.884554
0.812062 0.723490 0.884477
0.815806 0.722800 0.884228
0.827651 0.720587 0.883389
0.867234 0.712752 0.880008
0.935192 0.682549 0.870932
0.947650 0.685235 0.869538
0.973092 0.841988 0.875449
0.807987 0.733856 0.885380
0.808728 0.733719 0.885335
0.809904 0.733502 0.885263
0.813605 0.732816 0.885031
0.825313 0.730613 0.884241
0.864377 0.722823 0.881012
0.936945 0.691984 0.871481
0.948809 0.690356 0.869797
0.973231 0.843347 0.875575
0.802183 0.767236 0.887772
0.802898 0.767104 0.887740
0.804033 0.766895 0.887689
0.807604 0.766231 0.887521
0.818902 0.764094 0.886922
0.856497 0.756477 0.884227
0.942845 0.723732 0.873397
0.952782 0.707815 0.870698
0.973667 0.847647 0.876002
0.779739 0.883776 0.885533
0.780424 0.883748 0.885599
0.781514 0.883702 0.885703
0.784947 0.883562 0.886032
0.795880 0.883135 0.887076
0.833166 0.881848 0.890594
0.957444 0.853994 0.883570
0.966939 0.786912 0.874848
0.975061 0.861926 0.877762
0.677771 0.921383 0.868749
0.678159 0.921411 0.868775
0.678776 0.921455 0.868817
0.680719 0.921593 0.868947
0.686897 0.922036 0.869365
0.707828 0.923559 0.870801
0.792709 0.929996 0.876866
0.981453 0.945220 0.920086
0.979011 0.912330 0.889804
0.838427 0.928862 0.804837
0.838518 0.928863 0.804829
0.838661 0.928865 0.804817
0.839109 0.928872 0.804781
0.840503 0.928892 0.804666
0.844899 0.928948 0.804302
0.859455 0.929036 0.803075
0.914297 0.928017 0.798653
0.978513 0.944570 0.886472
0.936634 0.846072 0.889035
0.936759 0.846028 0.889017
0.936956 0.845959 0.888988
0.937572 0.845742 0.888897
0.939466 0.845066 0.888617
0.945259 0.842922 0.887738
0.962030 0.835630 0.884983
0.969879 0.814698 0.880939
0.969023 0.806841 0.879825
0.936609 0.846215 0.889052
0.936734 0.846171 0.889034
0.936931 0.846102 0.889005
0.937547 0.845885 0.888915
0.939442 0.845210 0.888634
0.945236 0.843066 0.887755
0.962015 0.835775 0.884999
0.969896 0.814846 0.880955
0.969032 0.806918 0.879833
0.936570 0.846442 0.889080
0.936695 0.846399 0.889062
0.936892 0.846329 0.889033
0.937508 0.846112 0.888942
0.939403 0.845437 0.888661
0.945200 0.843294 0.887782
0.961990 0.836005 0.885025
0.969922 0.815082 0.880980
0.969045 0.807040 0.879845
0.936447 0.847152 0.889166
0.936571 0.847108 0.889148
0.936769 0.847039 0.889119
0.937385 0.846822 0.889029
0.939282 0.846148 0.888748
0.945085 0.844006 0.887868
0.961915 0.836723 0.885106
0.970003 0.815819 0.881059
0.969088 0.807422 0.879885
0.936063 0.849346 0.889434
0.936188 0.849303 0.889416
0.936386 0.849234 0.889387
0.937004 0.849018 0.889296
0.938905 0.848345 0.889015
0.944728 0.846209 0.888133
0.961676 0.838948 0.885358
0.970254 0.818105 0.881310
0.969219 0.808609 0.880010
0.934845 0.856169 0.890274
0.934970 0.856126 0.890255
0.935169 0.856058 0.890226
0.935790 0.855844 0.890135
0.937704 0.855179 0.889852
0.943582 0.853066 0.888964
0.960882 0.845889 0.886151
0.971037 0.825284 0.882148
0.969634 0.812364 0.880420
0.930655 0.877577 0.892955
0.930781 0.877536 0.892936
0.930981 0.877470 0.892907
0.931604 0.877265 0.892815
0.933532 0.876626 0.892529
0.939513 0.874601 0.891628
0.957740 0.867762 0.888723
0.973504 0.848540 0.885474
0.971008 0.824962 0.881967
0.898504 0.928809 0.891507
0.898654 0.928807 0.891517
0.898892 0.928805 0.891534
0.899635 0.928797 0.891585
0.901937 0.928769 0.891740
0.909124 0.928634 0.892181
0.931837 0.927436 0.892920
0.979940 0.920414 0.905023
0.976322 0.877014 0.892208
0.810304 0.935268 0.882320
0.810392 0.935275 0.882327
0.810532 0.935286 0.882337
0.810968 0.935320 0.882369
0.812322 0.935425 0.882468
0.816575 0.935755 0.882780
0.830655 0.936842 0.883808
0.886131 0.940913 0.887648
0.982653 0.954007 0.936825
