color-grading/luts/03_combined_slog3/BNC_SLog3_L09_Nocturne.cube
TITLE "BNC SLog3 L09 Nocturne"
# BNC Grade v1.0 - S-Log3/S-Gamut3.Cine -> BNC Base -> Cool, blue-leaning night grade with deep, protected shadows.
# Input: S-Log3 / S-Gamut3.Cine | Output: Rec.709 Gamma 2.4
LUT_3D_SIZE 5
DOMAIN_MIN 0.0 0.0 0.0
DOMAIN_MAX 1.0 1.0 1.0
0.001297 0.001315 0.001329
0.152795 0.074507 0.096718
0.679251 0.177011 0.206339
0.916253 0.596331 0.651900
0.963207 0.902593 0.912746
0.068205 0.171900 0.133989
0.072889 0.161144 0.118628
0.673267 0.202670 0.197165
0.917136 0.601803 0.650571
0.963235 0.902804 0.912740
0.317136 0.665545 0.287018
0.317706 0.662740 0.285444
0.622008 0.658975 0.199933
0.924375 0.650143 0.639517
0.963404 0.904518 0.912729
0.540051 0.880373 0.571305
0.542813 0.880528 0.571199
0.568139 0.882139 0.570703
0.909188 0.898739 0.451250
0.964822 0.920327 0.912285
0.823066 0.941036 0.852236
0.823309 0.941051 0.852266
0.825210 0.941171 0.852502
0.843870 0.942428 0.854796
0.960776 0.950233 0.848204
0.015451 0.047132 0.089304
0.145061 0.055563 0.180663
0.677914 0.171898 0.243092
0.915965 0.594965 0.657608
0.963200 0.902544 0.912877
0.044431 0.138834 0.151444
0.051404 0.119203 0.162226
0.671657 0.195589 0.232605
0.916860 0.600430 0.656310
0.963228 0.902756 0.912871
0.315879 0.662385 0.296141
0.316161 0.659453 0.294145
0.619921 0.654531 0.197402
0.924245 0.648761 0.645535
0.963398 0.904470 0.912861
0.539684 0.880799 0.575196
0.542453 0.880953 0.575104
0.567867 0.882555 0.574731
0.909789 0.899313 0.457309
0.964822 0.920295 0.912437
0.823004 0.941056 0.852405
0.823246 0.941071 0.852435
0.825150 0.941191 0.852672
0.843835 0.942447 0.854976
0.960798 0.950259 0.848442
0.043860 0.058628 0.645516
0.135003 0.062234 0.646801
0.657900 0.112941 0.645860
0.912981 0.583669 0.704350
0.963145 0.902159 0.913885
0.036928 0.185390 0.576784
0.103842 0.059119 0.654144
0.649838 0.127505 0.642457
0.913954 0.589048 0.703332
0.963173 0.902371 0.913881
0.201988 0.661627 0.643186
0.201868 0.657702 0.642363
0.646277 0.654848 0.664838
0.922328 0.637063 0.695076
0.963347 0.904094 0.913884
0.535501 0.884707 0.608498
0.538361 0.884845 0.608465
0.564746 0.886329 0.608782
0.915232 0.904594 0.510229
0.964833 0.920011 0.913576
0.822502 0.941213 0.853731
0.822747 0.941228 0.853762
0.824668 0.941347 0.854004
0.843546 0.942598 0.856389
0.960970 0.950482 0.850623
0.550227 0.492651 0.890451
0.559818 0.491480 0.890341
0.646757 0.481390 0.888411
0.881376 0.474965 0.876472
0.962565 0.898055 0.922511
0.547483 0.500176 0.891246
0.557032 0.498995 0.891150
0.643269 0.488843 0.889357
0.882038 0.479061 0.876953
0.962596 0.898275 0.922521
0.527419 0.565854 0.897845
0.536789 0.564653 0.897880
0.617946 0.554444 0.897338
0.888140 0.515234 0.881342
0.962793 0.900072 0.922620
0.412997 0.911119 0.895471
0.415733 0.911259 0.895650
0.441120 0.912646 0.897344
0.959497 0.949202 0.939969
0.964602 0.917003 0.923469
0.816432 0.942818 0.866939
0.816698 0.942833 0.866973
0.818782 0.942949 0.867241
0.839535 0.944161 0.870136
0.962668 0.952658 0.871785
0.930416 0.897113 0.941445
0.930714 0.897012 0.941418
0.932992 0.896205 0.941199
0.950310 0.887038 0.938668
0.955990 0.848436 0.930773
0.930348 0.897486 0.941504
0.930647 0.897385 0.941477
0.932930 0.896582 0.941259
0.950291 0.887439 0.938732
0.956023 0.848652 0.930808
0.929800 0.900374 0.941959
0.930104 0.900277 0.941933
0.932426 0.899498 0.941724
0.950136 0.890561 0.939237
0.956251 0.850412 0.931060
0.922476 0.924782 0.945588
0.922850 0.924738 0.945589
0.925707 0.924361 0.945577
0.947500 0.918268 0.943916
0.958530 0.868543 0.933688
0.759929 0.945275 0.929534
0.760205 0.945298 0.929560
0.762371 0.945473 0.929764
0.784615 0.947270 0.931865
0.969416 0.962150 0.954387
