color-grading/luts/03_combined_slog3/BNC_SLog3_L03_GoldenHour.cube
TITLE "BNC SLog3 L03 GoldenHour"
# BNC Grade v1.0 - S-Log3/S-Gamut3.Cine -> BNC Base -> Warm, golden-hour glow with an amber split-tone and a soft top end.
# Input: S-Log3 / S-Gamut3.Cine | Output: Rec.709 Gamma 2.4
LUT_3D_SIZE 5
DOMAIN_MIN 0.0 0.0 0.0
DOMAIN_MAX 1.0 1.0 1.0
0.011767 0.011709 0.011689
0.213951 0.035781 0.003704
0.748160 0.115306 0.168677
0.955869 0.575657 0.595045
0.968778 0.877846 0.843814
0.090964 0.193901 0.005081
0.171980 0.173915 0.004976
0.741520 0.159238 0.154998
0.956282 0.580840 0.592570
0.968781 0.878071 0.843793
0.187884 0.680663 0.022375
0.196071 0.677839 0.032069
0.666071 0.660686 0.029670
0.959920 0.626121 0.570183
0.968796 0.879839 0.843638
0.473222 0.905140 0.402102
0.477475 0.905157 0.401265
0.515979 0.905378 0.394450
0.950146 0.907181 0.433807
0.968790 0.897296 0.842881
0.836758 0.942632 0.727248
0.837014 0.942632 0.727215
0.839028 0.942632 0.726961
0.859448 0.942594 0.724438
0.966154 0.947103 0.823702
0.033040 0.002279 0.148811
0.209663 0.004525 0.148816
0.746744 0.105329 0.212118
0.955764 0.574427 0.601312
0.968798 0.877788 0.843995
0.066840 0.166943 0.137147
0.159858 0.139441 0.130669
0.739692 0.149914 0.198895
0.956184 0.579599 0.598877
0.968800 0.878013 0.843974
0.156332 0.679188 0.020470
0.166402 0.676197 0.012382
0.664226 0.656224 0.023705
0.959717 0.625072 0.577194
0.968815 0.879782 0.843820
0.472630 0.905440 0.408644
0.476871 0.905457 0.407829
0.515255 0.905695 0.401120
0.950377 0.907427 0.438807
0.968814 0.897245 0.843045
0.836724 0.942648 0.727515
0.836980 0.942648 0.727483
0.838995 0.942648 0.727229
0.859419 0.942612 0.724709
0.966165 0.947117 0.823856
0.154925 0.061620 0.636442
0.208988 0.049970 0.636702
0.721775 0.030159 0.632404
0.954620 0.564536 0.652516
0.968827 0.877478 0.845679
0.140108 0.113880 0.634126
0.185299 0.106382 0.633840
0.716504 0.033530 0.631126
0.955090 0.569607 0.650460
0.968829 0.877704 0.845660
0.018420 0.666744 0.613067
0.011429 0.663138 0.612907
0.676058 0.638943 0.609296
0.958973 0.614729 0.632360
0.968816 0.879513 0.845575
0.467325 0.908276 0.461916
0.471428 0.908303 0.461154
0.508981 0.908637 0.454917
0.952371 0.909909 0.485244
0.968857 0.897005 0.844772
0.836461 0.942779 0.729621
0.836718 0.942779 0.729589
0.838736 0.942779 0.729337
0.859198 0.942748 0.726842
0.966229 0.947237 0.825339
0.594012 0.492367 0.917480
0.604495 0.490912 0.917050
0.699212 0.478168 0.911736
0.936337 0.464102 0.887306
0.968922 0.874424 0.862161
0.590534 0.499916 0.917795
0.600988 0.498449 0.917384
0.695048 0.485644 0.912271
0.936697 0.468243 0.887274
0.968901 0.874686 0.862187
0.563694 0.565508 0.919434
0.574097 0.564008 0.919192
0.663624 0.551086 0.915794
0.940490 0.503648 0.887570
0.968951 0.876478 0.862059
0.408539 0.926370 0.865433
0.411876 0.926432 0.865535
0.442377 0.927065 0.866442
0.969399 0.933442 0.885194
0.969157 0.894539 0.861629
0.833993 0.944113 0.751486
0.834254 0.944113 0.751458
0.836303 0.944120 0.751236
0.857131 0.944146 0.749022
0.966828 0.948511 0.841010
0.958388 0.865821 0.910220
0.958586 0.865694 0.910178
0.960093 0.864696 0.909852
0.968054 0.859280 0.907356
0.966803 0.828841 0.904024
0.958329 0.866223 0.910233
0.958528 0.866096 0.910191
0.960039 0.865098 0.909865
0.968076 0.859613 0.907374
0.966825 0.829029 0.904039
0.957858 0.869365 0.910338
0.958060 0.869239 0.910296
0.959603 0.868245 0.909966
0.968201 0.862280 0.907504
0.966903 0.830671 0.904139
0.952080 0.899199 0.911380
0.952326 0.899082 0.911334
0.954208 0.898158 0.910976
0.968396 0.888710 0.907745
0.967616 0.847931 0.905384
0.795776 0.950679 0.900753
0.796070 0.950687 0.900762
0.798380 0.950754 0.900832
0.822044 0.951423 0.901534
0.970540 0.958361 0.943055
