color-grading/luts/03_combined_slog3/BNC_SLog3_L13_Airy.cube
TITLE "BNC SLog3 L13 Airy"
# BNC Grade v1.0 - S-Log3/S-Gamut3.Cine -> BNC Base -> Bright, airy, lifted-shadow look with a soft top end and gentle overall desaturation.
# Input: S-Log3 / S-Gamut3.Cine | Output: Rec.709 Gamma 2.4
LUT_3D_SIZE 5
DOMAIN_MIN 0.0 0.0 0.0
DOMAIN_MAX 1.0 1.0 1.0
0.059876 0.069349 0.074186
0.264576 0.106839 0.108728
0.717476 0.282948 0.294753
0.936766 0.625750 0.663252
0.964445 0.845867 0.859553
0.113313 0.264122 0.132018
0.225798 0.250901 0.122823
0.711066 0.303040 0.286964
0.937000 0.629679 0.661852
0.964466 0.846049 0.859491
0.340689 0.699764 0.327214
0.346158 0.697195 0.325296
0.671051 0.684922 0.279770
0.939356 0.664833 0.650583
0.964634 0.847490 0.859006
0.588120 0.915691 0.602695
0.590758 0.915686 0.602409
0.614766 0.915775 0.600217
0.945457 0.921188 0.535754
0.966411 0.862667 0.854013
0.820167 0.929004 0.811753
0.820338 0.929010 0.811745
0.821681 0.929054 0.811678
0.835144 0.929584 0.810876
0.974323 0.935283 0.784309
0.069787 0.081973 0.223729
0.259251 0.102627 0.237766
0.716377 0.278651 0.324071
0.936724 0.624840 0.667921
0.964443 0.845827 0.859765
0.082833 0.240317 0.229936
0.212541 0.221016 0.225435
0.709781 0.297204 0.314951
0.936955 0.628752 0.666531
0.964464 0.846009 0.859703
0.337993 0.696179 0.339842
0.343184 0.693521 0.337700
0.668923 0.680661 0.292373
0.939290 0.663769 0.655328
0.964632 0.847449 0.859218
0.587566 0.915663 0.606015
0.590202 0.915656 0.605737
0.614202 0.915726 0.603612
0.945486 0.921069 0.539810
0.966409 0.862623 0.854230
0.820137 0.929006 0.811910
0.820308 0.929012 0.811902
0.821651 0.929055 0.811836
0.835120 0.929584 0.811040
0.974325 0.935284 0.784505
0.218026 0.220289 0.639604
0.266186 0.218822 0.640584
0.711086 0.259580 0.663348
0.936455 0.617832 0.706792
0.964428 0.845513 0.861430
0.206779 0.241751 0.638022
0.246999 0.238523 0.638251
0.703419 0.268928 0.659501
0.936669 0.621611 0.705535
0.964449 0.845695 0.861368
0.274237 0.673218 0.647730
0.278860 0.669788 0.646739
0.654374 0.643334 0.642111
0.938843 0.655537 0.695272
0.964617 0.847132 0.860887
0.582871 0.915606 0.634602
0.585490 0.915581 0.634352
0.609503 0.915486 0.632541
0.945754 0.920132 0.575485
0.966390 0.862277 0.855937
0.819894 0.929021 0.813147
0.820066 0.929027 0.813139
0.821414 0.929069 0.813077
0.834927 0.929585 0.812327
0.974345 0.935294 0.786048
0.612080 0.551258 0.903564
0.620316 0.550476 0.903682
0.695979 0.544611 0.904915
0.932474 0.552224 0.909294
0.964301 0.842508 0.878503
0.609386 0.556789 0.903651
0.617566 0.555985 0.903764
0.692430 0.549924 0.904950
0.932576 0.555118 0.909297
0.964322 0.842687 0.878446
0.589464 0.605325 0.904562
0.597323 0.604381 0.904645
0.666234 0.597065 0.905491
0.933653 0.580674 0.909396
0.964486 0.844096 0.877994
0.510829 0.920271 0.905709
0.513045 0.920218 0.905753
0.533374 0.919821 0.906117
0.945703 0.907654 0.903476
0.966225 0.858968 0.873368
0.817355 0.929282 0.825814
0.817533 0.929285 0.825811
0.818933 0.929312 0.825787
0.832960 0.929682 0.825487
0.974542 0.935399 0.801769
0.903186 0.841435 0.926744
0.903590 0.841378 0.926749
0.906775 0.840927 0.926792
0.940399 0.836015 0.927250
0.961042 0.809557 0.926726
0.903034 0.841712 0.926751
0.903437 0.841655 0.926757
0.906620 0.841204 0.926799
0.940224 0.836296 0.927257
0.961060 0.809702 0.926731
0.901843 0.843888 0.926809
0.902245 0.843832 0.926815
0.905411 0.843383 0.926857
0.938852 0.838505 0.927311
0.961196 0.810847 0.926773
0.890276 0.865795 0.927425
0.890657 0.865739 0.927430
0.893663 0.865296 0.927468
0.925491 0.860629 0.927883
0.962629 0.822810 0.927215
0.778308 0.933614 0.928386
0.778512 0.933616 0.928389
0.780115 0.933635 0.928415
0.796521 0.933832 0.928687
0.976266 0.936567 0.932209
