color-grading/luts/03_combined_slog3/BNC_SLog3_L09_Nocturne.cube
TITLE "BNC SLog3 L09 Nocturne"
# BNC Grade v1.0 - S-Log3/S-Gamut3.Cine -> BNC Base -> Cool, blue-leaning night grade with deep, protected shadows.
# Input: S-Log3 / S-Gamut3.Cine | Output: Rec.709 Gamma 2.4
LUT_3D_SIZE 9
DOMAIN_MIN 0.0 0.0 0.0
DOMAIN_MAX 1.0 1.0 1.0
0.001297 0.001315 0.001329
0.022977 0.008221 0.009001
0.152795 0.074507 0.096718
0.395181 0.123931 0.137511
0.679251 0.177011 0.206339
0.850486 0.342269 0.393138
0.916253 0.596331 0.651900
0.951639 0.793820 0.830612
0.963207 0.902593 0.912746
0.007865 0.018217 0.013719
0.005618 0.010883 0.006647
0.128542 0.067137 0.089995
0.384087 0.124401 0.136010
0.676811 0.185472 0.202739
0.850848 0.347673 0.391297
0.916593 0.598431 0.651387
0.951708 0.794309 0.830524
0.963217 0.902675 0.912744
0.068205 0.171900 0.133989
0.062488 0.162174 0.128524
0.072889 0.161144 0.118628
0.369257 0.148241 0.136437
0.673267 0.202670 0.197165
0.851483 0.356770 0.388400
0.917136 0.601803 0.650571
0.951818 0.795086 0.830385
0.963235 0.902804 0.912740
0.190145 0.400761 0.213875
0.188303 0.396710 0.213219
0.185219 0.390399 0.211742
0.334481 0.388291 0.175894
0.671588 0.313185 0.175958
0.854033 0.390116 0.379514
0.918861 0.612704 0.647990
0.952159 0.797529 0.829945
0.963264 0.903242 0.912749
0.317136 0.665545 0.287018
0.317175 0.664456 0.286393
0.317706 0.662740 0.285444
0.329761 0.657858 0.283317
0.622008 0.658975 0.199933
0.876647 0.571475 0.328450
0.924375 0.650143 0.639517
0.953206 0.805252 0.828535
0.963404 0.904518 0.912729
0.426300 0.824697 0.397448
0.427328 0.824612 0.397158
0.429083 0.824485 0.396710
0.435717 0.824162 0.395401
0.480514 0.824942 0.392708
0.816723 0.832017 0.249612
0.936579 0.795129 0.590290
0.956260 0.831136 0.823561
0.963787 0.908492 0.912685
0.540051 0.880373 0.571305
0.541108 0.880432 0.571263
0.542813 0.880528 0.571199
0.548384 0.880854 0.571027
0.568139 0.882139 0.570703
0.655304 0.889526 0.568301
0.909188 0.898739 0.451250
0.958032 0.914280 0.798913
0.964822 0.920327 0.912285
0.704741 0.919334 0.744693
0.705139 0.919361 0.744724
0.705771 0.919404 0.744773
0.707747 0.919539 0.744927
0.713888 0.919967 0.745402
0.733429 0.921419 0.746848
0.803859 0.927841 0.747331
0.946788 0.933058 0.691683
0.965580 0.947046 0.905661
0.823066 0.941036 0.852236
0.823160 0.941042 0.852248
0.823309 0.941051 0.852266
0.823773 0.941081 0.852324
0.825210 0.941171 0.852502
0.829685 0.941458 0.853061
0.843870 0.942428 0.854796
0.891177 0.946431 0.855977
0.960776 0.950233 0.848204
0.001183 0.001887 0.007795
0.019182 0.006363 0.010969
0.148799 0.073263 0.096009
0.393333 0.123252 0.143584
0.678727 0.175047 0.219126
0.850332 0.340981 0.399946
0.916144 0.595804 0.654101
0.951615 0.793695 0.831074
0.963204 0.902574 0.912797
0.003435 0.008441 0.006619
0.003934 0.004285 0.004573
0.123148 0.065298 0.088499
0.382059 0.123270 0.140307
0.676250 0.183260 0.215304
0.850696 0.346352 0.398096
0.916486 0.597903 0.653593
0.951684 0.794184 0.830987
0.963215 0.902656 0.912795
0.060365 0.158678 0.126530
0.054521 0.148345 0.120513
0.062637 0.146844 0.112126
0.366335 0.140679 0.137852
0.672628 0.199909 0.209339
0.851334 0.355391 0.395184
0.917032 0.601274 0.652784
0.951794 0.794961 0.830848
0.963232 0.902786 0.912790
0.187504 0.395332 0.213308
0.185588 0.391248 0.212543
0.182786 0.384761 0.211252
0.330909 0.382455 0.174818
0.669730 0.307428 0.188984
0.853897 0.388529 0.386247
0.918768 0.612170 0.650226
0.952136 0.797404 0.830411
0.963261 0.903223 0.912800
0.316584 0.664283 0.289821
0.316587 0.663176 0.289138
0.317040 0.661430 0.288094
0.328634 0.656436 0.285663
0.621185 0.657248 0.198833
0.876653 0.569200 0.336617
0.924327 0.649611 0.641837
0.953186 0.805129 0.829010
0.963402 0.904499 0.912780
0.426329 0.824779 0.400412
0.427350 0.824691 0.400115
0.429095 0.824561 0.399655
0.435698 0.824226 0.398310
0.480279 0.824957 0.395544
0.816893 0.832006 0.253934
0.936876 0.794737 0.592723
0.956254 0.831024 0.824068
0.963785 0.908475 0.912737
0.539912 0.880537 0.572805
0.540970 0.880595 0.572765
0.542677 0.880691 0.572705
0.548254 0.881016 0.572542
0.568036 0.882299 0.572256
0.655349 0.889687 0.570079
0.909418 0.898958 0.453576
0.958081 0.914281 0.799474
0.964822 0.920315 0.912344
0.704649 0.919376 0.745032
0.705048 0.919403 0.745064
0.705681 0.919446 0.745113
0.707659 0.919581 0.745268
0.713810 0.920008 0.745747
0.733378 0.921460 0.747207
0.803889 0.927882 0.747778
0.946840 0.933115 0.692197
0.965587 0.947048 0.905736
0.823042 0.941044 0.852301
0.823136 0.941050 0.852313
0.823285 0.941059 0.852332
0.823749 0.941088 0.852389
0.825186 0.941178 0.852568
0.829664 0.941465 0.853127
0.843856 0.942435 0.854866
0.891185 0.946438 0.856072
0.960785 0.950243 0.848296
0.015451 0.047132 0.089304
0.015544 0.047620 0.093079
0.145061 0.055563 0.180663
0.390918 0.119935 0.189429
0.677914 0.171898 0.243092
0.850066 0.338932 0.411203
0.915965 0.594965 0.657608
0.951577 0.793496 0.831806
0.963200 0.902544 0.912877
0.014568 0.044355 0.084503
0.014249 0.043360 0.082843
0.118333 0.045166 0.167063
0.379384 0.119783 0.180224
0.675387 0.179742 0.239030
0.850433 0.344250 0.409328
0.916310 0.597062 0.657107
0.951646 0.793985 0.831720
0.963211 0.902626 0.912875
0.044431 0.138834 0.151444
0.041030 0.127337 0.143621
0.051404 0.119203 0.162226
0.362515 0.130490 0.167161
0.671657 0.195589 0.232605
0.851078 0.353200 0.406395
0.916860 0.600430 0.656310
0.951757 0.794762 0.831582
0.963228 0.902756 0.912871
0.183608 0.386973 0.217791
0.181486 0.382733 0.216405
0.178479 0.375934 0.214310
0.325473 0.373151 0.177285
0.667028 0.298652 0.212718
0.853665 0.386013 0.397394
0.918613 0.611319 0.653789
0.952100 0.797206 0.831150
0.963257 0.903193 0.912880
0.315879 0.662385 0.296141
0.315827 0.661248 0.295355
0.316161 0.659453 0.294145
0.327033 0.654276 0.291181
0.619921 0.654531 0.197402
0.876526 0.565709 0.350359
0.924245 0.648761 0.645535
0.953155 0.804935 0.829763
0.963398 0.904470 0.912861
0.426406 0.824942 0.405454
0.427418 0.824851 0.405146
0.429147 0.824714 0.404667
0.435702 0.824361 0.403266
0.479953 0.825013 0.400392
0.817197 0.832020 0.261206
0.937351 0.794110 0.596620
0.956242 0.830846 0.824871
0.963781 0.908448 0.912821
0.539684 0.880799 0.575196
0.540744 0.880858 0.575159
0.542453 0.880953 0.575104
0.548041 0.881277 0.574957
0.567867 0.882555 0.574731
0.655423 0.889945 0.572918
0.909789 0.899313 0.457309
0.958142 0.914308 0.800505
0.964822 0.920295 0.912437
0.704503 0.919442 0.745571
0.704903 0.919469 0.745603
0.705537 0.919512 0.745653
0.707520 0.919647 0.745809
0.713685 0.920074 0.746294
0.733295 0.921525 0.747776
0.803937 0.927947 0.748488
0.946922 0.933206 0.693013
0.965598 0.947051 0.905855
0.823004 0.941056 0.852405
0.823098 0.941062 0.852417
0.823246 0.941071 0.852435
0.823711 0.941100 0.852493
0.825150 0.941191 0.852672
0.829631 0.941477 0.853233
0.843835 0.942447 0.854976
0.891197 0.946450 0.856221
0.960798 0.950259 0.848442
0.037996 0.126750 0.260882
0.037580 0.126010 0.263964
0.126160 0.058031 0.370146
0.381051 0.094509 0.393664
0.674720 0.159662 0.367089
0.848986 0.332387 0.452384
0.915356 0.592304 0.668714
0.951454 0.792869 0.834091
0.963187 0.902451 0.913126
0.037843 0.125814 0.258215
0.037513 0.125340 0.258835
0.094783 0.056677 0.360962
0.369159 0.092836 0.389233
0.672116 0.166663 0.362365
0.849371 0.337551 0.450317
0.915710 0.594394 0.668236
0.951524 0.793359 0.834007
0.963198 0.902533 0.913123
0.039035 0.130519 0.268504
0.038575 0.128358 0.264050
0.028810 0.108233 0.306220
0.350506 0.092411 0.382456
0.668207 0.180695 0.354808
0.850045 0.346240 0.447070
0.916274 0.597752 0.667476
0.951636 0.794137 0.833874
0.963215 0.902662 0.913120
0.110652 0.372078 0.370556
0.109051 0.367127 0.369028
0.107505 0.359119 0.366494
0.319572 0.350825 0.376091
0.661671 0.270430 0.331730
0.852742 0.378087 0.437193
0.918077 0.608616 0.665077
0.951984 0.796583 0.833456
0.963244 0.903100 0.913130
0.315740 0.658689 0.346181
0.315545 0.657448 0.345096
0.315591 0.655481 0.343404
0.324574 0.649663 0.338950
0.619928 0.649236 0.265275
0.874837 0.555868 0.399420
0.923930 0.646050 0.657260
0.953053 0.804322 0.832114
0.963386 0.904379 0.913113
0.426906 0.825778 0.424406
0.427891 0.825674 0.424063
0.429579 0.825518 0.423531
0.436007 0.825102 0.421971
0.479348 0.825500 0.418833
0.818528 0.832422 0.288322
0.938862 0.792120 0.609180
0.956203 0.830283 0.827382
0.963771 0.908362 0.913081
0.538897 0.881646 0.582766
0.539963 0.881703 0.582738
0.541682 0.881797 0.582696
0.547305 0.882116 0.582598
0.567282 0.883382 0.582568
0.655666 0.890778 0.581943
0.910998 0.900475 0.469352
0.958388 0.914309 0.803282
0.964820 0.920232 0.912726
0.704033 0.919652 0.747261
0.704436 0.919679 0.747294
0.705075 0.919722 0.747345
0.707072 0.919856 0.747507
0.713282 0.920282 0.748009
0.733029 0.921728 0.749559
0.804086 0.928152 0.750713
0.947181 0.933491 0.695581
0.965623 0.947069 0.906283
0.822883 0.941094 0.852729
0.822977 0.941100 0.852741
0.823126 0.941109 0.852759
0.823592 0.941138 0.852817
0.825034 0.941229 0.852997
0.829525 0.941515 0.853562
0.843766 0.942484 0.855322
0.891237 0.946488 0.856687
0.960842 0.950307 0.848897
0.043860 0.058628 0.645516
0.082205 0.059843 0.645598
0.135003 0.062234 0.646801
0.353536 0.069662 0.657902
0.657900 0.112941 0.645860
0.840918 0.308568 0.625690
0.912981 0.583669 0.704350
0.951041 0.790887 0.841139
0.963145 0.902159 0.913885
0.024996 0.156986 0.598229
0.069629 0.058703 0.647752
0.122743 0.060453 0.648402
0.341427 0.072980 0.657356
0.654778 0.117842 0.644517
0.841313 0.313273 0.624320
0.913355 0.585732 0.703956
0.951113 0.791378 0.841065
0.963156 0.902241 0.913883
0.036928 0.185390 0.576784
0.045354 0.057025 0.654875
0.103842 0.059119 0.654144
0.321021 0.088951 0.655638
0.649838 0.127505 0.642457
0.842008 0.321185 0.622159
0.913954 0.589048 0.703332
0.951229 0.792158 0.840947
0.963173 0.902371 0.913881
0.060274 0.264555 0.612955
0.057432 0.257277 0.616462
0.049242 0.238106 0.634781
0.249031 0.206222 0.652277
0.636069 0.185758 0.637432
0.844861 0.350169 0.615552
0.915881 0.599794 0.701367
0.951589 0.794610 0.840574
0.963228 0.902777 0.913872
0.201988 0.661627 0.643186
0.201788 0.660114 0.642865
0.201868 0.657702 0.642363
0.212123 0.650255 0.641051
0.646277 0.654848 0.664838
0.867767 0.517674 0.599437
0.922328 0.637063 0.695076
0.952701 0.802374 0.839380
0.963347 0.904094 0.913884
0.425701 0.835034 0.536238
0.426769 0.834886 0.535861
0.428594 0.834658 0.535279
0.435528 0.834010 0.533604
0.480513 0.833452 0.531329
0.831098 0.841810 0.448141
0.943098 0.786075 0.653738
0.956078 0.828415 0.835115
0.963738 0.908095 0.913876
0.535501 0.884707 0.608498
0.536596 0.884759 0.608484
0.538361 0.884845 0.608465
0.544141 0.885140 0.608448
0.564746 0.886329 0.608782
0.656460 0.893632 0.611495
0.915232 0.904594 0.510229
0.959095 0.914376 0.812426
0.964833 0.920011 0.913576
0.702460 0.920321 0.752571
0.702872 0.920348 0.752606
0.703525 0.920390 0.752662
0.705567 0.920523 0.752839
0.711922 0.920946 0.753392
0.732109 0.922378 0.755145
0.804546 0.928798 0.757678
0.948001 0.934441 0.704289
0.965718 0.947104 0.907471
0.822502 0.941213 0.853731
0.822597 0.941219 0.853743
0.822747 0.941228 0.853762
0.823216 0.941257 0.853821
0.824668 0.941347 0.854004
0.829192 0.941632 0.854579
0.843546 0.942598 0.856389
0.891359 0.946605 0.858127
0.960970 0.950482 0.850623
0.270045 0.234773 0.849472
0.279831 0.234301 0.849429
0.296596 0.233634 0.849332
0.360826 0.232180 0.848640
0.634198 0.224485 0.838767
0.820786 0.243372 0.829581
0.900735 0.552891 0.825796
0.949469 0.784354 0.862421
0.963030 0.901199 0.916139
0.266762 0.240579 0.849421
0.276361 0.240049 0.849385
0.292809 0.239289 0.849303
0.355856 0.237541 0.848696
0.630692 0.229491 0.839101
0.820651 0.246423 0.829549
0.901106 0.554802 0.825718
0.949548 0.784844 0.862379
0.963041 0.901282 0.916139
0.261759 0.250363 0.849347
0.271067 0.249737 0.849322
0.287018 0.248824 0.849263
0.348211 0.246593 0.848780
0.625016 0.237878 0.839667
0.820702 0.251848 0.829753
0.901705 0.557876 0.825597
0.949672 0.785623 0.862311
0.963059 0.901414 0.916139
0.248043 0.287196 0.849269
0.256438 0.286203 0.849268
0.270850 0.284701 0.849261
0.326347 0.280609 0.849102
0.606355 0.268552 0.841813
0.821166 0.271567 0.830648
0.903660 0.567867 0.825232
0.950060 0.788076 0.862097
0.963091 0.901859 0.916156
0.244700 0.512973 0.858558
0.249747 0.510123 0.858414
0.258429 0.505640 0.858205
0.293232 0.491994 0.857781
0.543078 0.454392 0.858196
0.829056 0.377606 0.838464
0.910595 0.602961 0.824268
0.951272 0.795859 0.861412
0.963239 0.903158 0.916170
0.305475 0.853701 0.836913
0.306550 0.853525 0.836962
0.308412 0.853251 0.837045
0.315779 0.852451 0.837375
0.366210 0.851218 0.839775
0.881568 0.879190 0.880491
0.940619 0.762161 0.821588
0.955100 0.822116 0.858952
0.963649 0.907212 0.916230
0.496476 0.899962 0.717037
0.497762 0.900008 0.717053
0.499841 0.900084 0.717084
0.506678 0.900345 0.717230
0.531474 0.901395 0.718239
0.648320 0.907940 0.729462
0.934494 0.924174 0.686053
0.961287 0.914386 0.842119
0.964795 0.919371 0.916215
0.696141 0.922620 0.770027
0.696583 0.922646 0.770069
0.697284 0.922687 0.770136
0.699479 0.922817 0.770346
0.706319 0.923229 0.771018
0.728061 0.924615 0.773282
0.805836 0.930934 0.780112
0.950700 0.937557 0.732865
0.965983 0.947218 0.911197
0.821238 0.941587 0.856861
0.821335 0.941593 0.856874
0.821489 0.941602 0.856893
0.821968 0.941631 0.856955
0.823451 0.941720 0.857146
0.828077 0.942003 0.857751
0.842787 0.942959 0.859702
0.891731 0.946968 0.862601
0.961377 0.951002 0.855659
0.550227 0.492651 0.890451
0.553911 0.492200 0.890411
0.559818 0.491480 0.890341
0.579101 0.489185 0.890064
0.646757 0.481390 0.888411
0.837434 0.448306 0.876207
0.881376 0.474965 0.876472
0.943536 0.762519 0.909236
0.962565 0.898055 0.922511
0.549161 0.495539 0.890757
0.552845 0.495086 0.890719
0.558731 0.494364 0.890652
0.577940 0.492061 0.890386
0.645400 0.484249 0.888775
0.837508 0.450985 0.876537
0.881629 0.476537 0.876656
0.943616 0.762985 0.909281
0.962577 0.898140 0.922515
0.547483 0.500176 0.891246
0.551167 0.499721 0.891212
0.557032 0.498995 0.891150
0.576122 0.496680 0.890901
0.643269 0.488843 0.889357
0.837632 0.455298 0.877071
0.882038 0.479061 0.876953
0.943743 0.763725 0.909352
0.962596 0.898275 0.922521
0.542333 0.515152 0.892809
0.546010 0.514691 0.892785
0.551867 0.513954 0.892740
0.570617 0.511606 0.892547
0.636745 0.503705 0.891221
0.838081 0.469328 0.878833
0.883376 0.487216 0.877920
0.944142 0.766059 0.909576
0.962656 0.898696 0.922540
0.527419 0.565854 0.897845
0.531024 0.565391 0.897861
0.536789 0.564653 0.897880
0.555172 0.562303 0.897894
0.617946 0.554444 0.897338
0.834638 0.518503 0.885628
0.888140 0.515234 0.881342
0.945403 0.773484 0.910289
0.962793 0.900072 0.922620
0.496834 0.775291 0.910193
0.499745 0.774837 0.910371
0.504455 0.774124 0.910658
0.519952 0.771935 0.911597
0.575008 0.765396 0.914790
0.812195 0.735867 0.918150
0.911853 0.641555 0.898301
0.949572 0.798761 0.912702
0.963246 0.904268 0.922850
0.412997 0.911119 0.895471
0.414044 0.911172 0.895539
0.415733 0.911259 0.895650
0.421259 0.911549 0.896013
0.441120 0.912646 0.897344
0.553773 0.920203 0.905776
0.959497 0.949202 0.939969
0.963336 0.904835 0.921533
0.964602 0.917003 0.923469
0.657249 0.931777 0.845132
0.657749 0.931807 0.845162
0.658542 0.931857 0.845209
0.661032 0.932011 0.845358
0.668877 0.932496 0.845849
0.694614 0.934072 0.847659
0.795676 0.940070 0.858734
0.960929 0.949812 0.849516
0.966716 0.947397 0.921810
0.816432 0.942818 0.866939
0.816535 0.942824 0.866952
0.816698 0.942833 0.866973
0.817206 0.942861 0.867038
0.818782 0.942949 0.867241
0.823710 0.943228 0.867894
0.839535 0.944161 0.870136
0.892734 0.948118 0.876523
0.962668 0.952658 0.871785
0.795735 0.746185 0.923136
0.796602 0.746039 0.923107
0.797977 0.745805 0.923059
0.802301 0.745065 0.922902
0.815960 0.742660 0.922331
0.861064 0.733854 0.919636
0.923088 0.699226 0.910611
0.932529 0.705248 0.910793
0.960686 0.886386 0.935900
0.795524 0.746924 0.923235
0.796390 0.746778 0.923206
0.797765 0.746545 0.923159
0.802087 0.745806 0.923004
0.815740 0.743405 0.922438
0.860837 0.734610 0.919759
0.923205 0.699938 0.910716
0.932599 0.705633 0.910850
0.960699 0.886474 0.935912
0.795190 0.748097 0.923393
0.796055 0.747951 0.923364
0.797430 0.747719 0.923318
0.801749 0.746982 0.923165
0.815393 0.744587 0.922608
0.860478 0.735809 0.919954
0.923392 0.701070 0.910884
0.932710 0.706246 0.910940
0.960695 0.886662 0.935923
0.794152 0.751783 0.923882
0.795015 0.751638 0.923855
0.796386 0.751408 0.923812
0.800697 0.750677 0.923668
0.814313 0.748301 0.923139
0.859357 0.739579 0.920565
0.923980 0.704631 0.911413
0.933059 0.708174 0.911223
0.960760 0.887100 0.935982
0.790974 0.763407 0.925379
0.791833 0.763267 0.925358
0.793196 0.763043 0.925325
0.797481 0.762334 0.925211
0.811016 0.760025 0.924774
0.855887 0.751495 0.922468
0.925832 0.715922 0.913094
0.934168 0.714316 0.912125
0.960937 0.888503 0.936157
0.781184 0.801688 0.929718
0.782033 0.801568 0.929721
0.783382 0.801377 0.929726
0.787620 0.800769 0.929731
0.800991 0.798769 0.929662
0.845252 0.791128 0.928442
0.931941 0.753993 0.918790
0.937903 0.735281 0.915216
0.961446 0.892963 0.936696
0.732726 0.914864 0.929690
0.733550 0.914880 0.929770
0.734860 0.914906 0.929896
0.738983 0.914990 0.930295
0.752092 0.915267 0.931560
0.796683 0.916317 0.935818
0.947289 0.905617 0.941850
0.952964 0.826637 0.928733
0.963096 0.906957 0.938469
0.599872 0.931376 0.915230
0.600349 0.931412 0.915271
0.601108 0.931469 0.915335
0.603497 0.931650 0.915537
0.611084 0.932227 0.916183
0.636709 0.934205 0.918404
0.739721 0.942458 0.927790
0.968957 0.959406 0.949722
0.967594 0.945231 0.943925
0.795828 0.946457 0.903205
0.795935 0.946464 0.903215
0.796105 0.946475 0.903230
0.796634 0.946511 0.903279
0.798278 0.946620 0.903431
0.803470 0.946963 0.903918
0.820724 0.948071 0.905640
0.887792 0.952002 0.914527
0.966782 0.958210 0.924520
0.930416 0.897113 0.941445
0.930532 0.897074 0.941434
0.930714 0.897012 0.941418
0.931280 0.896817 0.941365
0.932992 0.896205 0.941199
0.937971 0.894211 0.940646
0.950310 0.887038 0.938668
0.957133 0.857706 0.933010
0.955990 0.848436 0.930773
0.930390 0.897258 0.941468
0.930506 0.897219 0.941457
0.930688 0.897157 0.941440
0.931254 0.896962 0.941388
0.932968 0.896351 0.941222
0.937951 0.894359 0.940670
0.950302 0.887193 0.938693
0.957155 0.857869 0.933034
0.956003 0.848520 0.930786
0.930348 0.897486 0.941504
0.930464 0.897447 0.941493
0.930647 0.897385 0.941477
0.931213 0.897191 0.941425
0.932930 0.896582 0.941259
0.937920 0.894594 0.940708
0.950291 0.887439 0.938732
0.957191 0.858126 0.933073
0.956023 0.848652 0.930808
0.930217 0.898197 0.941616
0.930333 0.898158 0.941605
0.930516 0.898097 0.941589
0.931086 0.897905 0.941537
0.932809 0.897299 0.941373
0.937821 0.895325 0.940826
0.950255 0.888205 0.938856
0.957271 0.858988 0.933178
0.956087 0.849065 0.930874
0.929800 0.900374 0.941959
0.929918 0.900336 0.941949
0.930104 0.900277 0.941933
0.930680 0.900089 0.941883
0.932426 0.899498 0.941724
0.937506 0.897566 0.941188
0.950136 0.890561 0.939237
0.957611 0.861472 0.933552
0.956251 0.850412 0.931060
0.928398 0.906915 0.942987
0.928521 0.906881 0.942978
0.928715 0.906827 0.942964
0.929315 0.906657 0.942921
0.931136 0.906118 0.942781
0.936438 0.904334 0.942290
0.949698 0.897731 0.940406
0.958571 0.869361 0.934674
0.956775 0.854645 0.931657
0.922476 0.924782 0.945588
0.922621 0.924765 0.945589
0.922850 0.924738 0.945589
0.923560 0.924651 0.945590
0.925707 0.924361 0.945577
0.931934 0.923260 0.945397
0.947500 0.918268 0.943916
0.961467 0.893679 0.938210
0.958530 0.868543 0.933688
0.870752 0.949053 0.940713
0.870949 0.949065 0.940732
0.871261 0.949084 0.940762
0.872235 0.949142 0.940856
0.875265 0.949323 0.941149
0.884816 0.949892 0.942071
0.914590 0.951673 0.945012
0.967848 0.948590 0.947061
0.964517 0.919552 0.941816
0.759929 0.945275 0.929534
0.760036 0.945284 0.929544
0.760205 0.945298 0.929560
0.760733 0.945340 0.929610
0.762371 0.945473 0.929764
0.767523 0.945889 0.930250
0.784615 0.947270 0.931865
0.853523 0.952762 0.938373
0.969416 0.962150 0.954387
