color-grading/luts/03_combined_slog3/BNC_SLog3_L04_TealOrange.cube
TITLE "BNC SLog3 L04 TealOrange"
# BNC Grade v1.0 - S-Log3/S-Gamut3.Cine -> BNC Base -> Complementary teal shadows against warm orange skin tones -- the modern high-contrast blockbuster look.
# Input: S-Log3 / S-Gamut3.Cine | Output: Rec.709 Gamma 2.4
LUT_3D_SIZE 33
DOMAIN_MIN 0.0 0.0 0.0
DOMAIN_MAX 1.0 1.0 1.0
0.002711 0.002877 0.002908
0.002711 0.002877 0.002908
0.003305 0.002887 0.002916
0.014887 0.004794 0.004317
0.036938 0.017416 0.015290
0.057407 0.036582 0.033953
0.078369 0.057324 0.054769
0.113595 0.075594 0.070776
0.161226 0.088955 0.080122
0.214411 0.100912 0.088324
0.274700 0.110946 0.095133
0.341939 0.117945 0.100530
0.415060 0.121006 0.106169
0.495288 0.120236 0.114296
0.572378 0.117734 0.126643
0.647044 0.118056 0.146236
0.717417 0.128701 0.173208
0.782412 0.153864 0.208807
0.841896 0.191870 0.251166
0.870658 0.246285 0.304860
0.891529 0.307584 0.364313
0.907954 0.371259 0.428061
0.921579 0.439776 0.495636
0.933475 0.510322 0.557267
0.943083 0.573860 0.614253
0.951151 0.633303 0.665143
0.955766 0.687962 0.710323
0.958472 0.736016 0.751090
0.960740 0.777601 0.786315
0.962582 0.813104 0.817282
0.964136 0.843994 0.843048
0.965337 0.868699 0.863294
0.966252 0.887860 0.879136
0.002711 0.002877 0.002908
0.002711 0.002877 0.002908
0.002711 0.002877 0.002908
0.009681 0.003453 0.003328
0.028990 0.011815 0.010199
0.051553 0.030539 0.027917
0.072891 0.052496 0.049983
0.106452 0.073332 0.069153
0.155213 0.087432 0.079050
0.209421 0.099962 0.087638
0.270392 0.110458 0.094689
0.338429 0.117982 0.100160
0.412094 0.121742 0.105581
0.493030 0.121913 0.113482
0.570853 0.120174 0.125594
0.645971 0.121264 0.145096
0.716721 0.132057 0.172116
0.781955 0.156875 0.207827
0.841639 0.194349 0.250306
0.870657 0.248208 0.304108
0.891582 0.309126 0.363711
0.908033 0.372461 0.427547
0.921668 0.440794 0.495247
0.933548 0.511067 0.556994
0.943136 0.574385 0.614056
0.951187 0.633676 0.665012
0.955791 0.688206 0.710237
0.958489 0.736182 0.751037
0.960752 0.777713 0.786282
0.962590 0.813180 0.817262
0.964142 0.844045 0.843039
0.965341 0.868730 0.863289
0.966254 0.887880 0.879134
0.002711 0.002877 0.002908
0.002711 0.002877 0.002908
0.002711 0.002877 0.002908
0.005867 0.003009 0.003005
0.021601 0.007659 0.006594
0.045062 0.024332 0.021826
0.067637 0.047388 0.044839
0.099704 0.070704 0.067065
0.149201 0.085886 0.077953
0.204433 0.099016 0.086943
0.266095 0.110009 0.094251
0.334918 0.118119 0.099818
0.409136 0.122676 0.105034
0.490771 0.123788 0.112685
0.569334 0.122791 0.124551
0.644903 0.124581 0.143953
0.716029 0.135464 0.171019
0.781503 0.159925 0.206842
0.841384 0.196860 0.249443
0.870658 0.250157 0.303354
0.891637 0.310684 0.363108
0.908112 0.373672 0.427033
0.921758 0.441818 0.494856
0.933621 0.511814 0.556721
0.943189 0.574911 0.613859
0.951224 0.634050 0.664880
0.955815 0.688451 0.710151
0.958506 0.736349 0.750983
0.960764 0.777825 0.786250
0.962599 0.813256 0.817243
0.964148 0.844096 0.843029
0.965345 0.868762 0.863284
0.966257 0.887900 0.879131
0.002383 0.010535 0.008224
0.002210 0.008963 0.006852
0.001980 0.007528 0.005648
0.001733 0.006343 0.004698
0.016074 0.006849 0.004966
0.038352 0.018881 0.016492
0.062681 0.042393 0.039737
0.093578 0.067799 0.064542
0.143301 0.084383 0.076859
0.199500 0.098123 0.086251
0.261836 0.109663 0.093828
0.331417 0.118435 0.099507
0.406197 0.123888 0.104531
0.488516 0.125902 0.111906
0.567826 0.125609 0.123513
0.643843 0.128017 0.142804
0.715341 0.138928 0.169917
0.781055 0.163019 0.205853
0.841130 0.199402 0.248579
0.870661 0.252133 0.302598
0.891692 0.312257 0.362503
0.908193 0.374895 0.426517
0.921848 0.442848 0.494464
0.933694 0.512563 0.556447
0.943242 0.575438 0.613662
0.951260 0.634425 0.664748
0.955839 0.688697 0.710064
0.958523 0.736517 0.750930
0.960712 0.778026 0.786292
0.962607 0.813332 0.817223
0.964154 0.844147 0.843019
0.965349 0.868794 0.863279
0.966259 0.887920 0.879129
0.004441 0.031579 0.026259
0.004234 0.028147 0.023276
0.003968 0.024966 0.020540
0.003683 0.022032 0.018032
0.003855 0.020733 0.016732
0.030055 0.024032 0.016366
0.057782 0.041098 0.037138
0.088404 0.065541 0.062219
0.137786 0.083185 0.075867
0.194710 0.097451 0.085601
0.257656 0.109571 0.093438
0.327945 0.119070 0.099235
0.403286 0.125486 0.104076
0.486269 0.128301 0.111145
0.566332 0.128653 0.122480
0.642792 0.131585 0.141649
0.714658 0.142456 0.168810
0.780611 0.166160 0.204860
0.840878 0.201979 0.247713
0.870666 0.254136 0.301840
0.891750 0.313845 0.361896
0.908274 0.376130 0.426001
0.921938 0.443883 0.494071
0.933767 0.513314 0.556173
0.943295 0.575967 0.613464
0.951297 0.634800 0.664615
0.955863 0.688942 0.709978
0.958540 0.736684 0.750876
0.960724 0.778138 0.786259
0.962616 0.813409 0.817204
0.964159 0.844198 0.843009
0.965352 0.868825 0.863274
0.966262 0.887940 0.879127
0.000063 0.062639 0.054008
0.002504 0.058770 0.050568
0.003361 0.054831 0.047034
0.003936 0.050874 0.043465
0.004290 0.047321 0.040258
0.005121 0.046742 0.039417
0.029308 0.057064 0.048808
0.080817 0.071235 0.063006
0.133091 0.084633 0.075596
0.190224 0.097742 0.085137
0.253621 0.110140 0.093134
0.324529 0.120335 0.099023
0.400417 0.127599 0.103673
0.484037 0.131040 0.110402
0.564853 0.131955 0.121450
0.641751 0.135297 0.140487
0.713980 0.146059 0.167697
0.780173 0.169350 0.203863
0.840628 0.204591 0.246845
0.870673 0.256167 0.301080
0.891808 0.315449 0.361288
0.908357 0.377377 0.425483
0.922029 0.444924 0.493677
0.933840 0.514067 0.555898
0.943348 0.576497 0.613266
0.951333 0.635176 0.664483
0.955887 0.689188 0.709891
0.958558 0.736851 0.750822
0.960736 0.778250 0.786227
0.962569 0.813561 0.817253
0.964165 0.844249 0.842999
0.965356 0.868857 0.863269
0.966264 0.887960 0.879124
0.006878 0.097440 0.082497
0.006008 0.094170 0.079966
0.004968 0.090862 0.077408
0.002271 0.087538 0.074835
0.000085 0.084270 0.072281
0.000083 0.081901 0.070359
0.004901 0.084506 0.071940
0.033377 0.097894 0.080984
0.124476 0.102070 0.077579
0.185069 0.106874 0.086149
0.248920 0.113986 0.093152
0.320395 0.123684 0.098909
0.396915 0.131230 0.103250
0.481276 0.135051 0.109498
0.563033 0.136502 0.120164
0.640466 0.140164 0.139021
0.713141 0.150693 0.166294
0.779631 0.173417 0.202608
0.840318 0.207910 0.245755
0.870684 0.258748 0.300127
0.891883 0.317479 0.360524
0.908462 0.378956 0.424833
0.922144 0.446234 0.493182
0.933932 0.515012 0.555553
0.943414 0.577163 0.613017
0.951379 0.635647 0.664316
0.955918 0.689496 0.709783
0.958505 0.737166 0.750839
0.960751 0.778390 0.786185
0.962580 0.813656 0.817229
0.964173 0.844313 0.842987
0.965361 0.868897 0.863263
0.966267 0.887985 0.879121
0.014984 0.138586 0.114613
0.014533 0.135905 0.112512
0.014080 0.133197 0.110386
0.014060 0.130455 0.108248
0.013388 0.127725 0.106106
0.012742 0.125114 0.104054
0.013202 0.123670 0.102774
0.017444 0.129678 0.106274
0.080311 0.140520 0.107758
0.175260 0.138248 0.089182
0.243447 0.136069 0.094561
0.315077 0.134991 0.099308
0.392265 0.139123 0.102842
0.477509 0.142237 0.108273
0.560553 0.143802 0.118354
0.638703 0.147465 0.136938
0.711986 0.157455 0.164306
0.778887 0.179277 0.200835
0.839888 0.212670 0.244219
0.870704 0.262447 0.298784
0.891992 0.320369 0.359447
0.908613 0.381204 0.423919
0.922306 0.448088 0.492485
0.934061 0.516343 0.555068
0.943507 0.578100 0.612668
0.951443 0.636309 0.664083
0.955874 0.690054 0.709725
0.958535 0.737461 0.750745
0.960772 0.778587 0.786128
0.962594 0.813790 0.817195
0.964135 0.844467 0.843034
0.965368 0.868953 0.863254
0.966272 0.888020 0.879117
0.022748 0.182839 0.149259
0.022352 0.180666 0.147567
0.021932 0.178478 0.145861
0.020854 0.176292 0.144137
0.021431 0.174069 0.142428
0.020196 0.171903 0.140712
0.020539 0.169406 0.138761
0.021900 0.170303 0.138863
0.032246 0.179037 0.141404
0.139534 0.184349 0.121841
0.233179 0.177792 0.097068
0.310736 0.168843 0.097824
0.386993 0.159171 0.102757
0.472862 0.156043 0.106698
0.557455 0.155558 0.115915
0.636458 0.158137 0.134111
0.710500 0.166965 0.161626
0.777932 0.187355 0.198456
0.839331 0.219175 0.242171
0.870740 0.267493 0.296994
0.892144 0.324280 0.358011
0.908817 0.384246 0.422701
0.922523 0.450572 0.491556
0.934232 0.518116 0.554423
0.943631 0.579348 0.612203
0.951528 0.637190 0.663772
0.955931 0.690629 0.709523
0.958575 0.737852 0.750620
0.960800 0.778848 0.786051
0.962614 0.813968 0.817149
0.964149 0.844585 0.843011
0.965335 0.869082 0.863304
0.966240 0.888115 0.879171
0.030105 0.231080 0.186181
0.029696 0.229290 0.184832
0.029325 0.227491 0.183473
0.030203 0.225657 0.182128
0.029851 0.223846 0.180757
0.028340 0.222063 0.179367
0.027966 0.219839 0.177673
0.028574 0.217517 0.175770
0.034478 0.221173 0.176173
0.060658 0.231900 0.167125
0.205860 0.229013 0.117816
0.300590 0.218942 0.097960
0.384787 0.203674 0.093917
0.467934 0.186352 0.104324
0.553843 0.176113 0.112480
0.633707 0.174480 0.130188
0.708636 0.180739 0.157971
0.776731 0.198696 0.195244
0.838614 0.228181 0.239423
0.870806 0.274450 0.294603
0.892356 0.329606 0.356092
0.909098 0.388387 0.421077
0.922815 0.453912 0.490315
0.934460 0.520483 0.553562
0.943796 0.581014 0.611583
0.951641 0.638361 0.663358
0.956006 0.691394 0.709254
0.958629 0.738371 0.750453
0.960837 0.779195 0.785949
0.962640 0.814204 0.817089
0.964167 0.844743 0.842981
0.965346 0.869180 0.863288
0.966248 0.888177 0.879164
0.042650 0.284174 0.225131
0.042148 0.282667 0.224049
0.041788 0.281152 0.222966
0.041321 0.279637 0.221876
0.040893 0.278120 0.220783
0.040698 0.276600 0.219694
0.040080 0.274721 0.218325
0.039190 0.272209 0.216444
0.040928 0.271090 0.214627
0.056504 0.277132 0.211003
0.129213 0.286449 0.179327
0.280702 0.275202 0.104883
0.375419 0.262589 0.088752
0.467555 0.240957 0.080926
0.550800 0.216679 0.106117
0.630694 0.201898 0.124401
0.706428 0.201650 0.152864
0.775277 0.215076 0.190854
0.837713 0.240925 0.235709
0.870927 0.284177 0.291398
0.892661 0.336933 0.353515
0.909489 0.394074 0.418903
0.923208 0.458423 0.488652
0.934763 0.523647 0.552412
0.944015 0.583242 0.610757
0.951791 0.639923 0.662806
0.956105 0.692412 0.708897
0.958625 0.739165 0.750318
0.960822 0.779744 0.785891
0.962620 0.814593 0.817079
0.964191 0.844951 0.842941
0.965362 0.869310 0.863267
0.966258 0.888258 0.879154
0.059357 0.343709 0.266241
0.059002 0.342452 0.265398
0.057270 0.341229 0.264501
0.056941 0.339965 0.263652
0.056665 0.338699 0.262800
0.056459 0.337431 0.261948
0.056057 0.335855 0.260872
0.055806 0.333679 0.259365
0.055982 0.331129 0.257357
0.061959 0.331545 0.254071
0.089203 0.339390 0.239093
0.216911 0.342149 0.187543
0.358532 0.326693 0.090501
0.458282 0.310004 0.058661
0.553881 0.282283 0.051482
0.629068 0.253321 0.112376
0.704218 0.235929 0.145287
0.773669 0.239832 0.184696
0.836633 0.259655 0.230622
0.871149 0.298052 0.287078
0.893108 0.347141 0.350036
0.910037 0.401974 0.415982
0.923742 0.464555 0.486414
0.935167 0.527890 0.550872
0.944307 0.586232 0.609651
0.951989 0.642007 0.662069
0.956152 0.693892 0.708518
0.958719 0.740083 0.750025
0.960887 0.780356 0.785711
0.962666 0.815008 0.816973
0.964175 0.845293 0.842953
0.965383 0.869482 0.863240
0.966271 0.888367 0.879141
0.078410 0.408019 0.308052
0.078237 0.406999 0.307403
0.078455 0.405968 0.306773
0.077078 0.404987 0.306060
0.077382 0.403957 0.305430
0.076120 0.402979 0.304719
0.076429 0.401707 0.303919
0.076858 0.399953 0.302781
0.075099 0.397829 0.301088
0.076247 0.395649 0.298596
0.089528 0.397861 0.291118
0.125897 0.407449 0.253740
0.302688 0.402380 0.179319
0.439938 0.384051 0.056573
0.542918 0.364688 0.010467
0.632028 0.333186 0.016516
0.704453 0.298284 0.127880
0.772349 0.280606 0.175471
0.835442 0.288433 0.223476
0.871583 0.318370 0.281160
0.893782 0.361623 0.345291
0.910822 0.413108 0.412030
0.924469 0.472952 0.483385
0.935705 0.533598 0.548800
0.944696 0.590260 0.608167
0.952252 0.644795 0.661081
0.956243 0.695825 0.707984
0.958770 0.741410 0.749722
0.960909 0.781257 0.785551
0.962672 0.815636 0.816903
0.964217 0.845660 0.842882
0.965368 0.869767 0.863265
0.966289 0.888510 0.879124
0.098930 0.478996 0.353052
0.099603 0.478134 0.352557
0.099083 0.477312 0.351978
0.098044 0.476507 0.351362
0.097622 0.475683 0.350782
0.098507 0.474819 0.350285
0.098214 0.473789 0.349559
0.098198 0.472349 0.348544
0.097020 0.470543 0.347044
0.097418 0.468313 0.344940
0.101675 0.466282 0.341241
0.120559 0.469915 0.325924
0.190133 0.478590 0.260739
0.386629 0.466473 0.159790
0.524152 0.446416 0.017900
0.620017 0.426051 0.018271
0.707373 0.391774 0.008029
0.774758 0.352906 0.149691
0.834310 0.335565 0.212878
0.872479 0.349250 0.272772
0.894837 0.382700 0.338703
0.911967 0.429098 0.406620
0.925465 0.484562 0.479247
0.936420 0.541302 0.545998
0.945216 0.595714 0.606165
0.952600 0.648537 0.659751
0.956391 0.698370 0.707239
0.958861 0.743145 0.749290
0.960960 0.782428 0.785314
0.962753 0.816372 0.816717
0.964226 0.846212 0.842853
0.965405 0.870070 0.863217
0.966276 0.888748 0.879161
0.117151 0.551543 0.399661
0.117099 0.550953 0.399236
0.117097 0.550361 0.398809
0.117154 0.549769 0.398382
0.117281 0.549177 0.397954
0.117489 0.548585 0.397525
0.117882 0.547844 0.396987
0.116756 0.546872 0.396076
0.116641 0.545572 0.394918
0.117060 0.543920 0.393278
0.118960 0.541990 0.390741
0.124376 0.540818 0.385230
0.150545 0.546499 0.359637
0.278908 0.552020 0.281188
0.472658 0.536864 0.132690
0.601129 0.516931 0.020138
0.692947 0.496152 0.022571
0.775318 0.458196 0.017212
0.837569 0.413708 0.177231
0.874542 0.398741 0.259530
0.896660 0.415764 0.329162
0.913664 0.452579 0.399061
0.926835 0.500792 0.473518
0.937374 0.551809 0.542174
0.945910 0.603149 0.603447
0.953060 0.653577 0.657953
0.956617 0.701745 0.706208
0.959008 0.745429 0.748686
0.961049 0.783959 0.784972
0.962805 0.817426 0.816540
0.964252 0.846923 0.842794
0.965411 0.870527 0.863215
0.966307 0.889000 0.879130
0.130859 0.618143 0.443926
0.131179 0.617736 0.443619
0.131547 0.617329 0.443311
0.129715 0.616989 0.442820
0.130203 0.616582 0.442511
0.130752 0.616176 0.442201
0.131532 0.615669 0.441813
0.130617 0.615026 0.441085
0.130601 0.614157 0.440177
0.132337 0.612999 0.439028
0.131712 0.611687 0.437007
0.134438 0.610288 0.433794
0.142657 0.610132 0.426150
0.176511 0.618238 0.386419
0.360756 0.620311 0.298777
0.553721 0.602601 0.102181
0.670374 0.583638 0.025098
0.757338 0.564224 0.025849
0.836079 0.527178 0.026797
0.886154 0.481526 0.205334
0.901096 0.469229 0.311275
0.916189 0.487878 0.388066
0.928702 0.523723 0.465411
0.938674 0.566582 0.536877
0.946834 0.613372 0.599717
0.953666 0.660397 0.655501
0.956863 0.706370 0.704896
0.959154 0.748559 0.747941
0.961187 0.785975 0.784491
0.962839 0.818881 0.816355
0.964304 0.847848 0.842694
0.965433 0.871117 0.863192
0.966312 0.889383 0.879150
0.143274 0.679289 0.483663
0.141293 0.679088 0.483237
0.141841 0.678818 0.483018
0.142427 0.678549 0.482799
0.143052 0.678279 0.482579
0.143723 0.678010 0.482359
0.142194 0.677743 0.481874
0.143658 0.677274 0.481485
0.143501 0.676724 0.480759
0.144810 0.675982 0.479858
0.144213 0.675134 0.478301
0.147555 0.674072 0.476198
0.151157 0.673231 0.472088
0.162234 0.674184 0.461291
0.202562 0.684828 0.397788
0.450393 0.681616 0.301311
0.626707 0.661626 0.012447
0.734016 0.643350 0.010972
0.815016 0.624321 0.009901
0.885367 0.591159 0.117649
0.913887 0.549675 0.247445
0.922663 0.537932 0.363725
0.931197 0.556183 0.453460
0.940435 0.587762 0.529358
0.948058 0.627579 0.594520
0.954459 0.669677 0.652123
0.957165 0.712669 0.703169
0.959398 0.752700 0.746882
0.961268 0.788816 0.783991
0.962975 0.820704 0.815988
0.964387 0.849058 0.842539
0.965477 0.871882 0.863141
0.966330 0.889874 0.879157
0.152937 0.732728 0.517680
0.153627 0.732561 0.517525
0.151701 0.732462 0.517138
0.152473 0.732295 0.516982
0.153279 0.732129 0.516825
0.154119 0.731963 0.516668
0.152605 0.731824 0.516240
0.154292 0.731535 0.515962
0.154150 0.731223 0.515361
0.155287 0.730793 0.514633
0.156060 0.730282 0.513502
0.155913 0.729726 0.511664
0.159497 0.729109 0.508993
0.164259 0.728989 0.503533
0.181406 0.731315 0.488165
0.248794 0.743604 0.392040
0.532682 0.734985 0.291377
0.694515 0.713377 0.007343
0.789267 0.696865 0.004354
0.865652 0.678986 0.022959
0.908801 0.653604 0.206915
0.931732 0.613518 0.305058
0.938209 0.600538 0.424494
0.942959 0.618490 0.517686
0.949644 0.647556 0.587104
0.955300 0.682619 0.647688
0.957571 0.721247 0.700832
0.959630 0.758423 0.745594
0.961499 0.792459 0.783155
0.963067 0.823267 0.815626
0.964420 0.850774 0.842448
0.965507 0.872936 0.863118
0.966366 0.890509 0.879146
0.159581 0.779136 0.547129
0.160427 0.779032 0.547009
0.161293 0.778928 0.546890
0.162181 0.778825 0.546770
0.160304 0.778790 0.546401
0.161259 0.778688 0.546281
0.162486 0.778560 0.546129
0.161520 0.778449 0.545667
0.161312 0.778283 0.545133
0.162261 0.778043 0.544502
0.162304 0.777779 0.543489
0.165507 0.777402 0.542289
0.166593 0.777098 0.540064
0.169734 0.776949 0.536380
0.179383 0.777478 0.529195
0.200448 0.781444 0.505855
0.369146 0.790574 0.399674
0.606514 0.779184 0.269703
0.751531 0.756912 0.029526
0.837420 0.741593 0.014828
0.902565 0.726466 0.119654
0.925074 0.707866 0.280062
0.942871 0.673852 0.375508
0.949699 0.659457 0.487507
0.952140 0.675181 0.574837
0.955990 0.700911 0.642097
0.958062 0.733099 0.697721
0.959965 0.766159 0.743827
0.961727 0.797483 0.782157
0.963191 0.826709 0.815150
0.964556 0.852936 0.842189
0.965574 0.874302 0.863045
0.966390 0.891384 0.879173
0.164261 0.818498 0.572953
0.165215 0.818443 0.572861
0.166183 0.818388 0.572768
0.167166 0.818334 0.572675
0.165219 0.818346 0.572322
0.166258 0.818293 0.572228
0.167579 0.818226 0.572111
0.166568 0.818199 0.571685
0.166312 0.818144 0.571202
0.167175 0.818051 0.570644
0.169706 0.817912 0.569983
0.169187 0.817849 0.568652
0.173175 0.817723 0.567111
0.174397 0.817802 0.564187
0.181972 0.818134 0.559621
0.190823 0.819736 0.549026
0.219142 0.825515 0.514266
0.462949 0.830706 0.401487
0.671681 0.816762 0.239948
0.800157 0.794910 0.032365
0.877440 0.781366 0.023575
0.921214 0.769550 0.201942
0.937010 0.754536 0.347989
0.949938 0.727348 0.455796
0.954146 0.715387 0.557057
0.956716 0.726881 0.634284
0.958635 0.749637 0.693544
0.960391 0.776766 0.741464
0.961997 0.804377 0.780889
0.963430 0.831260 0.814412
0.964676 0.855905 0.841939
0.965650 0.876140 0.862971
0.966446 0.892513 0.879169
0.165997 0.848780 0.594550
0.167063 0.848758 0.594474
0.168138 0.848737 0.594398
0.166111 0.848781 0.594058
0.167232 0.848761 0.593981
0.168361 0.848740 0.593904
0.169785 0.848715 0.593808
0.168769 0.848745 0.593407
0.168520 0.848765 0.592960
0.169373 0.848772 0.592451
0.171810 0.848764 0.591857
0.170668 0.848869 0.590613
0.173379 0.848960 0.589198
0.176619 0.849175 0.586995
0.180375 0.849676 0.583294
0.190038 0.850752 0.576862
0.203282 0.853579 0.561751
0.236912 0.861522 0.507890
0.545821 0.861486 0.403018
0.727736 0.846118 0.217651
0.841826 0.825605 0.024425
0.908081 0.815434 0.013980
0.933485 0.807701 0.276610
0.946103 0.796532 0.421289
0.953013 0.776784 0.538344
0.956950 0.764688 0.623969
0.959218 0.772994 0.687904
0.960874 0.791483 0.738357
0.962312 0.813923 0.779300
0.963668 0.837543 0.813572
0.964807 0.859906 0.841658
0.965751 0.878591 0.862875
0.966471 0.894071 0.879250
0.165247 0.871204 0.613234
0.163139 0.871266 0.612911
0.164349 0.871265 0.612845
0.165562 0.871264 0.612779
0.163513 0.871326 0.612455
0.164769 0.871325 0.612388
0.166345 0.871324 0.612304
0.165355 0.871387 0.611927
0.165184 0.871450 0.611510
0.166173 0.871516 0.611039
0.168788 0.871585 0.610494
0.170613 0.871725 0.609586
0.172934 0.871943 0.608271
0.174884 0.872316 0.606215
0.177527 0.872934 0.603026
0.185826 0.873916 0.598182
0.195942 0.875849 0.588847
0.216774 0.879830 0.567784
0.315303 0.887675 0.501880
0.619928 0.883314 0.404846
0.779646 0.867280 0.221820
0.876883 0.849812 0.025513
0.927222 0.843435 0.163985
0.941179 0.842810 0.383835
0.949732 0.837190 0.520722
0.955854 0.818967 0.612045
0.959307 0.806593 0.681239
0.961264 0.812223 0.734531
0.962708 0.827210 0.777257
0.963909 0.846173 0.812619
0.964981 0.865242 0.841288
0.965861 0.881894 0.862799
0.966554 0.896073 0.879274
0.157703 0.886970 0.628881
0.159100 0.886983 0.628822
0.157053 0.887056 0.628519
0.158485 0.887068 0.628459
0.159912 0.887081 0.628399
0.157925 0.887155 0.628095
0.159753 0.887171 0.628019
0.158929 0.887255 0.627668
0.159019 0.887347 0.627280
0.160369 0.887451 0.626844
0.163428 0.887571 0.626341
0.162345 0.887834 0.625254
0.164884 0.888131 0.624035
0.169501 0.888539 0.622381
0.173012 0.889201 0.619693
0.178056 0.890219 0.615530
0.189337 0.891779 0.608992
0.201984 0.894663 0.595806
0.229147 0.900286 0.563179
0.437334 0.903474 0.522359
0.683857 0.897705 0.413145
0.826384 0.881595 0.250236
0.904855 0.867848 0.088283
0.936096 0.868609 0.326368
0.946169 0.873348 0.502101
0.953219 0.869673 0.604221
0.958331 0.854460 0.676055
0.961297 0.842281 0.730591
0.962969 0.846052 0.775201
0.964208 0.857867 0.811422
0.965201 0.872345 0.840804
0.966009 0.886296 0.862703
0.966641 0.898749 0.879353
0.145732 0.899702 0.645102
0.147360 0.899717 0.645044
0.145268 0.899787 0.644766
0.146926 0.899802 0.644708
0.144852 0.899872 0.644428
0.146539 0.899887 0.644370
0.148628 0.899906 0.644296
0.147910 0.899988 0.643971
0.148207 0.900080 0.643611
0.149878 0.900183 0.643203
0.149832 0.900358 0.642508
0.152407 0.900557 0.641724
0.155113 0.900842 0.640591
0.156262 0.901280 0.638829
0.161890 0.901837 0.636575
0.167429 0.902710 0.632984
0.176013 0.904051 0.627269
0.190767 0.906168 0.617516
0.211019 0.909730 0.597992
0.350594 0.911907 0.580022
0.536089 0.912709 0.546733
0.741864 0.906477 0.430966
0.866441 0.891965 0.301396
0.922598 0.881426 0.229322
0.942329 0.890574 0.465575
0.950613 0.895628 0.591778
0.956439 0.894011 0.674822
0.960453 0.882294 0.729780
0.962948 0.871757 0.773648
0.964412 0.873617 0.810290
0.965435 0.881835 0.840258
0.966153 0.892197 0.862697
0.966758 0.902270 0.879460
0.129110 0.911843 0.661228
0.131221 0.911859 0.661178
0.129173 0.911923 0.660931
0.131307 0.911939 0.660881
0.133404 0.911955 0.660830
0.131444 0.912020 0.660582
0.134088 0.912040 0.660518
0.133784 0.912117 0.660230
0.134739 0.912203 0.659911
0.133427 0.912349 0.659352
0.138358 0.912465 0.658934
0.138686 0.912700 0.658040
0.139638 0.913013 0.656833
0.143066 0.913415 0.655263
0.148054 0.913969 0.653050
0.155395 0.914739 0.649857
0.165432 0.915840 0.645026
0.203141 0.916992 0.639612
0.278552 0.917788 0.635373
0.361882 0.918804 0.628238
0.468096 0.919922 0.614424
0.616642 0.920081 0.578075
0.794069 0.912362 0.463159
0.898356 0.900535 0.370866
0.935183 0.895912 0.375156
0.947669 0.907009 0.563731
0.954598 0.912042 0.664936
0.959131 0.911305 0.730516
0.962323 0.902665 0.774882
0.964360 0.893961 0.809820
0.965562 0.894539 0.840016
0.966331 0.899930 0.862738
0.966887 0.906901 0.879662
0.244632 0.921574 0.682723
0.245507 0.921588 0.682680
0.246382 0.921602 0.682637
0.247255 0.921616 0.682594
0.248126 0.921629 0.682551
0.248996 0.921643 0.682507
0.250083 0.921661 0.682453
0.251603 0.921685 0.682376
0.253611 0.921718 0.682274
0.256261 0.921761 0.682137
0.259754 0.921819 0.681953
0.264352 0.921895 0.681705
0.270397 0.921997 0.681370
0.278330 0.922133 0.680913
0.288726 0.922315 0.680283
0.302333 0.922558 0.679404
0.320127 0.922883 0.678156
0.343392 0.923313 0.676346
0.373818 0.923872 0.673644
0.415460 0.924606 0.669346
0.474795 0.925514 0.661882
0.560826 0.926340 0.647195
0.682495 0.925877 0.609289
0.840115 0.917013 0.500267
0.921024 0.907678 0.439442
0.943576 0.910767 0.515880
0.952168 0.919020 0.639684
0.957752 0.923605 0.722510
0.961376 0.923558 0.776171
0.963886 0.917334 0.811959
0.965521 0.910451 0.840476
0.966449 0.909871 0.863111
0.967002 0.912918 0.880067
0.393086 0.927511 0.715783
0.393456 0.927521 0.715753
0.393826 0.927532 0.715724
0.394197 0.927542 0.715694
0.394568 0.927552 0.715664
0.394940 0.927563 0.715633
0.395405 0.927576 0.715596
0.396060 0.927594 0.715542
0.396929 0.927618 0.715471
0.398084 0.927651 0.715376
0.399622 0.927693 0.715249
0.401671 0.927750 0.715078
0.404406 0.927826 0.714847
0.408067 0.927927 0.714533
0.412983 0.928061 0.714103
0.419614 0.928240 0.713505
0.428610 0.928479 0.712664
0.440913 0.928797 0.711453
0.457915 0.929218 0.709661
