color-grading/luts/03_combined_slog3/BNC_SLog3_L13_Airy.cube
TITLE "BNC SLog3 L13 Airy"
# BNC Grade v1.0 - S-Log3/S-Gamut3.Cine -> BNC Base -> Bright, airy, lifted-shadow look with a soft top end and gentle overall desaturation.
# Input: S-Log3 / S-Gamut3.Cine | Output: Rec.709 Gamma 2.4
LUT_3D_SIZE 33
DOMAIN_MIN 0.0 0.0 0.0
DOMAIN_MAX 1.0 1.0 1.0
0.059876 0.069349 0.074186
0.059876 0.069349 0.074186
0.064643 0.069595 0.074431
0.104047 0.072946 0.077348
0.135926 0.076865 0.080398
0.162889 0.081460 0.084519
0.191988 0.087716 0.090292
0.226313 0.096238 0.098381
0.264576 0.106839 0.108728
0.307400 0.119675 0.121785
0.355959 0.134998 0.137277
0.410174 0.152853 0.155691
0.469277 0.173195 0.177032
0.534398 0.196936 0.202032
0.597396 0.222872 0.229589
0.658939 0.251515 0.260785
0.717476 0.282948 0.294753
0.771600 0.316832 0.332285
0.821797 0.353405 0.373216
0.848824 0.390970 0.417066
0.871096 0.432949 0.464406
0.890558 0.477935 0.514986
0.907708 0.527361 0.568599
0.923293 0.578932 0.617829
0.936766 0.625750 0.663252
0.942177 0.669448 0.703652
0.946660 0.707780 0.737868
0.950711 0.740672 0.767563
0.954341 0.769202 0.792759
0.957506 0.793473 0.814528
0.960277 0.814509 0.832630
0.962557 0.831694 0.847340
0.964445 0.845867 0.859553
0.059876 0.069349 0.074186
0.059876 0.069349 0.074186
0.059876 0.069349 0.074186
0.091995 0.071800 0.076371
0.125872 0.075735 0.079364
0.154698 0.080892 0.083043
0.184891 0.087669 0.088654
0.220601 0.096751 0.096740
0.259786 0.107778 0.107105
0.303440 0.121115 0.120169
0.352552 0.136605 0.135737
0.407405 0.154659 0.154268
0.466926 0.175047 0.175667
0.532582 0.198849 0.200825
0.596138 0.224669 0.228520
0.658019 0.253250 0.259861
0.716848 0.284513 0.293973
0.771170 0.318234 0.331614
0.821506 0.354651 0.372639
0.848750 0.392096 0.416571
0.871067 0.433933 0.464001
0.890559 0.478745 0.514633
0.907728 0.528070 0.568331
0.923317 0.579460 0.617643
0.936788 0.626125 0.663117
0.942203 0.669717 0.703562
0.946678 0.707958 0.737806
0.950725 0.740795 0.767521
0.954351 0.769285 0.792731
0.957512 0.793531 0.814509
0.960281 0.814548 0.832617
0.962560 0.831720 0.847331
0.964447 0.845884 0.859547
0.059876 0.069349 0.074186
0.059876 0.069349 0.074186
0.059876 0.069349 0.074186
0.078912 0.070684 0.075372
0.115540 0.075077 0.078437
0.146136 0.081180 0.081809
0.177674 0.088630 0.087231
0.214836 0.098327 0.095287
0.255021 0.109732 0.105640
0.299504 0.123327 0.118646
0.349173 0.138854 0.134278
0.404647 0.156915 0.152889
0.464588 0.177266 0.174339
0.530766 0.200999 0.199635
0.594885 0.226636 0.227466
0.657101 0.255095 0.258944
0.716221 0.286145 0.293197
0.770741 0.319681 0.330947
0.821217 0.355926 0.372064
0.848677 0.393243 0.416077
0.871039 0.434929 0.463595
0.890559 0.479563 0.514280
0.907747 0.528784 0.568063
0.923342 0.579990 0.617456
0.936810 0.626501 0.662982
0.942229 0.669985 0.703472
0.946697 0.708137 0.737744
0.950738 0.740919 0.767479
0.954360 0.769369 0.792702
0.957519 0.793588 0.814489
0.960286 0.814587 0.832604
0.962563 0.831745 0.847322
0.964449 0.845902 0.859541
0.061395 0.102372 0.080038
0.060844 0.097859 0.079032
0.060369 0.093105 0.078041
0.066983 0.088529 0.077521
0.106595 0.087093 0.079125
0.137880 0.087625 0.081673
0.170746 0.093538 0.086433
0.209189 0.102482 0.094210
0.250398 0.113657 0.104413
0.295645 0.126732 0.117272
0.345850 0.142010 0.132931
0.401913 0.159751 0.151568
0.462271 0.179930 0.173056
0.528954 0.203418 0.198464
0.593637 0.228794 0.226426
0.656187 0.257056 0.258034
0.715595 0.287846 0.292426
0.770314 0.321178 0.330282
0.820927 0.357232 0.371491
0.848605 0.394411 0.415584
0.871011 0.435938 0.463189
0.890561 0.480389 0.513928
0.907767 0.529502 0.567795
0.923366 0.580522 0.617270
0.936832 0.626879 0.662846
0.942255 0.670255 0.703382
0.946715 0.708316 0.737682
0.950751 0.741042 0.767437
0.954369 0.769453 0.792673
0.957526 0.793646 0.814470
0.960290 0.814626 0.832591
0.962566 0.831771 0.847314
0.964451 0.845920 0.859535
0.067398 0.134586 0.088189
0.066826 0.130840 0.087181
0.066445 0.127087 0.086195
0.067962 0.123325 0.085334
0.099489 0.121414 0.086494
0.132020 0.120382 0.085256
0.166081 0.118260 0.088339
0.204480 0.115994 0.094313
0.246213 0.121633 0.103703
0.291975 0.132432 0.116174
0.342634 0.146490 0.131745
0.399223 0.163354 0.150325
0.459984 0.183133 0.171828
0.527148 0.206142 0.197317
0.592397 0.231163 0.225404
0.655276 0.259144 0.257133
0.714970 0.289621 0.291660
0.769889 0.322724 0.329621
0.820639 0.358569 0.370921
0.848534 0.395601 0.415092
0.870983 0.436959 0.462784
0.890563 0.481224 0.513575
0.907788 0.530224 0.567526
0.923390 0.581056 0.617083
0.936855 0.627257 0.662711
0.942281 0.670525 0.703292
0.946734 0.708495 0.737621
0.950765 0.741166 0.767395
0.954379 0.769536 0.792645
0.957532 0.793703 0.814450
0.960295 0.814665 0.832579
0.962569 0.831797 0.847305
0.964453 0.845937 0.859529
0.074441 0.162375 0.096072
0.073835 0.159123 0.095119
0.073674 0.155814 0.094184
0.075287 0.152494 0.093351
0.092376 0.149786 0.093607
0.125568 0.148924 0.093501
0.161298 0.147461 0.091530
0.201470 0.144564 0.096762
0.243310 0.140740 0.104471
0.288729 0.142518 0.115617
0.339605 0.152963 0.130799
0.396609 0.168155 0.149199
0.457739 0.186991 0.170668
0.525353 0.209218 0.196198
0.591167 0.233767 0.224402
0.654369 0.261369 0.256242
0.714347 0.291477 0.290899
0.769466 0.324324 0.328963
0.820351 0.359940 0.370352
0.848464 0.396812 0.414600
0.870957 0.437992 0.462379
0.890566 0.482070 0.513223
0.907808 0.530952 0.567258
0.923415 0.581591 0.616896
0.936877 0.627636 0.662575
0.942308 0.670795 0.703202
0.946753 0.708675 0.737559
0.950778 0.741290 0.767353
0.954388 0.769620 0.792616
0.957539 0.793761 0.814431
0.960299 0.814704 0.832566
0.962572 0.831823 0.847296
0.964455 0.845955 0.859523
0.083773 0.191667 0.105665
0.083542 0.188925 0.104734
0.083733 0.186160 0.103820
0.085204 0.183398 0.102977
0.091309 0.180771 0.102428
0.119252 0.179304 0.103232
0.154432 0.178633 0.101284
0.196456 0.176594 0.100047
0.240243 0.172949 0.107000
0.286032 0.167731 0.116619
0.336324 0.166266 0.130205
0.393516 0.176596 0.148038
0.455014 0.192970 0.169340
0.523132 0.213639 0.194847
0.589646 0.237399 0.223181
0.653243 0.264360 0.255141
0.713570 0.293927 0.289957
0.768939 0.326403 0.328145
0.819993 0.361702 0.369645
0.848378 0.398360 0.413987
0.870925 0.439304 0.461873
0.890570 0.483141 0.512783
0.907835 0.531868 0.566921
0.923446 0.582263 0.616663
0.936906 0.628113 0.662406
0.942341 0.671134 0.703089
0.946776 0.708899 0.737481
0.950795 0.741446 0.767301
0.954400 0.769725 0.792581
0.957547 0.793833 0.814406
0.960305 0.814753 0.832550
0.962576 0.831855 0.847285
0.964458 0.845977 0.859516
0.097130 0.226448 0.117955
0.097090 0.224187 0.117117
0.097481 0.221908 0.116298
0.098640 0.219622 0.115517
0.101870 0.217372 0.114853
0.112069 0.215350 0.114611
0.146348 0.214106 0.115248
0.188182 0.213181 0.111336
0.234695 0.210511 0.110514
0.282435 0.206103 0.119259
0.333257 0.199949 0.131325
0.389761 0.195338 0.147174
0.451430 0.204212 0.167791
0.520093 0.221332 0.193081
0.587556 0.243305 0.221539
0.651682 0.268990 0.253629
0.712486 0.297622 0.288653
0.768207 0.329474 0.327008
0.819492 0.364266 0.368658
0.848260 0.400593 0.413129
0.870882 0.441178 0.461163
0.890578 0.484670 0.512165
0.907874 0.533165 0.566449
0.923490 0.583210 0.616335
0.936946 0.628784 0.662168
0.942387 0.671611 0.702930
0.946809 0.709216 0.737372
0.950819 0.741664 0.767227
0.954416 0.769873 0.792530
0.957558 0.793934 0.814372
0.960313 0.814822 0.832527
0.962581 0.831900 0.847270
0.964461 0.846008 0.859505
0.113313 0.264122 0.132018
0.113406 0.262279 0.131291
0.113840 0.260429 0.130579
0.114860 0.258579 0.129897
0.116891 0.256742 0.129268
0.121276 0.254963 0.128771
0.136234 0.253073 0.128686
0.179549 0.251949 0.128820
0.225798 0.250901 0.122823
0.276148 0.247739 0.122565
0.328811 0.242674 0.133511
0.386246 0.235517 0.148104
0.447452 0.227763 0.166708
0.516305 0.235394 0.191090
0.584898 0.252931 0.219530
0.649658 0.276022 0.251696
0.711066 0.303040 0.286964
0.767250 0.333848 0.325522
0.818833 0.367844 0.367363
0.848109 0.403666 0.411998
0.870830 0.443725 0.460223
0.890592 0.486743 0.511348
0.907927 0.534906 0.565822
0.923550 0.584473 0.615899
0.937000 0.629679 0.661852
0.942449 0.672246 0.702720
0.946852 0.709636 0.737228
0.950850 0.741954 0.767129
0.954438 0.770068 0.792464
0.957574 0.794068 0.814327
0.960323 0.814913 0.832498
0.962588 0.831960 0.847249
0.964466 0.846049 0.859491
0.132175 0.305397 0.148013
0.132401 0.303873 0.147383
0.132872 0.302345 0.146766
0.133690 0.300816 0.146167
0.135146 0.299294 0.145599
0.137681 0.297792 0.145085
0.143501 0.295980 0.144581
0.166494 0.293980 0.144614
0.215545 0.292876 0.143753
0.266164 0.291488 0.135635
0.321612 0.287707 0.136197
0.380937 0.281974 0.149786
0.443711 0.273897 0.167345
0.512062 0.264144 0.189498
0.581652 0.269880 0.217278
0.647087 0.287282 0.249298
0.709226 0.311297 0.284808
0.766010 0.340240 0.323594
0.817970 0.372923 0.365667
0.847919 0.407952 0.410510
0.870767 0.447217 0.458980
0.890617 0.489576 0.510267
0.908001 0.537253 0.564990
0.923630 0.586160 0.615322
0.937072 0.630874 0.661432
0.942531 0.673090 0.702441
0.946910 0.710195 0.737036
0.950892 0.742339 0.767000
0.954467 0.770328 0.792376
0.957594 0.794246 0.814266
0.960337 0.815033 0.832458
0.962597 0.832040 0.847222
0.964472 0.846104 0.859473
0.153951 0.351128 0.166408
0.154226 0.349836 0.165840
0.154711 0.348544 0.165282
0.155470 0.347253 0.164736
0.156591 0.345967 0.164207
0.158204 0.344688 0.163703
0.161266 0.343112 0.163125
0.169703 0.341014 0.162521
0.201478 0.339030 0.162585
0.255083 0.337850 0.160412
0.310507 0.336091 0.150146
0.372452 0.331696 0.152039
0.438003 0.325117 0.168440
0.507762 0.315913 0.189470
0.578212 0.303640 0.215480
0.643995 0.307139 0.246558
0.706898 0.324607 0.282146
0.764432 0.349937 0.321127
0.816850 0.380348 0.363459
0.847688 0.414034 0.408558
0.870698 0.452060 0.457338
0.890662 0.493486 0.508839
0.908105 0.540432 0.563884
0.923739 0.588421 0.614554
0.937170 0.632475 0.660875
0.942641 0.674217 0.702069
0.946987 0.710940 0.736782
0.950947 0.742851 0.766828
0.954506 0.770673 0.792259
0.957621 0.794482 0.814187
0.960356 0.815193 0.832406
0.962609 0.832145 0.847186
0.964481 0.846176 0.859448
0.179157 0.402759 0.187514
0.179499 0.401677 0.187019
0.179971 0.400594 0.186531
0.180600 0.399510 0.186049
0.181421 0.398427 0.185577
0.182525 0.397347 0.185118
0.184471 0.396004 0.184571
0.188771 0.394153 0.183880
0.199882 0.391846 0.183221
0.239828 0.389807 0.183184
0.298134 0.388411 0.179689
0.359674 0.386147 0.167179
0.429050 0.380915 0.170193
0.501132 0.373175 0.189951
0.574773 0.362252 0.215208
0.640853 0.346842 0.244282
0.704152 0.347935 0.279109
0.762500 0.365468 0.318061
0.815422 0.391710 0.360622
0.847424 0.422874 0.406011
0.870634 0.458881 0.455171
0.890744 0.498950 0.506953
0.908256 0.544768 0.562414
0.923889 0.591459 0.613535
0.937303 0.634627 0.660134
0.942789 0.675722 0.701575
0.947091 0.711933 0.736444
0.951022 0.743533 0.766599
0.954557 0.771132 0.792103
0.957657 0.794796 0.814081
0.960381 0.815406 0.832336
0.962626 0.832285 0.847138
0.964492 0.846272 0.859416
0.206889 0.458985 0.211388
0.207244 0.458102 0.210957
0.207699 0.457220 0.210531
0.208271 0.456340 0.210110
0.208983 0.455462 0.209696
0.209861 0.454587 0.209289
0.211248 0.453498 0.208795
0.213897 0.451988 0.208135
0.219402 0.450034 0.207354
0.234131 0.447648 0.206647
0.281855 0.445697 0.206373
0.345561 0.444281 0.201508
0.414970 0.441807 0.186579
0.490557 0.435902 0.191355
0.568485 0.427051 0.215274
0.637675 0.413690 0.243620
0.701758 0.394454 0.276572
0.760382 0.392787 0.314533
0.813663 0.410027 0.357066
0.847169 0.436148 0.402716
0.870604 0.468695 0.452319
0.890894 0.506715 0.504468
0.908478 0.550737 0.560458
0.924096 0.595558 0.612179
0.937486 0.637532 0.659149
0.942987 0.677740 0.700917
0.947229 0.713262 0.735994
0.951121 0.744442 0.766295
0.954626 0.771742 0.791897
0.957705 0.795214 0.813940
0.960413 0.815688 0.832244
0.962647 0.832472 0.847074
0.964507 0.846399 0.859373
0.237675 0.521637 0.238690
0.238047 0.520904 0.238312
0.238484 0.520169 0.237936
0.238995 0.519435 0.237564
0.239590 0.518700 0.237196
0.240279 0.517966 0.236832
0.241295 0.517047 0.236383
0.243103 0.515762 0.235771
0.246521 0.514072 0.235005
0.253704 0.511885 0.234110
0.271660 0.509214 0.233277
0.326894 0.507017 0.232642
0.397803 0.505236 0.226202
0.474315 0.502059 0.208791
0.558029 0.495107 0.215428
0.632847 0.484553 0.242920
0.700174 0.469398 0.275348
0.758868 0.446884 0.311441
0.811650 0.441698 0.352863
0.847054 0.457001 0.398527
0.870681 0.483239 0.448583
0.891177 0.517990 0.501204
0.908814 0.559046 0.557853
0.924386 0.601115 0.610373
0.937739 0.641477 0.657835
0.943255 0.680454 0.700040
0.947415 0.715044 0.735396
0.951253 0.745657 0.765891
0.954717 0.772556 0.791623
0.957768 0.795771 0.813753
0.960457 0.816063 0.832122
0.962676 0.832719 0.846990
0.964527 0.846569 0.859316
0.271662 0.586017 0.268309
0.272039 0.585489 0.268004
0.272467 0.584960 0.267700
0.272952 0.584430 0.267398
0.273498 0.583900 0.267098
0.274112 0.583370 0.266801
0.274986 0.582705 0.266433
0.276441 0.581774 0.265926
0.278860 0.580542 0.265274
0.283186 0.578921 0.264456
0.291815 0.576823 0.263489
0.313802 0.574319 0.262598
0.376895 0.572488 0.261502
0.456631 0.571116 0.253131
0.541733 0.567925 0.232963
0.624826 0.560126 0.242278
0.696322 0.547766 0.273454
0.757619 0.529039 0.309123
0.809803 0.501341 0.348578
0.847489 0.491997 0.393398
0.871116 0.506614 0.443772
0.891725 0.534796 0.496938
0.909336 0.570770 0.554376
0.924801 0.608739 0.607963
0.938096 0.646880 0.656082
0.943620 0.684121 0.698866
0.947667 0.717444 0.734599
0.951431 0.747286 0.765352
0.954839 0.773643 0.791258
0.957853 0.796513 0.813505
0.960515 0.816563 0.831959
0.962714 0.833048 0.846878
0.964553 0.846793 0.859240
0.306017 0.645298 0.297809
0.306441 0.644931 0.297572
0.306897 0.644563 0.297335
0.307388 0.644195 0.297100
0.307916 0.643827 0.296867
0.308483 0.643459 0.296634
0.309254 0.642998 0.296346
0.310458 0.642352 0.295947
0.312305 0.641496 0.295428
0.315278 0.640366 0.294760
0.320579 0.638884 0.293929
0.331356 0.636986 0.292968
0.357337 0.634762 0.292047
0.430028 0.633379 0.290241
0.518557 0.632428 0.279099
0.609424 0.629173 0.256582
0.687591 0.621114 0.269190
0.753659 0.608733 0.304655
0.808462 0.589573 0.344137
0.850142 0.559639 0.387882
0.872557 0.546755 0.437745
0.892813 0.560580 0.491409
0.910176 0.587552 0.549726
0.925432 0.619547 0.604749
0.938607 0.654354 0.653735
0.944119 0.689106 0.697292
0.948010 0.720693 0.733534
0.951671 0.749476 0.764634
0.955003 0.775098 0.790772
0.957967 0.797505 0.813174
0.960592 0.817228 0.831743
0.962765 0.833486 0.846729
0.964588 0.847092 0.859139
0.340689 0.699764 0.327214
0.341102 0.699516 0.327025
0.341536 0.699268 0.326836
0.341989 0.699019 0.326648
0.342464 0.698770 0.326460
0.342965 0.698522 0.326273
0.343631 0.698210 0.326041
0.344648 0.697773 0.325718
0.346158 0.697195 0.325296
0.348486 0.696429 0.324748
0.352268 0.695418 0.324044
0.358867 0.694094 0.323165
0.371643 0.692399 0.322122
0.402112 0.690446 0.321021
0.485720 0.689503 0.317873
0.583831 0.688848 0.302758
0.671051 0.684922 0.279770
0.745017 0.676392 0.296659
0.804018 0.663410 0.336349
0.853334 0.644189 0.380828
0.876390 0.614904 0.430322
0.895002 0.600822 0.484302
0.911554 0.611800 0.543478
0.926429 0.635235 0.600447
0.939356 0.664833 0.650583
0.944812 0.695930 0.695172
0.948480 0.725124 0.732108
0.951996 0.752437 0.763673
0.955223 0.777053 0.790124
0.958119 0.798834 0.812733
0.960695 0.818117 0.831454
0.962833 0.834070 0.846531
0.964634 0.847490 0.859006
0.373777 0.747041 0.356164
0.374196 0.746884 0.356018
0.374631 0.746727 0.355872
0.375081 0.746570 0.355727
0.375547 0.746413 0.355582
0.376030 0.746256 0.355438
0.376659 0.746059 0.355258
0.377589 0.745783 0.355007
0.378915 0.745418 0.354677
0.380852 0.744934 0.354246
0.383779 0.744295 0.353685
0.388411 0.743454 0.352963
0.396260 0.742357 0.352053
0.411431 0.740973 0.350963
0.447366 0.739485 0.349691
0.542507 0.739328 0.344720
0.645059 0.739013 0.326122
0.728385 0.734860 0.303498
0.794598 0.726319 0.324764
0.847818 0.713402 0.369755
0.881780 0.693989 0.420108
0.899505 0.664594 0.475191
0.914099 0.649381 0.535095
0.928078 0.658633 0.594571
0.940485 0.679767 0.646324
0.945782 0.705355 0.692298
0.949133 0.731222 0.730190
0.952441 0.756465 0.762383
0.955521 0.779691 0.789256
0.958325 0.800623 0.812145
0.960833 0.819306 0.831069
0.962924 0.834850 0.846268
0.964696 0.848020 0.858828
0.405154 0.787276 0.385027
0.405557 0.787176 0.384908
0.405969 0.787077 0.384790
0.406391 0.786977 0.384672
0.406822 0.786877 0.384554
0.407263 0.786777 0.384437
0.407830 0.786652 0.384291
0.408654 0.786477 0.384086
0.409798 0.786245 0.383817
0.411416 0.785938 0.383462
0.413754 0.785532 0.382999
0.417272 0.784996 0.382396
0.422837 0.784294 0.381621
0.432311 0.783387 0.380647
0.450398 0.782269 0.379456
0.493276 0.781214 0.377870
0.600863 0.781805 0.370130
0.700253 0.781192 0.349188
0.777089 0.776611 0.327883
0.836832 0.768126 0.354061
0.884548 0.755727 0.405478
0.905298 0.737370 0.462589
0.919097 0.709968 0.523782
0.930924 0.694432 0.586396
0.942236 0.701409 0.640520
0.947167 0.718537 0.688368
0.950054 0.739722 0.727595
0.953056 0.761993 0.760644
0.955927 0.783273 0.788092
0.958603 0.803041 0.811356
0.961018 0.820903 0.830554
0.963046 0.835897 0.845916
0.964779 0.848728 0.858590
0.434888 0.821310 0.414877
0.435261 0.821248 0.414779
0.435641 0.821186 0.414682
0.436028 0.821124 0.414585
0.436421 0.821062 0.414488
0.436821 0.821000 0.414392
0.437331 0.820923 0.414271
0.438066 0.820814 0.414102
0.439075 0.820671 0.413880
0.440480 0.820481 0.413587
0.442466 0.820230 0.413202
0.445342 0.819900 0.412699
0.449645 0.819466 0.412044
0.456394 0.818903 0.411202
0.467755 0.818189 0.410134
0.489503 0.817365 0.408800
0.539538 0.816820 0.406702
0.654887 0.818125 0.395889
0.749536 0.817255 0.373755
0.818746 0.812447 0.354005
0.872460 0.804110 0.385660
0.908682 0.791943 0.444814
0.924701 0.774267 0.507981
0.935788 0.748443 0.574661
0.945015 0.733167 0.632468
0.949239 0.737734 0.682939
0.951380 0.751770 0.724055
0.953917 0.769666 0.758281
0.956490 0.788208 0.786522
0.958982 0.806331 0.810295
0.961269 0.823055 0.829861
0.963211 0.837304 0.845446
0.964890 0.849677 0.858273
0.463925 0.850106 0.446803
0.464274 0.850067 0.446719
0.464626 0.850028 0.446636
0.464983 0.849989 0.446554
0.465345 0.849951 0.446471
0.465711 0.849912 0.446388
0.466175 0.849864 0.446285
0.466839 0.849796 0.446141
0.467741 0.849706 0.445950
0.468979 0.849588 0.445698
0.470696 0.849431 0.445367
0.473117 0.849226 0.444933
0.476607 0.848957 0.444364
0.481802 0.848607 0.443624
0.489958 0.848163 0.442672
0.503844 0.847629 0.441463
0.529834 0.847090 0.439888
0.587454 0.847091 0.436961
0.703696 0.848776 0.423233
0.791075 0.847499 0.401164
0.853896 0.842536 0.382605
0.902652 0.834393 0.420785
0.928028 0.822623 0.486875
0.941067 0.805979 0.557658
0.949694 0.781801 0.620983
0.952461 0.766557 0.675278
0.953337 0.769205 0.719156
0.955143 0.780472 0.755039
0.957280 0.795099 0.784391
0.959505 0.810848 0.808860
0.961609 0.825974 0.828927
0.963433 0.839208 0.844815
0.965039 0.850952 0.857849
0.493223 0.874561 0.481949
0.493544 0.874538 0.481881
0.493868 0.874515 0.481812
0.494195 0.874492 0.481744
0.494526 0.874469 0.481675
0.494860 0.874446 0.481607
0.495282 0.874417 0.481522
0.495884 0.874376 0.481403
0.496698 0.874323 0.481245
0.497806 0.874253 0.481037
0.499328 0.874161 0.480762
0.501445 0.874040 0.480401
0.504437 0.873883 0.479927
0.508759 0.873680 0.479307
0.515195 0.873423 0.478500
0.525184 0.873110 0.477455
0.541615 0.872767 0.476093
0.571292 0.872527 0.474204
0.636409 0.873156 0.470150
0.747642 0.874955 0.454154
0.826839 0.873323 0.432721
0.883652 0.868317 0.414780
0.927795 0.860366 0.459774
0.944105 0.848833 0.533941
0.954579 0.832845 0.604534
0.957519 0.810009 0.664003
0.956307 0.795004 0.712197
0.956928 0.795993 0.750513
0.958412 0.804886 0.781467
0.960234 0.817115 0.806902
0.962074 0.829957 0.827657
0.963736 0.841799 0.843963
0.965240 0.852675 0.857278
0.522876 0.892426 0.519128
0.523184 0.892419 0.519074
0.523494 0.892413 0.519020
0.523806 0.892406 0.518966
0.524120 0.892399 0.518912
0.524435 0.892393 0.518858
0.524834 0.892384 0.518790
0.525397 0.892373 0.518696
0.526154 0.892358 0.518571
0.527175 0.892339 0.518406
0.528559 0.892314 0.518189
0.530451 0.892283 0.517902
0.533063 0.892245 0.517526
0.536722 0.892199 0.517033
0.541943 0.892150 0.516390
0.549591 0.892107 0.515553
0.561201 0.892099 0.514466
0.580296 0.892225 0.513047
0.615548 0.892821 0.510980
0.680734 0.894691 0.506009
0.784868 0.896449 0.488911
0.856929 0.894588 0.468520
0.908710 0.889659 0.451160
0.944912 0.881952 0.501959
0.957421 0.870934 0.581759
0.962964 0.855719 0.647560
0.960928 0.834064 0.701845
0.959656 0.819295 0.744020
0.960070 0.819073 0.777380
0.961264 0.825930 0.804197
0.962716 0.835440 0.825913
0.964153 0.845358 0.842808
0.965514 0.855015 0.856508
0.554065 0.905091 0.560575
0.554339 0.905088 0.560531
0.554615 0.905085 0.560487
0.554891 0.905082 0.560443
0.555169 0.905079 0.560399
0.555448 0.905076 0.560355
0.555798 0.905072 0.560300
0.556293 0.905067 0.560222
0.556955 0.905060 0.560120
0.557841 0.905052 0.559985
0.559033 0.905041 0.559806
0.560646 0.905028 0.559570
0.562840 0.905013 0.559258
0.565853 0.904995 0.558846
0.570054 0.904979 0.558305
0.576142 0.904973 0.557598
0.585229 0.905000 0.556677
0.599235 0.905111 0.555469
0.621580 0.905432 0.553805
0.657858 0.906269 0.551106
0.720716 0.908486 0.544821
0.816626 0.912464 0.527447
0.882446 0.911876 0.508031
0.928782 0.906884 0.490739
0.958142 0.899312 0.548847
0.966835 0.888741 0.624897
0.965729 0.874338 0.686545
0.963828 0.854340 0.734166
0.962545 0.840022 0.771431
0.962744 0.838516 0.800377
0.963618 0.843128 0.823483
0.964733 0.850304 0.841225
0.965890 0.858223 0.855458
0.588120 0.915691 0.602695
0.588371 0.915690 0.602667
0.588623 0.915690 0.602639
0.588876 0.915689 0.602611
0.589130 0.915689 0.602584
0.589385 0.915688 0.602556
0.589705 0.915688 0.602521
0.590156 0.915687 0.602473
0.590758 0.915686 0.602409
0.591564 0.915686 0.602324
0.592644 0.915685 0.602211
0.594098 0.915685 0.602063
0.596066 0.915686 0.601866
0.598748 0.915691 0.601607
0.602434 0.915702 0.601266
0.607554 0.915725 0.600815
0.614766 0.915775 0.600217
0.625089 0.915877 0.599417
0.640113 0.916087 0.598312
0.662145 0.916520 0.596668
0.696786 0.917500 0.593841
0.756198 0.919886 0.587128
0.843217 0.923659 0.570219
0.903508 0.924998 0.552517
0.945457 0.921188 0.535754
0.968830 0.913780 0.593716
0.969099 0.903459 0.665148
0.968013 0.889649 0.719617
0.966194 0.870686 0.762187
0.964909 0.856822 0.794777
0.964930 0.854266 0.820020
0.965554 0.857287 0.839020
0.966411 0.862667 0.854013
0.625443 0.921444 0.641001
0.625654 0.921448 0.640984
0.625866 0.921451 0.640966
0.626078 0.921454 0.640949
0.626291 0.921458 0.640931
0.626503 0.921461 0.640914
0.626770 0.921465 0.640892
0.627145 0.921471 0.640861
0.627644 0.921480 0.640820
0.628308 0.921490 0.640767
0.629193 0.921505 0.640695
0.630374 0.921525 0.640601
0.631954 0.921552 0.640476
0.634075 0.921590 0.640310
0.636931 0.921643 0.640090
0.640797 0.921717 0.639797
0.646056 0.921825 0.639406
0.653250 0.921985 0.638877
0.663136 0.922229 0.638149
0.677403 0.922630 0.637129
0.698939 0.923349 0.635591
0.732483 0.924732 0.632799
0.786267 0.927466 0.626144
0.865853 0.931488 0.610395
0.920229 0.933349 0.595037
0.958925 0.932683 0.580732
0.971469 0.925288 0.634913
0.970949 0.915356 0.699954
0.969905 0.902245 0.748504
0.968173 0.884354 0.786035
0.966885 0.870809 0.814876
0.966738 0.867341 0.835869
0.967144 0.868909 0.851989
0.661101 0.922651 0.676667
0.661253 0.922654 0.676656
0.661404 0.922656 0.676644
0.661556 0.922658 0.676633
0.661708 0.922661 0.676621
0.661860 0.922663 0.676610
0.662051 0.922666 0.676596
0.662319 0.922671 0.676575
0.662675 0.922677 0.676549
0.663148 0.922685 0.676514
0.663778 0.922695 0.676467
0.664618 0.922709 0.676405
0.665741 0.922729 0.676324
0.667244 0.922756 0.676215
0.669266 0.922793 0.676071
0.671995 0.922845 0.675881
0.675705 0.922919 0.675627
0.680785 0.923029 0.675287
0.687818 0.923195 0.674827
0.697683 0.923455 0.674190
