color-grading/luts/03_combined_slog3/BNC_SLog3_L03_GoldenHour.cube
TITLE "BNC SLog3 L03 GoldenHour"
# BNC Grade v1.0 - S-Log3/S-Gamut3.Cine -> BNC Base -> Warm, golden-hour glow with an amber split-tone and a soft top end.
# Input: S-Log3 / S-Gamut3.Cine | Output: Rec.709 Gamma 2.4
LUT_3D_SIZE 33
DOMAIN_MIN 0.0 0.0 0.0
DOMAIN_MAX 1.0 1.0 1.0
0.011767 0.011709 0.011689
0.011767 0.011709 0.011689
0.012564 0.011693 0.011673
0.028746 0.009822 0.010410
0.060547 0.007548 0.000000
0.092292 0.018688 0.000000
0.126933 0.026035 0.000000
0.168334 0.030829 0.000000
0.213951 0.035781 0.003704
0.265016 0.038744 0.005152
0.322776 0.038428 0.004857
0.387121 0.027415 0.009422
0.456524 0.012653 0.043389
0.532799 0.015446 0.069747
0.607797 0.019560 0.096141
0.682675 0.039208 0.125026
0.748160 0.115306 0.168677
0.809843 0.165149 0.213587
0.866538 0.212664 0.259272
0.892962 0.266318 0.311451
0.911958 0.323732 0.366971
0.926586 0.383272 0.425811
0.938326 0.447963 0.487854
0.948192 0.515006 0.543639
0.955869 0.575657 0.595045
0.961082 0.634146 0.641895
0.963230 0.687694 0.683959
0.964801 0.732893 0.720787
0.966079 0.772099 0.752839
0.967061 0.805657 0.781475
0.967807 0.834942 0.806275
0.968385 0.858780 0.826800
0.968778 0.877846 0.843814
0.011767 0.011709 0.011689
0.011767 0.011709 0.011689
0.011767 0.011709 0.011689
0.021370 0.011282 0.011333
0.048873 0.000000 0.005348
0.082591 0.016126 0.000000
0.118460 0.024428 0.000000
0.161350 0.030512 0.001312
0.208256 0.035169 0.003381
0.260252 0.038866 0.005703
0.318509 0.040389 0.000000
0.383699 0.033680 0.006772
0.454140 0.011406 0.037285
0.531320 0.012532 0.065108
0.607239 0.012129 0.091826
0.681672 0.053034 0.123333
0.747490 0.119372 0.167421
0.809343 0.168116 0.212635
0.866256 0.214946 0.258442
0.892939 0.268105 0.310707
0.912019 0.325138 0.366327
0.926661 0.384387 0.425252
0.938403 0.448917 0.487412
0.948250 0.515708 0.543317
0.955909 0.576152 0.594808
0.961109 0.634496 0.641735
0.963166 0.688045 0.683971
0.964814 0.733049 0.720719
0.966088 0.772204 0.752796
0.967061 0.805737 0.781458
0.967813 0.834987 0.806254
0.968390 0.858809 0.826786
0.968782 0.877864 0.843805
0.011767 0.011709 0.011689
0.011767 0.011709 0.011689
0.011767 0.011709 0.011689
0.016072 0.011615 0.011586
0.038471 0.005157 0.006567
0.072483 0.013032 0.000000
0.109812 0.022824 0.000000
0.154179 0.030405 0.001140
0.202555 0.034668 0.000000
0.255497 0.039122 0.006040
0.314500 0.041331 0.000000
0.380285 0.039140 0.005360
0.451742 0.014938 0.028525
0.529827 0.011438 0.059871
0.606685 0.011966 0.087223
0.680674 0.063474 0.121614
0.746823 0.123444 0.166154
0.808844 0.171126 0.211681
0.865974 0.217262 0.257612
0.892917 0.269918 0.309960
0.912081 0.326559 0.365680
0.926737 0.385510 0.424691
0.938481 0.449876 0.486968
0.948309 0.516412 0.542995
0.955949 0.576649 0.594571
0.961043 0.634996 0.641698
0.963185 0.688274 0.683866
0.964827 0.733205 0.720652
0.966096 0.772309 0.752752
0.967068 0.805807 0.781428
0.967819 0.835033 0.806234
0.968395 0.858837 0.826772
0.968785 0.877882 0.843796
0.012956 0.021255 0.010036
0.012452 0.019227 0.010765
0.012139 0.017384 0.011159
0.013089 0.015810 0.011357
0.030752 0.013367 0.008946
0.062707 0.011448 0.000000
0.101449 0.021571 0.000000
0.147348 0.029774 0.000000
0.196910 0.034709 0.000623
0.250896 0.039331 0.000000
0.310195 0.044550 0.007313
0.376897 0.044576 0.006058
0.449087 0.031343 0.011441
0.528528 0.013529 0.052957
0.606121 0.013747 0.082228
0.679682 0.072397 0.119865
0.746161 0.127532 0.164875
0.808350 0.174176 0.210722
0.865693 0.219613 0.256780
0.892896 0.271757 0.309211
0.912145 0.327995 0.365030
0.926814 0.386644 0.424128
0.938559 0.450841 0.486522
0.948367 0.517118 0.542672
0.955988 0.577147 0.594333
0.961071 0.635347 0.641537
0.963203 0.688502 0.683762
0.964840 0.733361 0.720584
0.966105 0.772414 0.752709
0.967075 0.805877 0.781399
0.967825 0.835078 0.806214
0.968400 0.858865 0.826758
0.968788 0.877900 0.843787
0.028217 0.044702 0.000000
0.025435 0.041150 0.000000
0.022851 0.037800 0.000000
0.020614 0.034624 0.002259
0.026638 0.032035 0.003196
0.055525 0.028939 0.000000
0.095605 0.028157 0.000000
0.141331 0.031788 0.000000
0.191488 0.036688 0.002632
0.246381 0.041096 0.005186
0.306453 0.046601 0.005373
0.373285 0.051893 0.009631
0.446415 0.045665 0.006368
0.527412 0.011993 0.042838
0.605548 0.018982 0.076708
0.678699 0.080473 0.118081
0.745504 0.131647 0.163584
0.807859 0.177271 0.209758
0.865412 0.222001 0.255947
0.892877 0.273622 0.308459
0.912210 0.329446 0.364377
0.926892 0.387791 0.423563
0.938637 0.451812 0.486074
0.948426 0.517825 0.542348
0.956028 0.577646 0.594094
0.961098 0.635699 0.641376
0.963222 0.688731 0.683657
0.964852 0.733518 0.720516
0.966114 0.772519 0.752665
0.967082 0.805946 0.781369
0.967831 0.835124 0.806194
0.968367 0.858939 0.826820
0.968792 0.877918 0.843778
0.050855 0.074804 0.000000
0.048360 0.071141 0.000000
0.045734 0.067420 0.000000
0.043005 0.063670 0.000000
0.041128 0.060200 0.000000
0.053328 0.057219 0.000000
0.091491 0.053537 0.000000
0.138094 0.049828 0.000000
0.187885 0.046203 0.000000
0.242069 0.047433 0.000000
0.302590 0.052491 0.006086
0.370203 0.058291 0.007040
0.443310 0.059169 0.007001
0.526483 0.011582 0.020344
0.605436 0.018268 0.068894
0.677726 0.088037 0.116258
0.744852 0.135804 0.162279
0.807374 0.180412 0.208789
0.865131 0.224428 0.255111
0.892859 0.275515 0.307704
0.912276 0.330914 0.363721
0.926970 0.388950 0.422996
0.938716 0.452788 0.485625
0.948485 0.518535 0.542024
0.956068 0.578147 0.593855
0.961125 0.636052 0.641215
0.963241 0.688960 0.683552
0.964865 0.733674 0.720448
0.966122 0.772624 0.752621
0.967040 0.806082 0.781426
0.967838 0.835169 0.806173
0.968372 0.858968 0.826806
0.968795 0.877936 0.843769
0.066854 0.108864 0.003331
0.065687 0.105618 0.000000
0.064421 0.102357 0.002073
0.063281 0.099030 0.002169
0.062133 0.095788 0.002079
0.064331 0.093085 0.000000
0.089829 0.090227 0.000000
0.135047 0.086219 0.003832
0.185299 0.080411 0.003319
0.239147 0.071951 0.006047
0.298583 0.066550 0.005869
0.366345 0.070336 0.007842
0.439722 0.073174 0.011364
0.523495 0.056020 0.012668
0.605069 0.036466 0.058861
0.676524 0.097067 0.113913
0.744047 0.141093 0.160623
0.806773 0.184414 0.207568
0.864781 0.227519 0.254064
0.892839 0.277923 0.306755
0.912361 0.332772 0.362895
0.927070 0.390417 0.422282
0.938814 0.454017 0.485060
0.948558 0.519427 0.541616
0.956118 0.578776 0.593555
0.961159 0.636493 0.641013
0.963264 0.689248 0.683421
0.964881 0.733871 0.720362
0.966069 0.772843 0.752672
0.967049 0.806169 0.781388
0.967845 0.835226 0.806148
0.968378 0.859003 0.826789
0.968800 0.877959 0.843757
0.080115 0.149745 0.004957
0.079233 0.147104 0.002256
0.078465 0.144403 0.005581
0.077622 0.141695 0.003555
0.077042 0.138926 0.000000
0.076597 0.136307 0.000000
0.087482 0.133593 0.000381
0.129134 0.130210 0.000000
0.181157 0.125221 0.005080
0.236170 0.117773 0.000000
0.295382 0.107063 0.008077
0.361880 0.095093 0.007435
0.435326 0.092574 0.010968
0.519110 0.083608 0.011856
0.602803 0.068768 0.051011
0.674878 0.109334 0.110476
0.742939 0.148707 0.158251
0.805955 0.190147 0.205822
0.864293 0.231963 0.252588
0.892815 0.281375 0.305416
0.912483 0.335422 0.361729
0.927213 0.392509 0.421276
0.938954 0.455757 0.484263
0.948661 0.520682 0.541042
0.956189 0.579661 0.593132
0.961207 0.637115 0.640728
0.963297 0.689652 0.683237
0.964831 0.734250 0.720353
0.966084 0.773028 0.752595
0.967062 0.806292 0.781336
0.967813 0.835361 0.806193
0.968386 0.859053 0.826765
0.968806 0.877990 0.843742
0.090964 0.193901 0.005081
0.090507 0.191732 0.003394
0.090041 0.189548 0.000000
0.089682 0.187331 0.007088
0.089231 0.185131 0.006194
0.088786 0.182966 0.003839
0.090041 0.180356 0.002321
0.119379 0.177533 0.004457
0.171980 0.173915 0.004976
0.229904 0.168267 0.003296
0.291087 0.159519 0.008887
0.358075 0.146274 0.008793
0.430291 0.127389 0.008789
0.513588 0.115020 0.011556
0.599992 0.097758 0.035446
0.672789 0.125490 0.105569
0.741520 0.159238 0.154998
0.805019 0.197755 0.203302
0.863661 0.238033 0.250605
0.892816 0.286052 0.303601
0.912651 0.339012 0.360167
0.927407 0.395340 0.419931
0.939141 0.458089 0.483198
0.948798 0.522355 0.540277
0.956282 0.580840 0.592570
0.961178 0.638087 0.640477
0.963259 0.690310 0.683110
0.964861 0.734615 0.720195
0.966104 0.773273 0.752494
0.967079 0.806454 0.781266
0.967828 0.835466 0.806145
0.968397 0.859118 0.826732
0.968781 0.878071 0.843793
0.098832 0.242069 0.002393
0.098499 0.240301 0.007516
0.098533 0.238466 0.005665
0.098191 0.236677 0.009513
0.097892 0.234887 0.008786
0.097839 0.233067 0.004578
0.098094 0.230817 0.009023
0.106389 0.227917 0.005904
0.155435 0.224952 0.005500
0.217052 0.220946 0.000000
0.282379 0.214451 0.008772
0.352098 0.204236 0.011028
0.425722 0.188426 0.003642
0.507639 0.161912 0.000000
0.594956 0.138463 0.007685
0.670259 0.147776 0.098093
0.739755 0.174187 0.150419
0.803860 0.208452 0.199830
0.862857 0.246416 0.247905
0.892929 0.292357 0.301066
0.912887 0.343915 0.358068
0.927672 0.399200 0.418127
0.939391 0.461227 0.481771
0.948980 0.524589 0.539256
0.956406 0.582415 0.591820
0.961262 0.639186 0.639974
0.963317 0.691023 0.682785
0.964901 0.735101 0.719984
0.966131 0.773598 0.752359
0.967094 0.806680 0.781185
0.967847 0.835607 0.806082
0.968374 0.859252 0.826765
0.968791 0.878127 0.843765
0.102731 0.295108 0.007462
0.102882 0.293584 0.008491
0.102735 0.292086 0.010355
0.102904 0.290555 0.011553
0.103085 0.289013 0.011262
0.102792 0.287551 0.006473
0.103244 0.285635 0.004304
0.105434 0.283015 0.011008
0.130198 0.280011 0.011708
0.195204 0.276927 0.012003
0.265680 0.272509 0.012265
0.340159 0.265162 0.007315
0.418151 0.253224 0.013565
0.501406 0.233438 0.007459
0.588077 0.198649 0.011751
0.667627 0.181440 0.084440
0.737726 0.196331 0.143593
0.802506 0.223906 0.194898
0.861896 0.258193 0.244130
0.893127 0.301190 0.297607
0.913220 0.350676 0.355228
0.928039 0.404511 0.415697
0.939728 0.465471 0.479852
0.949222 0.527578 0.537889
0.956570 0.584523 0.590818
0.961281 0.640796 0.639433
0.963312 0.692094 0.682473
0.964881 0.735850 0.719817
0.966102 0.774116 0.752285
0.967075 0.807030 0.781148
0.967822 0.835857 0.806094
0.968385 0.859378 0.826726
0.968796 0.878211 0.843748
0.101099 0.354443 0.009890
0.101623 0.353168 0.013723
0.101671 0.351919 0.006432
0.101758 0.350671 0.012215
0.101899 0.349428 0.006704
0.102562 0.348129 0.011664
0.103490 0.346525 0.013542
0.105052 0.344330 0.013984
0.112623 0.341508 0.000000
0.159048 0.338381 0.013206
0.237807 0.335160 0.011162
0.318783 0.330120 0.013664
0.403775 0.321639 0.012546
0.490999 0.307295 0.004744
0.580651 0.282726 0.016449
0.666651 0.239067 0.021579
0.735973 0.231509 0.131653
0.801174 0.247194 0.187382
0.861123 0.274917 0.238268
0.893553 0.313691 0.292718
0.913702 0.360134 0.351352
0.928552 0.411904 0.412403
0.940184 0.471247 0.477257
0.949543 0.531589 0.536054
0.956789 0.587352 0.589474
0.961429 0.642751 0.638538
0.963414 0.693360 0.681898
0.964951 0.736709 0.719445
0.966151 0.774687 0.752045
0.967067 0.807474 0.781070
0.967857 0.836104 0.805982
0.968374 0.859577 0.826726
0.968782 0.878347 0.843771
0.090437 0.418359 0.016959
0.090727 0.417371 0.013346
0.091053 0.416365 0.005606
0.092274 0.415307 0.012811
0.091962 0.414357 0.006382
0.093386 0.413318 0.015077
0.094392 0.412063 0.009397
0.097342 0.410260 0.012820
0.103044 0.407988 0.012940
0.122521 0.405061 0.015183
0.192118 0.402188 0.010041
0.284730 0.398958 0.008153
0.378290 0.393686 0.004857
0.472444 0.384252 0.011054
0.568697 0.367358 0.015892
0.655653 0.338017 0.012001
0.737016 0.294484 0.095985
0.800789 0.285175 0.173500
0.860693 0.300508 0.228929
0.894493 0.331804 0.285456
0.914488 0.373496 0.345882
0.929282 0.422356 0.407888
0.940802 0.479172 0.473721
0.949969 0.536990 0.533578
0.957080 0.591165 0.587667
0.961534 0.645511 0.637472
0.963468 0.695170 0.681253
0.964971 0.737957 0.719064
0.966153 0.775531 0.751830
0.967116 0.807986 0.780861
0.967852 0.836495 0.805929
0.968409 0.859780 0.826624
0.968807 0.878476 0.843705
0.057417 0.488822 0.019183
0.058649 0.487996 0.015211
0.060008 0.487169 0.007587
0.063628 0.486278 0.014765
0.063424 0.485514 0.009044
0.067209 0.484622 0.018466
0.069783 0.483582 0.013634
0.075837 0.482062 0.017947
0.083767 0.480138 0.017316
0.100261 0.477561 0.018322
0.135883 0.474363 0.018908
0.229484 0.471332 0.019436
0.337100 0.467842 0.007887
0.442027 0.461803 0.014183
0.547774 0.451007 0.021927
0.642092 0.431677 0.016697
0.729454 0.398870 0.018000
0.804765 0.354148 0.128773
0.861822 0.341910 0.210525
0.896654 0.358971 0.273558
0.916001 0.392578 0.337582
0.930412 0.437299 0.401485
0.941643 0.490155 0.468849
0.950534 0.544292 0.530217
0.957468 0.596334 0.585221
0.961613 0.649303 0.636136
0.963567 0.697553 0.680352
0.965022 0.739587 0.718520
0.966181 0.776622 0.751503
0.967135 0.808726 0.780664
0.967872 0.836982 0.805809
0.968410 0.860105 0.826583
0.968807 0.878686 0.843690
0.053471 0.559947 0.012700
0.054989 0.559365 0.010419
0.056702 0.558781 0.007025
0.061693 0.558126 0.022717
0.063663 0.557540 0.021762
0.065839 0.556953 0.020737
0.068863 0.556217 0.019330
0.073711 0.555184 0.017036
0.081342 0.553814 0.012956
0.095493 0.551939 0.022112
0.117389 0.549590 0.016213
0.165474 0.546687 0.018422
0.277179 0.544134 0.022421
0.399829 0.540933 0.014177
0.516690 0.534802 0.007819
0.622160 0.523210 0.016404
0.713894 0.502186 0.000000
0.796780 0.465508 0.021488
0.867710 0.414910 0.150759
0.901891 0.402020 0.249498
0.919273 0.421767 0.323272
0.932565 0.458630 0.391445
0.942910 0.505379 0.461844
0.951283 0.554270 0.525608
0.957983 0.603390 0.581887
0.961869 0.654171 0.634107
0.963645 0.700830 0.679234
0.965043 0.741832 0.717874
0.966246 0.778038 0.751023
0.967134 0.809747 0.780452
0.967863 0.837674 0.805719
0.968389 0.860564 0.826574
0.968809 0.878963 0.843667
0.130040 0.623153 0.025548
0.130608 0.622755 0.024880
0.131241 0.622356 0.024186
0.131944 0.621957 0.023464
0.132721 0.621558 0.022708
0.133579 0.621158 0.021913
0.134776 0.620658 0.020851
0.136707 0.619957 0.019200
0.139783 0.619028 0.016573
0.144936 0.617801 0.011423
0.155458 0.616117 0.023611
0.175030 0.614059 0.014677
0.222438 0.611555 0.024294
0.341966 0.609699 0.019783
0.473648 0.607001 0.014918
0.594931 0.601020 0.017239
0.692873 0.589755 0.019786
0.778561 0.569651 0.010985
0.856747 0.533661 0.018071
0.913820 0.482303 0.171155
0.926546 0.469126 0.292090
0.936823 0.489546 0.373571
0.945247 0.526101 0.450615
0.952487 0.568052 0.518836
0.958692 0.613072 0.577249
0.962062 0.660976 0.631598
0.963731 0.705273 0.677772
0.965134 0.744752 0.716908
0.966244 0.780049 0.750538
0.967173 0.811056 0.780097
0.967884 0.838552 0.805535
0.968398 0.861128 0.826486
0.968793 0.879352 0.843678
0.187884 0.680663 0.022375
0.188408 0.680441 0.020833
0.188946 0.680172 0.018685
0.189517 0.679902 0.015680
0.191144 0.679547 0.036379
0.191787 0.679277 0.035748
0.192656 0.678940 0.034936
0.194009 0.678466 0.033748
0.196071 0.677839 0.032069
0.199371 0.677054 0.029722
0.204896 0.675959 0.025761
0.214950 0.674570 0.017214
0.235811 0.672700 0.032476
0.284328 0.670680 0.018391
0.413140 0.669331 0.019142
0.553331 0.666861 0.014838
0.666071 0.660686 0.029670
0.757898 0.649382 0.018913
0.836542 0.629291 0.025998
0.907383 0.594567 0.021257
0.936646 0.549850 0.210105
0.944278 0.535569 0.336635
0.949460 0.554251 0.430720
0.954729 0.587022 0.507768
0.959920 0.626121 0.570183
0.962352 0.670158 0.628127
0.963908 0.711202 0.675709
0.965214 0.748741 0.715692
0.966323 0.782631 0.749750
0.967166 0.812883 0.779738
0.967898 0.839742 0.805321
0.968419 0.861868 0.826350
0.968796 0.879839 0.843638
0.233844 0.730708 0.033646
0.234356 0.730537 0.032164
0.234890 0.730365 0.030547
0.235474 0.730246 0.028961
0.236057 0.730074 0.026951
0.236666 0.729903 0.024590
0.237466 0.729689 0.020734
0.239515 0.729297 0.038345
0.241238 0.728899 0.035572
0.243829 0.728425 0.031351
0.247800 0.727731 0.022600
0.255052 0.726782 0.034601
0.266342 0.725652 0.019198
0.289450 0.724141 0.023737
0.344534 0.722610 0.035472
0.485467 0.722058 0.030789
0.627182 0.719875 0.006804
0.732104 0.713844 0.017869
0.814522 0.702900 0.029257
0.886619 0.683392 0.019973
0.933707 0.652113 0.088499
0.950361 0.612325 0.265024
0.955836 0.596566 0.391820
0.958719 0.613669 0.487567
0.960912 0.645504 0.561247
0.962684 0.682756 0.623456
0.964108 0.719347 0.672995
0.965350 0.754095 0.714017
0.966408 0.786129 0.748738
0.967245 0.815217 0.779096
0.967887 0.841364 0.805099
0.968415 0.862892 0.826241
0.968794 0.880494 0.843602
0.269713 0.774186 0.033098
0.270236 0.774075 0.030799
0.270773 0.773964 0.028122
0.271324 0.773853 0.024823
0.271891 0.773742 0.020212
0.273299 0.773593 0.040577
0.274046 0.773454 0.038628
0.275139 0.773260 0.035563
0.276670 0.773002 0.030566
0.278881 0.772719 0.019548
0.282834 0.772175 0.035077
0.287732 0.771642 0.017556
0.296309 0.770836 0.026850
0.310626 0.769873 0.025026
0.338275 0.768613 0.036278
0.402485 0.767607 0.026492
0.558842 0.767480 0.031753
0.692988 0.764850 0.034543
0.788181 0.758502 0.017153
0.863707 0.747604 0.022638
0.922922 0.729618 0.036119
0.945708 0.705917 0.208962
0.956069 0.674152 0.348606
0.959271 0.660660 0.467678
0.961315 0.674239 0.550402
0.962982 0.700253 0.617260
0.964347 0.730606 0.669378
0.965481 0.761450 0.711868
0.966461 0.790931 0.747512
0.967295 0.818433 0.778355
0.967912 0.843483 0.804729
0.968421 0.864244 0.826075
0.968827 0.881323 0.843472
0.296401 0.812747 0.020803
0.297704 0.812568 0.041664
0.298229 0.812488 0.039533
0.298764 0.812409 0.037174
0.299309 0.812329 0.034506
0.299865 0.812248 0.031391
0.300576 0.812147 0.026387
0.302366 0.811907 0.041990
0.303774 0.811718 0.036667
0.305743 0.811466 0.025982
0.309277 0.811030 0.036244
0.314083 0.810499 0.040239
0.321055 0.809931 0.041505
0.331633 0.809229 0.037829
0.349080 0.808376 0.016694
0.383130 0.807426 0.036944
0.458891 0.806888 0.039304
0.625301 0.807084 0.035023
0.751030 0.804049 0.005517
0.836633 0.797434 0.032085
0.902374 0.786500 0.022981
0.941075 0.771127 0.123048
0.953200 0.752988 0.299903
0.958342 0.728961 0.441486
0.961427 0.715130 0.535567
0.963284 0.725187 0.608736
0.964556 0.746439 0.664704
0.965636 0.771566 0.709032
0.966540 0.797478 0.745883
0.967342 0.822808 0.777423
0.967976 0.846285 0.804176
0.968457 0.866014 0.825794
0.968825 0.882480 0.843406
0.312928 0.845261 0.023596
0.314256 0.845113 0.043062
0.314813 0.845065 0.040569
0.315378 0.845017 0.037771
0.315949 0.844969 0.034540
0.316528 0.844921 0.030628
0.317263 0.844861 0.023698
0.319069 0.844676 0.041212
0.320492 0.844562 0.034182
0.323183 0.844311 0.043187
0.325884 0.844108 0.030096
0.330406 0.843737 0.033000
0.336576 0.843269 0.027522
0.346019 0.842569 0.037046
0.360174 0.841902 0.037144
0.383757 0.841128 0.043024
0.425606 0.840386 0.024374
0.515253 0.839724 0.043796
0.683781 0.839543 0.029184
0.799592 0.836263 0.009206
0.877536 0.829835 0.020579
0.928842 0.819694 0.019115
0.949498 0.809897 0.250141
0.955585 0.798600 0.417343
0.960276 0.775777 0.519187
0.963090 0.761961 0.598413
0.964701 0.768960 0.658701
0.965791 0.785643 0.705346
0.966645 0.806520 0.743749
0.967383 0.828791 0.776262
0.967982 0.850144 0.803625
0.968445 0.868458 0.825569
0.968823 0.884019 0.843322
0.329126 0.869791 0.119032
0.329704 0.869772 0.118519
0.330288 0.869752 0.118003
0.330877 0.869732 0.117483
0.331472 0.869712 0.116959
0.332072 0.869693 0.116431
0.332832 0.869668 0.115765
0.333912 0.869634 0.114819
0.335373 0.869589 0.113546
0.337359 0.869530 0.111820
0.340084 0.869453 0.109460
0.343864 0.869352 0.106193
0.349190 0.869221 0.101578
0.356851 0.869054 0.094840
0.368183 0.868846 0.084379
0.385595 0.868597 0.065537
0.414774 0.868139 0.042628
0.466548 0.867397 0.042715
0.572001 0.866774 0.043905
0.736070 0.865135 0.041640
0.841654 0.860770 0.034253
0.908888 0.854973 0.007489
0.945516 0.849630 0.162869
0.952506 0.847474 0.398307
0.957803 0.837186 0.510513
0.961923 0.815722 0.589257
0.964409 0.801715 0.652412
0.965763 0.805675 0.701123
0.966696 0.819270 0.741218
0.967429 0.837004 0.774802
0.968012 0.855307 0.802873
0.968486 0.871670 0.825151
0.968834 0.886055 0.843186
0.372007 0.884765 0.234554
0.372540 0.884760 0.234349
0.373076 0.884755 0.234144
0.373615 0.884750 0.233939
0.374158 0.884744 0.233734
0.374704 0.884739 0.233528
0.375392 0.884733 0.233270
0.376366 0.884725 0.232907
0.377673 0.884714 0.232424
0.379434 0.884699 0.231782
0.381819 0.884682 0.230925
0.385075 0.884659 0.229780
0.389562 0.884633 0.228245
0.395828 0.884603 0.226175
0.404735 0.884575 0.223367
0.417704 0.884558 0.219512
0.437225 0.884577 0.214120
0.468899 0.884704 0.206258
0.526125 0.885129 0.193641
0.628316 0.885921 0.169668
0.781700 0.884556 0.108405
0.879891 0.879862 0.026834
0.930910 0.873561 0.040242
0.949595 0.877676 0.371848
0.955504 0.876777 0.505075
0.959868 0.868598 0.589376
0.963322 0.849752 0.650416
0.965377 0.835175 0.697484
0.966582 0.837542 0.738711
0.967403 0.848421 0.773239
0.968011 0.862299 0.802023
0.968486 0.876054 0.824758
0.968820 0.888800 0.843089
0.419985 0.895750 0.324678
0.420443 0.895749 0.324548
0.420903 0.895747 0.324418
0.421364 0.895745 0.324287
0.421828 0.895744 0.324156
0.422294 0.895743 0.324026
0.422879 0.895741 0.323862
0.423704 0.895738 0.323631
0.424807 0.895735 0.323326
0.426284 0.895731 0.322920
0.428271 0.895727 0.322379
0.430954 0.895722 0.321660
0.434601 0.895717 0.320700
0.439601 0.895713 0.319416
0.446558 0.895714 0.317693
0.456605 0.895730 0.315361
0.471526 0.895780 0.312176
0.494358 0.895900 0.307754
0.530390 0.896156 0.301445
0.587938 0.896624 0.292019
0.684667 0.897353 0.275377
0.823531 0.897136 0.241294
0.910135 0.893669 0.199362
0.944348 0.890242 0.239510
0.953284 0.897837 0.486032
0.958152 0.897990 0.587070
0.961768 0.892276 0.656168
0.964376 0.876479 0.699217
0.966192 0.863418 0.737377
0.967271 0.864128 0.771835
0.967980 0.871772 0.801105
0.968474 0.881974 0.824333
0.968823 0.892434 0.842935
0.473222 0.905140 0.402102
0.473628 0.905142 0.402022
0.474034 0.905143 0.401941
0.474442 0.905145 0.401860
0.474851 0.905147 0.401779
0.475262 0.905148 0.401698
0.475778 0.905150 0.401596
0.476505 0.905153 0.401454
0.477475 0.905157 0.401265
0.478772 0.905162 0.401014
0.480512 0.905170 0.400680
0.482852 0.905180 0.400235
0.486019 0.905196 0.399643
0.490329 0.905218 0.398853
0.496244 0.905251 0.397795
0.504449 0.905301 0.396373
0.515979 0.905378 0.394450
0.532350 0.905520 0.391693
0.555974 0.905770 0.387646
0.590465 0.906135 0.381874
0.644278 0.906671 0.373203
0.734721 0.907243 0.358881
0.860462 0.906452 0.334914
0.930928 0.904065 0.307223
0.950146 0.907181 0.433807
0.956405 0.912488 0.571734
0.960512 0.913417 0.654958
0.963219 0.908822 0.705733
0.965345 0.896432 0.740888
0.966892 0.885232 0.771770
0.967814 0.884792 0.800663
0.968415 0.889972 0.824034
0.968790 0.897296 0.842881
0.531643 0.913515 0.464944
0.531970 0.913518 0.464886
0.532298 0.913521 0.464827
0.532627 0.913524 0.464769
0.532956 0.913527 0.464710
0.533286 0.913530 0.464652
0.533699 0.913534 0.464578
0.534280 0.913539 0.464475
0.535052 0.913546 0.464339
0.536080 0.913556 0.464157
0.537450 0.913569 0.463916
0.539279 0.913586 0.463596
0.541726 0.913609 0.463169
0.545010 0.913640 0.462600
0.549433 0.913683 0.461841
0.555420 0.913741 0.460824
0.563564 0.913822 0.459458
0.574703 0.913932 0.457612
0.590011 0.914081 0.455104
0.612096 0.914299 0.451630
0.645401 0.914618 0.446691
0.697052 0.915026 0.439387
0.778368 0.915241 0.427893
0.892731 0.914025 0.409174
0.944479 0.911771 0.388633
0.954476 0.919000 0.542516
0.959072 0.922891 0.639025
0.962261 0.923817 0.704944
0.964449 0.920542 0.746627
0.966178 0.911194 0.776043
0.967494 0.901948 0.801467
0.968265 0.900581 0.824197
0.968731 0.903704 0.842963
0.588589 0.920827 0.521493
0.588819 0.920829 0.521455
0.589049 0.920831 0.521416
0.589279 0.920833 0.521378
0.589510 0.920835 0.521339
0.589741 0.920838 0.521301
0.590030 0.920840 0.521253
0.590437 0.920844 0.521185
0.590978 0.920850 0.521095
0.591696 0.920857 0.520975
0.592654 0.920866 0.520817
0.593930 0.920878 0.520606
0.595636 0.920895 0.520327
0.597921 0.920917 0.519954
0.600995 0.920947 0.519457
0.605148 0.920988 0.518794
0.610796 0.921043 0.517904
0.618540 0.921120 0.516707
0.629273 0.921224 0.515087
0.644354 0.921368 0.512874
