color-grading/luts/02_looks/BNC_L02_Print2383.cube
TITLE "BNC L02 Print2383"
# BNC Grade v1.0 - Kodak 2383 print-stock emulation: punchy contrast, a crushed toe, cool-leaning shadows against warm highlights, and an overall desaturated, filmic roll-off.
# Input: Rec.709 Gamma 2.4 | Output: Rec.709 Gamma 2.4
LUT_3D_SIZE 5
DOMAIN_MIN 0.0 0.0 0.0
DOMAIN_MAX 1.0 1.0 1.0
0.000551 0.000553 0.000553
0.174654 0.073275 0.054541
0.436989 0.134947 0.102700
0.675715 0.172288 0.134148
0.801588 0.196040 0.154980
0.061220 0.191674 0.098566
0.194385 0.199434 0.075966
0.451038 0.215355 0.106533
0.684744 0.233476 0.140392
0.809602 0.246972 0.160024
0.142525 0.451720 0.150984
0.214050 0.456311 0.146798
0.497534 0.459508 0.154615
0.715347 0.471427 0.178490
0.839559 0.468313 0.193580
0.238491 0.676290 0.197305
0.280109 0.678979 0.199116
0.494915 0.692976 0.212020
0.764453 0.695712 0.232657
0.876977 0.714050 0.247622
0.316605 0.804436 0.235494
0.343619 0.804652 0.236304
0.506006 0.813534 0.245000
0.768060 0.824611 0.264223
0.938340 0.894207 0.613476
0.026326 0.076747 0.113131
0.176519 0.068740 0.191332
0.439437 0.126264 0.198431
0.676234 0.171681 0.209575
0.802508 0.195688 0.218288
0.066104 0.198348 0.197139
0.190903 0.212178 0.210376
0.450462 0.221260 0.211385
0.687793 0.232921 0.214240
0.818540 0.234386 0.213048
0.145942 0.457873 0.223472
0.222150 0.461976 0.226281
0.503744 0.466140 0.194098
0.735724 0.467054 0.198150
0.865687 0.456447 0.195498
0.228758 0.682734 0.236589
0.260930 0.687204 0.224927
0.484501 0.700995 0.216888
0.768222 0.697891 0.233510
0.884464 0.716192 0.248871
0.287366 0.808406 0.239512
0.314403 0.809080 0.236749
0.494691 0.821273 0.246578
0.764983 0.826257 0.264399
0.939564 0.896314 0.622852
0.061430 0.178382 0.293283
0.146116 0.100890 0.439983
0.426459 0.130735 0.433312
0.661130 0.169263 0.430060
0.790674 0.192776 0.429264
0.078324 0.227533 0.367442
0.140766 0.202287 0.464308
0.452015 0.196518 0.458180
0.700107 0.176328 0.439606
0.818745 0.198155 0.429141
0.158739 0.476289 0.473564
0.215023 0.484030 0.481564
0.515746 0.513246 0.509999
0.743408 0.493305 0.486890
0.869140 0.482138 0.471796
0.246498 0.709757 0.460777
0.281318 0.714552 0.460143
0.511967 0.733211 0.481824
0.797503 0.740347 0.454327
0.915852 0.747430 0.457757
0.302505 0.831949 0.446559
0.311610 0.837791 0.437975
0.511982 0.853865 0.454889
0.776982 0.870042 0.427495
0.948021 0.911666 0.690352
0.092378 0.268084 0.468225
0.056069 0.190423 0.598932
0.407573 0.152752 0.641988
0.652920 0.180026 0.649490
0.793494 0.201243 0.655118
0.100574 0.291884 0.516646
0.078542 0.239102 0.613474
0.428778 0.168002 0.697037
0.671844 0.184330 0.669492
0.811046 0.204771 0.665460
0.161782 0.472437 0.674292
0.161878 0.471732 0.700966
0.457316 0.478888 0.737941
0.734144 0.465320 0.723261
0.870504 0.448970 0.704473
0.264437 0.731513 0.717475
0.268080 0.739151 0.724914
0.517601 0.764884 0.747198
0.829798 0.810270 0.785627
0.941208 0.789466 0.763896
0.323817 0.863586 0.698082
0.326897 0.870293 0.698906
0.525286 0.893951 0.715679
0.814741 0.924865 0.756163
0.961670 0.939039 0.815832
0.109848 0.318839 0.571834
0.096686 0.284879 0.631339
0.400980 0.176401 0.788420
0.655141 0.195061 0.787301
0.795497 0.212803 0.792579
0.115634 0.335694 0.609453
0.103177 0.303492 0.664496
0.408351 0.184169 0.830250
0.669172 0.199547 0.811340
0.809816 0.216385 0.808031
0.164556 0.478207 0.762674
0.162012 0.470295 0.788316
0.417591 0.457523 0.869752
0.710166 0.443110 0.858193
0.850066 0.430265 0.843507
0.266399 0.726362 0.857728
0.269329 0.732082 0.871400
0.498760 0.755576 0.891732
0.785128 0.779196 0.914609
0.933470 0.768914 0.904013
0.333635 0.875952 0.853570
0.336562 0.882033 0.859697
0.522844 0.906886 0.883683
0.822012 0.941468 0.919898
0.966249 0.962138 0.956043
