color-grading/luts/02_looks/BNC_L09_Nocturne.cube
TITLE "BNC L09 Nocturne"
# BNC Grade v1.0 - Cool, blue-leaning night grade with deep, protected shadows.
# Input: Rec.709 Gamma 2.4 | Output: Rec.709 Gamma 2.4
LUT_3D_SIZE 9
DOMAIN_MIN 0.0 0.0 0.0
DOMAIN_MAX 1.0 1.0 1.0
0.001297 0.001315 0.001329
0.052785 0.025896 0.033454
0.176694 0.081332 0.102743
0.309518 0.110975 0.126916
0.440242 0.127535 0.136742
0.568776 0.131354 0.133297
0.694119 0.121658 0.116432
0.811595 0.097113 0.085316
0.868743 0.075557 0.058545
0.020791 0.064237 0.061005
0.023440 0.072385 0.071149
0.176536 0.100761 0.107270
0.310150 0.123489 0.128475
0.440872 0.137402 0.137316
0.569311 0.140405 0.133457
0.694553 0.131331 0.116441
0.811947 0.109692 0.085358
0.868988 0.093147 0.059658
0.089308 0.208012 0.152876
0.091461 0.209737 0.152083
0.177822 0.224696 0.150789
0.319232 0.232478 0.136747
0.451311 0.233586 0.138811
0.577679 0.232423 0.132990
0.701258 0.226129 0.115227
0.817416 0.215571 0.085089
0.872810 0.213415 0.074704
0.160563 0.338738 0.201578
0.161224 0.339587 0.199481
0.212599 0.347740 0.186430
0.325682 0.357717 0.164296
0.461178 0.360029 0.141160
0.593657 0.353671 0.111221
0.713763 0.350243 0.110937
0.826117 0.346698 0.105896
0.881299 0.344411 0.100930
0.218086 0.465277 0.221551
0.218161 0.465766 0.218726
0.265285 0.469567 0.215873
0.355323 0.477153 0.209809
0.468150 0.484224 0.152880
0.597797 0.485900 0.133706
0.721564 0.484698 0.137419
0.836324 0.480893 0.134651
0.892045 0.478393 0.130964
0.278483 0.587468 0.252862
0.281057 0.587619 0.253104
0.319579 0.590125 0.256415
0.392974 0.596136 0.258158
0.486083 0.604677 0.237907
0.599759 0.610506 0.172398
0.726080 0.612676 0.154953
0.844482 0.611971 0.158095
0.901537 0.610431 0.156925
0.348940 0.706048 0.300023
0.350770 0.706171 0.300192
0.379392 0.708217 0.302647
0.439127 0.713147 0.305584
0.519709 0.720792 0.299225
0.615676 0.729013 0.263953
0.729603 0.733642 0.190208
0.849272 0.735858 0.169494
0.907526 0.736228 0.171871
0.413718 0.813083 0.341128
0.415118 0.813189 0.341253
0.437515 0.814944 0.343137
0.486848 0.819192 0.346011
0.557201 0.825978 0.344504
0.642267 0.834343 0.326824
0.741109 0.841678 0.276731
0.851572 0.845257 0.198457
0.909613 0.846586 0.180897
0.438011 0.855392 0.356872
0.439287 0.855492 0.356986
0.459835 0.857154 0.358712
0.505786 0.861186 0.361528
0.572518 0.867677 0.361141
0.654024 0.875920 0.347948
0.748189 0.883854 0.307419
0.853195 0.888586 0.233884
0.911001 0.894132 0.290376
0.008184 0.024666 0.050646
0.050955 0.017742 0.086270
0.176964 0.078482 0.125675
0.309678 0.109971 0.141805
0.440370 0.127089 0.148512
0.568884 0.131159 0.144170
0.694212 0.121618 0.128267
0.811675 0.097214 0.101493
0.868854 0.075251 0.081709
0.021621 0.065686 0.080889
0.023403 0.071186 0.099320
0.176861 0.098812 0.128793
0.310334 0.122675 0.143089
0.441009 0.137022 0.149014
0.569423 0.140239 0.144315
0.694648 0.131303 0.128282
0.812029 0.109784 0.101539
0.869208 0.091675 0.081609
0.084363 0.208910 0.160165
0.086584 0.210632 0.159663
0.179176 0.224833 0.162362
0.320044 0.232494 0.149347
0.451083 0.234156 0.151327
0.577633 0.232815 0.144493
0.701281 0.226434 0.127719
0.817461 0.215844 0.101860
0.874107 0.209110 0.084145
0.160090 0.339135 0.206714
0.160821 0.339979 0.204786
0.213322 0.348031 0.193579
0.326250 0.358095 0.173564
0.461724 0.360305 0.151427
0.595744 0.352148 0.114514
0.716266 0.347339 0.110301
0.828336 0.343266 0.105009
0.883370 0.340768 0.099890
0.218406 0.465564 0.226384
0.218504 0.466054 0.223689
0.265857 0.469841 0.221327
0.355911 0.477443 0.216084
0.468552 0.484585 0.161983
0.598399 0.486027 0.141377
0.723052 0.483801 0.137269
0.837861 0.479530 0.134299
0.893537 0.476835 0.130505
0.274773 0.587949 0.252762
0.277422 0.588098 0.253012
0.316911 0.590572 0.256451
0.391563 0.596514 0.258457
0.485585 0.604959 0.238346
0.599957 0.610605 0.172357
0.726794 0.612509 0.154977
0.845432 0.611510 0.158027
0.902506 0.609826 0.156792
0.346473 0.706374 0.299965
0.348332 0.706497 0.300138
0.377377 0.708530 0.302655
0.437799 0.713433 0.305730
0.519008 0.721037 0.299528
0.615444 0.729195 0.264239
0.729781 0.733703 0.190144
0.849757 0.735769 0.169518
0.908080 0.736053 0.171874
0.411907 0.813323 0.341091
0.413321 0.813429 0.341219
0.435935 0.815179 0.343138
0.485669 0.819415 0.346093
0.556454 0.826181 0.344696
0.641879 0.834518 0.327091
0.741010 0.841803 0.276909
0.851737 0.845297 0.198380
0.909852 0.846839 0.187663
0.436371 0.855607 0.356839
0.437659 0.855707 0.356955
0.458379 0.857365 0.358709
0.504661 0.861389 0.361593
0.571766 0.867865 0.361301
0.653598 0.876087 0.348187
0.748023 0.883985 0.307631
0.853260 0.888653 0.233894
0.911229 0.894368 0.294053
0.025676 0.080569 0.151982
0.004896 0.039240 0.222927
0.177097 0.051692 0.256354
0.309533 0.097467 0.256966
0.440760 0.120310 0.253237
0.569610 0.127626 0.244631
0.695055 0.120270 0.231729
0.812526 0.097807 0.216865
0.869636 0.078191 0.209069
0.029392 0.092860 0.171556
0.025551 0.085485 0.203367
0.176762 0.081047 0.257174
0.310273 0.112234 0.257505
0.441489 0.131112 0.253503
0.570205 0.137156 0.244744
0.695525 0.130196 0.231796
0.812901 0.110379 0.216952
0.870059 0.093432 0.209007
0.066865 0.213773 0.241602
0.067262 0.215121 0.244628
0.175750 0.226355 0.264220
0.320806 0.233041 0.263913
0.451686 0.234938 0.256679
0.578755 0.233445 0.246189
0.702408 0.227401 0.232909
0.818511 0.217202 0.218463
0.875106 0.210678 0.211160
0.134501 0.345906 0.266847
0.135890 0.346720 0.266265
0.212004 0.353247 0.267190
0.334099 0.362876 0.270313
0.469649 0.363131 0.250090
0.596731 0.357433 0.240992
0.716819 0.351912 0.232459
0.830299 0.344844 0.221810
0.885967 0.340602 0.215876
0.218495 0.469902 0.284476
0.218958 0.470392 0.283006
0.271532 0.473829 0.285561
0.364290 0.481368 0.289963
0.474241 0.489678 0.256173
0.603858 0.490446 0.244197
0.733199 0.481591 0.215290
0.849322 0.472195 0.202446
0.904478 0.467808 0.197730
0.279019 0.591621 0.305866
0.281740 0.591767 0.306143
0.322196 0.594192 0.310232
0.397851 0.600160 0.315117
0.491000 0.609073 0.302340
0.604624 0.614931 0.252103
0.732511 0.615670 0.237357
0.855638 0.608772 0.203334
0.914253 0.603445 0.185395
0.340254 0.710069 0.333039
0.342231 0.710189 0.333220
0.372957 0.712188 0.335923
0.436047 0.717032 0.339758
0.519368 0.724619 0.335364
0.616947 0.732703 0.302739
0.733287 0.736324 0.233875
0.855911 0.736542 0.210095
0.914966 0.735406 0.204653
0.395085 0.816762 0.354916
0.396636 0.816865 0.355047
0.421305 0.818576 0.357020
0.474782 0.822716 0.360137
0.549509 0.829322 0.358944
0.638175 0.837382 0.340845
0.740164 0.843991 0.287382
0.854292 0.846023 0.200495
0.913398 0.850622 0.265400
0.415737 0.858842 0.363521
0.417164 0.858940 0.363640
0.439989 0.860559 0.365442
0.490252 0.864483 0.368435
0.561788 0.870784 0.368176
0.647503 0.878708 0.354320
0.745349 0.886016 0.310950
0.854220 0.889698 0.234088
0.914612 0.897894 0.343925
0.037720 0.125995 0.258585
0.033760 0.118295 0.282999
0.173913 0.059307 0.371307
0.307959 0.077328 0.382623
0.439087 0.106688 0.376810
0.568632 0.118261 0.367480
0.694803 0.114395 0.355673
0.812782 0.094964 0.343661
0.869961 0.078901 0.337962
0.039111 0.131556 0.270961
0.035361 0.124289 0.293847
0.175364 0.060428 0.383783
0.308541 0.096068 0.382911
0.439815 0.119152 0.377044
0.569275 0.128824 0.367645
0.695319 0.125078 0.355814
0.813194 0.108119 0.343808
0.870522 0.092889 0.337929
0.065647 0.218932 0.343609
0.065182 0.218556 0.350234
0.174146 0.217326 0.387514
0.317776 0.224998 0.386732
0.450642 0.229890 0.380375
0.578792 0.230452 0.370114
0.702999 0.226100 0.358088
0.819406 0.217267 0.346204
0.876075 0.211410 0.340666
0.105453 0.352146 0.376009
0.105648 0.352860 0.377252
0.192507 0.359547 0.386071
0.339975 0.368579 0.392014
0.472565 0.367988 0.386530
0.597173 0.362413 0.375343
0.718223 0.355627 0.363541
0.832014 0.347985 0.352784
0.887780 0.343507 0.347340
0.176508 0.480915 0.376725
0.177450 0.481411 0.376306
0.254505 0.484175 0.380186
0.375104 0.489407 0.394460
0.485677 0.499824 0.386514
0.616217 0.497427 0.372060
0.738007 0.489859 0.364570
0.849594 0.482685 0.357815
0.904437 0.478157 0.352385
0.274169 0.600054 0.393236
0.277371 0.600181 0.393566
0.324276 0.602313 0.398931
0.408931 0.607765 0.409988
0.504781 0.617344 0.412892
0.615114 0.624898 0.379493
0.742682 0.624744 0.370387
0.866324 0.614368 0.342905
0.921109 0.610329 0.340925
0.345324 0.717422 0.414523
0.347446 0.717538 0.414759
0.380278 0.719476 0.418501
0.446822 0.724266 0.425860
0.532211 0.732182 0.429788
0.628116 0.741431 0.411351
0.742981 0.745790 0.364784
0.865368 0.745649 0.353605
0.923362 0.743565 0.347137
0.402873 0.823628 0.431367
0.404481 0.823731 0.431538
0.430009 0.825446 0.434232
0.485055 0.829638 0.439566
0.561060 0.836483 0.443356
0.649415 0.845188 0.434613
0.749676 0.852680 0.397787
0.863265 0.854995 0.344343
0.921294 0.859320 0.382958
0.423893 0.865560 0.437932
0.425360 0.865659 0.438084
0.448811 0.867292 0.440501
0.500257 0.871281 0.445340
0.572852 0.877796 0.449180
0.658522 0.886234 0.443099
0.754873 0.894250 0.412928
0.862607 0.898071 0.357699
0.922198 0.905903 0.437025
0.046228 0.166823 0.368614
0.042588 0.159766 0.386697
0.171772 0.066954 0.490629
0.305174 0.071049 0.502153
0.436445 0.089010 0.500469
0.565648 0.103879 0.491473
0.692153 0.102358 0.480900
0.810768 0.084166 0.470513
0.868150 0.070626 0.465710
0.046705 0.169746 0.377446
0.043030 0.162608 0.395325
0.172492 0.067264 0.499358
0.306668 0.077089 0.506906
0.437068 0.104202 0.500654
0.566264 0.116176 0.491671
0.692682 0.114604 0.481104
0.811206 0.099364 0.470720
0.868850 0.084802 0.465786
0.062233 0.228519 0.449955
0.060560 0.225755 0.459393
0.172350 0.208913 0.509757
0.313761 0.216408 0.508719
0.446615 0.222339 0.503539
0.575590 0.224424 0.494814
0.700676 0.221756 0.484418
0.817882 0.214488 0.474071
0.874855 0.209468 0.469371
0.101348 0.351604 0.492267
0.101167 0.351653 0.495166
0.192008 0.353771 0.510371
0.333499 0.359080 0.512788
0.467791 0.361652 0.510664
0.595198 0.359461 0.502836
0.717557 0.354324 0.492535
0.831993 0.347707 0.482741
0.888088 0.343524 0.477527
0.139803 0.487980 0.503447
0.139918 0.488444 0.504108
0.230020 0.491969 0.507422
0.358975 0.499496 0.513965
0.497078 0.510596 0.523587
0.620436 0.505550 0.516715
0.738836 0.497151 0.506384
0.851532 0.487904 0.494659
0.906620 0.482699 0.488110
0.211985 0.613732 0.499180
0.216906 0.613865 0.499378
0.283817 0.616013 0.502774
0.395970 0.620795 0.512178
0.520386 0.628418 0.530540
0.630138 0.639141 0.520138
0.758663 0.635163 0.506100
0.874964 0.624992 0.495039
0.927116 0.620174 0.490710
0.329526 0.729151 0.511194
0.332128 0.729258 0.511445
0.371909 0.731032 0.515634
0.450587 0.735397 0.525778
0.547759 0.742983 0.539698
0.646026 0.753772 0.539744
0.757644 0.760025 0.505272
0.879609 0.758914 0.497718
0.934417 0.755974 0.492963
0.403959 0.834255 0.525924
0.405750 0.834355 0.526137
0.434083 0.836026 0.529611
0.494500 0.840150 0.537541
0.576175 0.847101 0.547676
0.667043 0.856653 0.550611
0.764942 0.865897 0.527985
0.877309 0.868952 0.488251
0.932783 0.872827 0.515919
0.428208 0.875941 0.531629
0.429807 0.876038 0.531822
0.455284 0.877657 0.534979
0.510717 0.881645 0.542126
0.587690 0.888310 0.551272
0.675683 0.897349 0.554907
0.770524 0.906572 0.537896
0.876327 0.911217 0.496771
0.933370 0.917999 0.555136
0.050845 0.202809 0.481812
0.047064 0.195431 0.497100
0.169748 0.066040 0.611693
0.303185 0.070487 0.619347
0.433388 0.072229 0.621228
0.561810 0.084722 0.613796
0.687715 0.083439 0.604365
0.806390 0.060199 0.595289
0.863860 0.042849 0.591127
0.050828 0.204346 0.488695
0.046967 0.196788 0.504047
0.170343 0.065667 0.618030
0.304279 0.070260 0.624646
0.434191 0.086377 0.622358
0.562347 0.100145 0.613991
0.688210 0.098872 0.604603
0.806824 0.081774 0.595540
0.864611 0.063976 0.591393
0.057476 0.241378 0.558777
0.054505 0.235919 0.570282
0.171174 0.200917 0.629828
0.310272 0.208292 0.628856
0.441977 0.214395 0.624535
0.570576 0.216925 0.617196
0.695799 0.214966 0.608407
0.813477 0.208577 0.599589
0.870747 0.204004 0.595585
0.090083 0.349063 0.608674
0.089261 0.348085 0.613045
0.188814 0.345834 0.630439
0.326945 0.349972 0.631898
0.459903 0.352962 0.630800
0.588478 0.352818 0.625814
0.712392 0.349547 0.617991
0.828079 0.344189 0.609754
0.884833 0.340427 0.604928
0.134775 0.485245 0.629599
0.134692 0.485380 0.631184
0.228441 0.487934 0.633919
0.354171 0.493262 0.638657
0.485637 0.498717 0.643106
0.613671 0.499257 0.642189
0.735728 0.494338 0.635016
0.850177 0.486617 0.624458
0.905877 0.481913 0.618287
0.185168 0.620478 0.632335
0.190706 0.620643 0.632494
0.262414 0.623361 0.635109
0.376029 0.629843 0.641327
0.506064 0.640187 0.651158
0.644938 0.653566 0.663592
0.764598 0.645307 0.653653
0.876704 0.633918 0.640045
0.928919 0.627808 0.632688
0.256274 0.744039 0.623949
0.260026 0.744162 0.624096
0.314513 0.746186 0.626580
0.414847 0.750899 0.633061
0.538954 0.757995 0.645818
0.666185 0.767697 0.666631
0.775995 0.777847 0.652116
0.898447 0.772546 0.638519
0.945190 0.769661 0.639720
0.372802 0.848560 0.627886
0.375055 0.848658 0.628083
0.410289 0.850284 0.631406
0.483811 0.854229 0.639822
0.581548 0.860797 0.654147
0.686456 0.870415 0.670682
0.785976 0.882144 0.667848
0.895457 0.886989 0.635882
0.945866 0.890112 0.656135
0.408568 0.889754 0.632438
0.410496 0.889849 0.632638
0.441027 0.891412 0.635983
0.506449 0.895224 0.644274
0.595807 0.901560 0.657786
0.694698 0.910508 0.672739
0.792075 0.920965 0.673033
0.894344 0.927158 0.641923
0.946285 0.932575 0.686355
0.050873 0.233278 0.597997
0.046666 0.225004 0.612013
0.168815 0.045961 0.732222
0.301722 0.055963 0.737184
0.430240 0.057667 0.738635
0.557624 0.052873 0.734303
0.682339 0.047617 0.725964
0.802429 0.000742 0.719859
0.862318 0.000717 0.718387
0.050508 0.233917 0.603705
0.046197 0.225407 0.617876
0.169435 0.044241 0.737027
0.302455 0.054923 0.741486
0.431235 0.059087 0.741869
0.558066 0.077473 0.734483
0.682775 0.074186 0.726202
0.802623 0.057007 0.719928
0.862824 0.049831 0.718661
0.050021 0.254517 0.670316
0.045610 0.246029 0.683492
0.171017 0.192100 0.747573
0.307335 0.199568 0.746910
0.437386 0.205797 0.743522
0.564878 0.208322 0.737496
0.689499 0.206270 0.730047
0.806934 0.199866 0.722663
0.864385 0.194993 0.719022
0.073920 0.345256 0.726197
0.072181 0.342801 0.732063
0.185733 0.337613 0.748297
0.320959 0.341246 0.749494
0.451936 0.344233 0.749055
0.580059 0.344815 0.745710
0.704359 0.342551 0.740025
0.820998 0.337902 0.733181
0.878351 0.334415 0.728809
0.118654 0.477603 0.751093
0.123096 0.477474 0.752353
0.220992 0.479363 0.754083
0.344943 0.483142 0.757494
0.473724 0.487040 0.760814
0.601763 0.488564 0.761384
0.726435 0.486338 0.757136
0.843333 0.480812 0.748890
0.900252 0.476954 0.743593
0.182985 0.617548 0.760264
0.188512 0.617689 0.760404
0.259840 0.619980 0.762689
0.372116 0.625228 0.767890
0.498962 0.632594 0.775042
0.630155 0.638743 0.780482
0.756840 0.637951 0.778060
0.873026 0.630641 0.768370
0.926777 0.625626 0.762012
0.241132 0.750660 0.758754
0.245010 0.750803 0.758889
0.300491 0.753159 0.761122
0.400022 0.758872 0.766539
0.521149 0.768221 0.775394
0.654351 0.781099 0.787542
0.795071 0.796625 0.802016
0.906064 0.784878 0.788834
0.950665 0.778099 0.781234
0.294277 0.863604 0.747833
0.297304 0.863722 0.747955
0.342918 0.865666 0.749996
0.432185 0.870335 0.755132
0.548089 0.877747 0.764359
0.680098 0.887253 0.780061
0.809914 0.898864 0.803247
0.915701 0.907599 0.787879
0.958172 0.909172 0.799396
0.338049 0.905365 0.745290
0.340621 0.905466 0.745427
0.380374 0.907128 0.747724
0.461825 0.911079 0.753618
0.570827 0.917259 0.764463
0.694666 0.925207 0.782288
0.815377 0.934918 0.804269
0.915099 0.943533 0.792760
0.958724 0.947549 0.823242
0.046226 0.254414 0.700384
0.041303 0.244824 0.714082
0.170440 0.000877 0.838848
0.301748 0.000880 0.840464
0.428695 0.000889 0.840831
0.555619 0.000896 0.838537
0.681897 0.015900 0.834251
0.802871 0.000884 0.830596
0.862754 0.000871 0.829292
0.045577 0.254447 0.705427
0.040511 0.244555 0.719333
0.171156 0.000881 0.843020
0.302455 0.000884 0.844329
0.429595 0.000892 0.844177
0.555974 0.052867 0.839158
0.681953 0.061175 0.834147
0.803072 0.056096 0.830775
0.863186 0.050154 0.829661
0.039171 0.263464 0.769089
0.032816 0.251594 0.783862
0.172282 0.184034 0.848394
0.305192 0.190214 0.847064
0.433463 0.196710 0.844591
0.559665 0.199189 0.839776
0.683434 0.196753 0.833367
0.803458 0.194607 0.830157
0.863627 0.193444 0.828964
0.054458 0.339841 0.828584
0.051335 0.335518 0.835911
0.183504 0.329854 0.848506
0.316174 0.333267 0.849715
0.445320 0.336253 0.849723
0.572413 0.337099 0.847418
0.696261 0.335197 0.843243
0.813385 0.330701 0.837082
0.871054 0.327276 0.833037
0.100351 0.469105 0.853700
0.111429 0.469204 0.853792
0.212974 0.470751 0.855235
0.336341 0.473837 0.858120
0.463531 0.477115 0.861154
0.591053 0.478809 0.862030
0.716428 0.477631 0.859108
0.834640 0.473395 0.852483
0.892413 0.470147 0.847954
0.172580 0.610248 0.864465
0.178363 0.610361 0.864579
0.251355 0.612184 0.866419
0.363400 0.616235 0.870472
0.488235 0.621601 0.875686
0.617183 0.626038 0.879520
0.744667 0.626664 0.878746
0.863718 0.622453 0.872383
0.919868 0.618801 0.867465
0.240768 0.748950 0.869635
0.244613 0.749079 0.869762
0.299627 0.751222 0.871863
0.398261 0.756343 0.876879
0.517829 0.764389 0.884729
0.647691 0.774177 0.894089
0.779612 0.781325 0.900346
0.899575 0.778666 0.896413
0.947680 0.774196 0.891149
0.290869 0.869211 0.865336
0.293857 0.869338 0.865458
0.338801 0.871454 0.867494
0.426207 0.876634 0.872484
0.538364 0.885237 0.880801
0.664906 0.897192 0.892459
0.800829 0.911855 0.906935
0.932702 0.925203 0.919972
0.965042 0.921881 0.917081
0.305561 0.913772 0.861335
0.308333 0.913884 0.861451
0.350502 0.915737 0.863392
0.434168 0.920199 0.868158
0.543129 0.927343 0.876118
0.667067 0.936685 0.887313
0.804308 0.946824 0.902089
0.934662 0.955739 0.922636
0.967508 0.959247 0.933137
0.043750 0.259678 0.731219
0.038482 0.249565 0.744942
0.171380 0.000911 0.871445
0.302613 0.000914 0.872723
0.429419 0.000921 0.872902
0.556085 0.000929 0.870789
0.682207 0.009645 0.866911
0.803001 0.000922 0.863598
0.862911 0.000913 0.862261
0.043001 0.259545 0.736108
0.037566 0.249103 0.750055
0.172099 0.000915 0.875401
0.303282 0.000918 0.876416
0.430249 0.000925 0.876146
0.556450 0.051660 0.871522
0.682259 0.060493 0.866815
0.803184 0.056287 0.863778
0.863312 0.050523 0.862640
0.034455 0.265354 0.798982
0.026959 0.252193 0.814345
0.173526 0.188780 0.876603
0.305020 0.189217 0.876603
0.432289 0.193470 0.874420
0.558076 0.195959 0.869957
0.683023 0.195711 0.865461
0.803582 0.194663 0.863145
0.863761 0.193527 0.861934
0.046776 0.337622 0.859249
0.042861 0.332575 0.867072
0.182912 0.327314 0.878110
0.314806 0.330687 0.879340
0.443399 0.333690 0.879462
0.570105 0.334592 0.877449
0.693758 0.332740 0.873633
0.810960 0.328249 0.867616
0.868685 0.324818 0.863652
0.095786 0.466451 0.883575
0.107373 0.466546 0.883663
0.210431 0.468019 0.885047
0.333731 0.470962 0.887830
0.460576 0.474120 0.890754
0.587898 0.475837 0.891652
0.713318 0.474853 0.889015
0.831766 0.470890 0.882790
0.889715 0.467784 0.878463
0.168548 0.607589 0.894651
0.174449 0.607695 0.894757
0.248254 0.609405 0.896453
0.360433 0.613183 0.900143
0.484880 0.618155 0.904795
0.613363 0.622300 0.908185
0.740826 0.623111 0.907693
0.860364 0.619503 0.902273
0.917144 0.616188 0.897866
0.238928 0.747342 0.901116
0.242785 0.747466 0.901234
0.297882 0.749505 0.903180
0.396367 0.754344 0.907739
0.515381 0.761820 0.914583
0.644155 0.770589 0.922180
0.774965 0.776795 0.926928
0.895847 0.775139 0.924403
0.945523 0.771489 0.920408
0.291869 0.869598 0.899138
0.294843 0.869725 0.899258
0.339608 0.871826 0.901243
0.426777 0.876967 0.906056
0.538719 0.885495 0.913867
0.665026 0.897304 0.924302
0.800489 0.911595 0.936355
0.930054 0.922869 0.945360
0.964824 0.922062 0.942291
0.307634 0.914885 0.896085
0.310388 0.914997 0.896201
0.352327 0.916851 0.898137
0.435730 0.921319 0.902854
0.544573 0.928486 0.910587
0.668475 0.937914 0.921080
0.802109 0.948678 0.933521
0.936061 0.958717 0.947006
0.969436 0.962201 0.954563
