color-grading/luts/02_looks/BNC_L12_Vivid.cube
TITLE "BNC L12 Vivid"
# BNC Grade v1.0 - High-punch, high-vibrance grade with cool blue shadows lifted in luminance for extra pop.
# Input: Rec.709 Gamma 2.4 | Output: Rec.709 Gamma 2.4
LUT_3D_SIZE 33
DOMAIN_MIN 0.0 0.0 0.0
DOMAIN_MAX 1.0 1.0 1.0
0.002839 0.002839 0.002839
0.009313 0.000370 0.001940
0.024232 0.000000 0.000000
0.052706 0.000000 0.000000
0.086216 0.000000 0.000000
0.119303 0.000000 0.000000
0.151929 0.000000 0.000000
0.184107 0.000000 0.000000
0.215854 0.000000 0.000000
0.247182 0.000000 0.000000
0.278104 0.000000 0.000000
0.308629 0.000000 0.000000
0.338767 0.000000 0.000000
0.368527 0.000000 0.000000
0.397915 0.000000 0.000000
0.426939 0.000000 0.000000
0.455604 0.000000 0.000000
0.483916 0.000000 0.000000
0.511882 0.000000 0.000000
0.539504 0.000000 0.000000
0.566789 0.000000 0.000000
0.593741 0.000000 0.000000
0.620363 0.000000 0.000000
0.646659 0.000000 0.000000
0.672634 0.000000 0.000000
0.698290 0.000000 0.000000
0.723625 0.000000 0.000000
0.747828 0.000000 0.000000
0.768859 0.000000 0.000000
0.785563 0.000000 0.000000
0.798002 0.000000 0.000000
0.808357 0.000000 0.000000
0.815368 0.000000 0.000000
0.000010 0.009057 0.003363
0.008713 0.008680 0.000188
0.024385 0.007697 0.000000
0.052875 0.006701 0.000000
0.086309 0.006558 0.000000
0.119364 0.006472 0.000000
0.151974 0.006400 0.000000
0.184143 0.006334 0.000000
0.215883 0.006274 0.000000
0.247206 0.006215 0.000000
0.278125 0.006156 0.000000
0.308647 0.006102 0.000000
0.338784 0.006047 0.000000
0.368541 0.006000 0.000000
0.397928 0.005941 0.000000
0.426951 0.005895 0.000000
0.455615 0.005843 0.000000
0.483927 0.005800 0.000000
0.511891 0.005761 0.000000
0.539514 0.005705 0.000000
0.566798 0.005652 0.000000
0.593749 0.005615 0.000000
0.620371 0.005586 0.000000
0.646666 0.006268 0.000000
0.672641 0.006226 0.000000
0.698297 0.006209 0.000000
0.723632 0.006150 0.000000
0.747834 0.006121 0.000000
0.768864 0.006108 0.000000
0.785568 0.006073 0.000000
0.798003 0.006076 0.000000
0.808359 0.006089 0.000000
0.815370 0.006063 0.000000
0.000025 0.023739 0.010594
0.000025 0.024049 0.009151
0.023740 0.023872 0.000000
0.052923 0.023445 0.000000
0.086456 0.023095 0.000000
0.119507 0.022853 0.000000
0.152103 0.022652 0.000000
0.184260 0.022470 0.000000
0.215990 0.022300 0.000000
0.247305 0.022137 0.000000
0.278216 0.021980 0.000000
0.308733 0.021828 0.000000
0.338864 0.021679 0.000000
0.368618 0.021535 0.000000
0.398001 0.021392 0.000000
0.427020 0.021254 0.000000
0.455682 0.021117 0.000000
0.483991 0.020984 0.000000
0.511953 0.020848 0.000000
0.539573 0.020721 0.000000
0.566855 0.020592 0.000000
0.593804 0.020463 0.000000
0.620424 0.020335 0.000000
0.646718 0.020347 0.000000
0.672691 0.020222 0.000000
0.698346 0.020101 0.000000
0.723680 0.019979 0.000000
0.747881 0.019867 0.000000
0.768910 0.019765 0.000000
0.785613 0.019688 0.000000
0.798003 0.019632 0.000000
0.808359 0.019634 0.000000
0.815370 0.019629 0.000000
0.000055 0.052136 0.023761
0.000055 0.052232 0.023393
0.009853 0.053388 0.016003
0.052427 0.052777 0.000000
0.086911 0.052443 0.000000
0.120174 0.051924 0.000000
0.152797 0.051422 0.000000
0.184930 0.050968 0.000000
0.216624 0.050551 0.000000
0.247903 0.050161 0.000000
0.278779 0.049790 0.000000
0.309265 0.049435 0.000000
0.339369 0.049092 0.000000
0.369098 0.048759 0.000000
0.398459 0.048434 0.000000
0.427458 0.048117 0.000000
0.456102 0.047806 0.000000
0.484394 0.047501 0.000000
0.512342 0.047201 0.000000
0.539948 0.046905 0.000000
0.567218 0.046614 0.000000
0.594156 0.046325 0.000000
0.620766 0.046042 0.000000
0.647050 0.045804 0.000000
0.673014 0.045526 0.000000
0.698660 0.045252 0.000000
0.723985 0.044982 0.000000
0.748180 0.044721 0.000000
0.769203 0.044495 0.000000
0.785901 0.044316 0.000000
0.798243 0.044183 0.000000
0.808359 0.044170 0.000000
0.815370 0.044169 0.000000
0.000089 0.085475 0.039088
0.000090 0.085521 0.038912
0.000090 0.086148 0.035887
0.042029 0.087630 0.022787
0.086107 0.086698 0.000000
0.120672 0.086413 0.000000
0.153849 0.085816 0.000000
0.186224 0.085069 0.000000
0.218003 0.084322 0.000000
0.249294 0.083609 0.000000
0.280148 0.082935 0.000000
0.310597 0.082295 0.000000
0.340657 0.081683 0.000000
0.370341 0.081096 0.000000
0.399657 0.080528 0.000000
0.428614 0.079977 0.000000
0.457218 0.079440 0.000000
0.485473 0.078916 0.000000
0.513386 0.078403 0.000000
0.540959 0.077900 0.000000
0.568199 0.077405 0.000000
0.595108 0.076919 0.000000
0.621691 0.076439 0.000000
0.647950 0.075987 0.000000
0.673890 0.075521 0.000000
0.699514 0.075060 0.000000
0.724819 0.074605 0.000000
0.748994 0.074170 0.000000
0.770001 0.073791 0.000000
0.786687 0.073489 0.000000
0.799021 0.073267 0.000000
0.808359 0.073173 0.000000
0.815370 0.073172 0.000000
0.000124 0.118369 0.054174
0.000124 0.118396 0.054064
0.000124 0.118773 0.052307
0.000128 0.121239 0.034690
0.076788 0.121368 0.025006
0.119399 0.120224 0.000000
0.154017 0.119968 0.000000
0.187167 0.119399 0.000000
0.219439 0.118530 0.000000
0.251006 0.117562 0.000000
0.282003 0.116586 0.000000
0.312515 0.115636 0.000000
0.342592 0.114720 0.000000
0.372265 0.113840 0.000000
0.401555 0.112993 0.000000
0.430477 0.112175 0.000000
0.459039 0.111382 0.000000
0.487252 0.110612 0.000000
0.515121 0.109862 0.000000
0.542651 0.109130 0.000000
0.569849 0.108413 0.000000
0.596717 0.107710 0.000000
0.623260 0.107021 0.000000
0.649483 0.106342 0.000000
0.675386 0.105687 0.000000
0.700976 0.105028 0.000000
0.726248 0.104379 0.000000
0.750393 0.103760 0.000000
0.771375 0.103220 0.000000
0.788041 0.102793 0.000000
0.800360 0.102475 0.000000
0.808990 0.102253 0.000000
0.815369 0.102174 0.000000
0.000158 0.150811 0.069042
0.000158 0.150830 0.068965
0.000158 0.151084 0.067761
0.000160 0.152674 0.058287
0.061795 0.154723 0.039348
0.110468 0.154609 0.023224
0.152302 0.153357 0.000000
0.186964 0.153118 0.000000
0.220084 0.152618 0.000000
0.252320 0.151719 0.000000
0.283776 0.150617 0.000000
0.314583 0.149438 0.000000
0.344842 0.148248 0.000000
0.374621 0.147076 0.000000
0.403966 0.145934 0.000000
0.432908 0.144826 0.000000
0.461468 0.143753 0.000000
0.489663 0.142710 0.000000
0.517504 0.141698 0.000000
0.545000 0.140711 0.000000
0.572160 0.139749 0.000000
0.598988 0.138809 0.000000
0.625489 0.137888 0.000000
0.651669 0.136986 0.000000
0.677531 0.136108 0.000000
0.703080 0.135237 0.000000
0.728311 0.134379 0.000000
0.752418 0.133562 0.000000
0.773367 0.132853 0.000000
0.790008 0.132291 0.000000
0.802309 0.131875 0.000000
0.810925 0.131584 0.000000
0.816737 0.131387 0.000000
0.000191 0.182823 0.083708
0.000191 0.182836 0.083651
0.000192 0.183019 0.082754
0.000193 0.184174 0.076284
0.028055 0.187359 0.049804
0.097438 0.187758 0.041252
0.143581 0.187426 0.013366
0.184834 0.186115 0.000000
0.219536 0.185887 0.000000
0.252610 0.185467 0.000000
0.284830 0.184593 0.000000
0.316235 0.183428 0.000000
0.346928 0.182112 0.000000
0.377011 0.180732 0.000000
0.406564 0.179339 0.000000
0.435643 0.177958 0.000000
0.464290 0.176602 0.000000
0.492535 0.175279 0.000000
0.520399 0.173988 0.000000
0.547898 0.172729 0.000000
0.575047 0.171502 0.000000
0.601854 0.170304 0.000000
0.628328 0.169133 0.000000
0.654476 0.167987 0.000000
0.680302 0.166864 0.000000
0.705811 0.165768 0.000000
0.731003 0.164686 0.000000
0.755071 0.163657 0.000000
0.775985 0.162766 0.000000
0.792599 0.162059 0.000000
0.804879 0.161538 0.000000
0.813481 0.161172 0.000000
0.819283 0.160927 0.000000
0.000224 0.214420 0.098183
0.000224 0.214430 0.098137
0.000225 0.214569 0.097433
0.000226 0.215445 0.092567
0.000229 0.217751 0.074420
0.078632 0.220063 0.053078
0.131182 0.220365 0.039991
0.176436 0.219742 0.000000
0.217010 0.218515 0.000000
0.251749 0.218292 0.000000
0.284762 0.217954 0.000000
0.316966 0.217133 0.000000
0.348348 0.215958 0.000000
0.378978 0.214561 0.000000
0.408947 0.213043 0.000000
0.438335 0.211470 0.000000
0.467208 0.209881 0.000000
0.495613 0.208301 0.000000
0.523589 0.206742 0.000000
0.551164 0.205212 0.000000
0.578358 0.203713 0.000000
0.605189 0.202247 0.000000
0.631671 0.200812 0.000000
0.657813 0.199407 0.000000
0.683624 0.198032 0.000000
0.709111 0.196688 0.000000
0.734275 0.195366 0.000000
0.758312 0.194110 0.000000
0.779198 0.193023 0.000000
0.795786 0.192162 0.000000
0.808047 0.191528 0.000000
0.816636 0.191084 0.000000
0.822429 0.190785 0.000000
0.000257 0.245616 0.112473
0.000257 0.245624 0.112435
0.000257 0.245733 0.111863
0.000258 0.246419 0.107998
0.000261 0.248242 0.095024
0.040973 0.251799 0.062342
0.115281 0.252395 0.053845
0.164107 0.252572 0.034317
0.208856 0.251679 0.000000
0.248843 0.250569 0.000000
0.283618 0.250348 0.000000
0.316558 0.250089 0.000000
0.348737 0.249334 0.000000
0.380106 0.248182 0.000000
0.410704 0.246750 0.000000
0.440601 0.245141 0.000000
0.469875 0.243430 0.000000
0.498592 0.241670 0.000000
0.526805 0.239893 0.000000
0.554559 0.238122 0.000000
0.581886 0.236369 0.000000
0.608812 0.234641 0.000000
0.635360 0.232942 0.000000
0.661545 0.231274 0.000000
0.687381 0.229638 0.000000
0.712879 0.228033 0.000000
0.738041 0.226462 0.000000
0.762068 0.224967 0.000000
0.782939 0.223674 0.000000
0.799513 0.222651 0.000000
0.811761 0.221896 0.000000
0.820341 0.221369 0.000000
0.826127 0.221013 0.000000
0.000289 0.276424 0.126584
0.000289 0.276431 0.126553
0.000289 0.276518 0.126074
0.000290 0.277068 0.122894
0.000292 0.278538 0.112818
0.000296 0.281059 0.087837
0.092685 0.283788 0.063991
0.149331 0.284352 0.051652
0.196489 0.284404 0.016728
0.240832 0.283291 0.000000
0.280342 0.282287 0.000000
0.315153 0.282066 0.000000
0.348012 0.281882 0.000000
0.380155 0.281200 0.000000
0.411512 0.280092 0.000000
0.442092 0.278659 0.000000
0.471948 0.276997 0.000000
0.501145 0.275188 0.000000
0.529747 0.273291 0.000000
0.557812 0.271349 0.000000
0.585385 0.269391 0.000000
0.612504 0.267435 0.000000
0.639201 0.265494 0.000000
0.665499 0.263575 0.000000
0.691419 0.261684 0.000000
0.716977 0.259823 0.000000
0.742180 0.257992 0.000000
0.766231 0.256255 0.000000
0.787113 0.254748 0.000000
0.803690 0.253556 0.000000
0.815938 0.252677 0.000000
0.824516 0.252062 0.000000
0.830300 0.251648 0.000000
0.000321 0.306854 0.140521
0.000321 0.306859 0.140495
0.000321 0.306930 0.140087
0.000322 0.307380 0.137403
0.000324 0.308585 0.129199
0.000327 0.310565 0.110909
0.049216 0.314679 0.072059
0.130496 0.315441 0.063187
0.182231 0.315943 0.045313
0.228955 0.315656 0.000000
0.272410 0.314585 0.000000
0.311516 0.313678 0.000000
0.346363 0.313455 0.000000
0.379135 0.313342 0.000000
0.411233 0.312735 0.000000
0.442573 0.311684 0.000000
0.473142 0.310273 0.000000
0.502973 0.308590 0.000000
0.532121 0.306717 0.000000
0.560642 0.304718 0.000000
0.588594 0.302641 0.000000
0.616023 0.300523 0.000000
0.642972 0.298387 0.000000
0.669473 0.296252 0.000000
0.695554 0.294129 0.000000
0.721240 0.292027 0.000000
0.746542 0.289950 0.000000
0.770667 0.287968 0.000000
0.791597 0.286252 0.000000
0.808204 0.284889 0.000000
0.820470 0.283884 0.000000
0.829058 0.283181 0.000000
0.834848 0.282707 0.000000
0.000353 0.336914 0.154289
0.000353 0.336918 0.154266
0.000353 0.336977 0.153913
0.000353 0.337350 0.151604
0.000355 0.338351 0.144714
0.000357 0.340009 0.130288
0.000362 0.343036 0.099506
0.103914 0.345989 0.071867
0.165039 0.346754 0.059302
0.214426 0.347181 0.030253
0.260979 0.346544 0.000000
0.303618 0.345566 0.000000
0.342373 0.344750 0.000000
0.377256 0.344522 0.000000
0.409937 0.344479 0.000000
0.441980 0.343946 0.000000
0.473296 0.342959 0.000000
0.503856 0.341586 0.000000
0.533673 0.339907 0.000000
0.562789 0.337998 0.000000
0.591255 0.335926 0.000000
0.619123 0.333744 0.000000
0.646441 0.331493 0.000000
0.673250 0.329202 0.000000
0.699588 0.326894 0.000000
0.725484 0.324584 0.000000
0.750959 0.322286 0.000000
0.775219 0.320080 0.000000
0.796247 0.318159 0.000000
0.812919 0.316635 0.000000
0.825227 0.315506 0.000000
0.833841 0.314716 0.000000
0.839648 0.314183 0.000000
0.000384 0.366613 0.167892
0.000384 0.366617 0.167871
0.000384 0.366666 0.167561
0.000384 0.366978 0.165545
0.000385 0.367818 0.159629
0.000388 0.369218 0.147737
0.000391 0.371119 0.124732
0.052369 0.376074 0.078674
0.143124 0.376988 0.069041
0.198076 0.377730 0.050814
0.246685 0.377882 0.000000
0.292517 0.377125 0.000000
0.334476 0.376241 0.000000
0.372920 0.375509 0.000000
0.407824 0.375283 0.000000
0.440425 0.375299 0.000000
0.472408 0.374838 0.000000
0.503693 0.373919 0.000000
0.534239 0.372596 0.000000
0.564047 0.370939 0.000000
0.593144 0.369018 0.000000
0.621572 0.366899 0.000000
0.649380 0.364638 0.000000
0.676612 0.362279 0.000000
0.703310 0.359857 0.000000
0.729513 0.357397 0.000000
0.755247 0.354922 0.000000
0.779717 0.352525 0.000000
0.800902 0.350424 0.000000
0.817684 0.348748 0.000000
0.830063 0.347507 0.000000
0.838725 0.346634 0.000000
0.844562 0.346045 0.000000
0.000414 0.395958 0.181331
0.000414 0.395961 0.181313
0.000414 0.396002 0.181038
0.000415 0.396266 0.179256
0.000416 0.396977 0.174091
0.000418 0.398167 0.163999
0.000421 0.399801 0.145658
0.000426 0.403431 0.109804
0.112139 0.406734 0.076270
0.178339 0.407672 0.062639
0.230212 0.408375 0.031610
0.278824 0.408098 0.000000
0.323623 0.407406 0.000000
0.365000 0.406614 0.000000
0.403163 0.405962 0.000000
0.438065 0.405745 0.000000
0.470607 0.405809 0.000000
0.502523 0.405419 0.000000
0.533770 0.404570 0.000000
0.564299 0.403304 0.000000
0.594097 0.401681 0.000000
0.623182 0.399766 0.000000
0.651586 0.397623 0.000000
0.679351 0.395307 0.000000
0.706519 0.392864 0.000000
0.733130 0.390333 0.000000
0.759217 0.387745 0.000000
0.783982 0.385208 0.000000
0.805393 0.382965 0.000000
0.822334 0.381163 0.000000
0.834822 0.379821 0.000000
0.843554 0.378877 0.000000
0.849437 0.378239 0.000000
0.000445 0.424954 0.194612
0.000445 0.424957 0.194595
0.000445 0.424992 0.194349
0.000445 0.425217 0.192758
0.000446 0.425822 0.188190
0.000448 0.426840 0.179444
0.000450 0.428248 0.164197
0.000453 0.429967 0.136978
0.048189 0.436045 0.081675
0.153108 0.437101 0.070732
0.211668 0.438041 0.050170
0.262679 0.438421 0.000000
0.310385 0.438015 0.000000
0.354333 0.437394 0.000000
0.395202 0.436690 0.000000
0.433106 0.436114 0.000000
0.467989 0.435913 0.000000
0.500489 0.436015 0.000000
0.532333 0.435694 0.000000
0.563536 0.434914 0.000000
0.594042 0.433710 0.000000
0.623830 0.432132 0.000000
0.652906 0.430238 0.000000
0.681294 0.428089 0.000000
0.709029 0.425738 0.000000
0.736150 0.423233 0.000000
0.762687 0.420615 0.000000
0.787837 0.418008 0.000000
0.809546 0.415673 0.000000
0.826703 0.413781 0.000000
0.839339 0.412365 0.000000
0.848169 0.411365 0.000000
0.854115 0.410687 0.000000
0.000475 0.453609 0.207735
0.000475 0.453612 0.207720
0.000475 0.453642 0.207498
0.000475 0.453834 0.206066
0.000476 0.454352 0.201982
0.000477 0.455226 0.194284
0.000479 0.456442 0.181253
0.000482 0.457916 0.159360
0.000489 0.462290 0.119023
0.117027 0.466078 0.076378
0.189207 0.467171 0.060385
0.243871 0.468097 0.009718
0.294967 0.467997 0.000000
0.341448 0.467640 0.000000
0.384674 0.467092 0.000000
0.425091 0.466474 0.000000
0.462756 0.465970 0.000000
0.497606 0.465791 0.000000
0.530075 0.465922 0.000000
0.561845 0.465668 0.000000
0.592998 0.464958 0.000000
0.623476 0.463818 0.000000
0.653250 0.462292 0.000000
0.682318 0.460430 0.000000
0.710695 0.458289 0.000000
0.738410 0.455920 0.000000
0.765489 0.453374 0.000000
0.791111 0.450779 0.000000
0.813195 0.448418 0.000000
0.830627 0.446483 0.000000
0.843453 0.445024 0.000000
0.852409 0.443988 0.000000
0.858438 0.443283 0.000000
0.000504 0.481928 0.220705
0.000504 0.481930 0.220691
0.000504 0.481956 0.220490
0.000505 0.482120 0.219191
0.000505 0.482566 0.215508
0.000507 0.483319 0.208649
0.000508 0.484371 0.197287
0.000511 0.485660 0.178969
0.000515 0.487934 0.148186
0.024726 0.494640 0.080098
0.160307 0.495832 0.066760
0.222987 0.496944 0.039043
0.277277 0.497353 0.000000
0.326584 0.497280 0.000000
0.372067 0.496978 0.000000
0.414666 0.496505 0.000000
0.454676 0.495970 0.000000
0.492117 0.495535 0.000000
0.526923 0.495380 0.000000
0.559372 0.495536 0.000000
0.591064 0.495347 0.000000
0.622163 0.494705 0.000000
0.652607 0.493632 0.000000
0.682364 0.492161 0.000000
0.711422 0.490341 0.000000
0.739791 0.488220 0.000000
0.767485 0.485850 0.000000
0.793658 0.483364 0.000000
0.816187 0.481053 0.000000
0.833950 0.479131 0.000000
0.847008 0.477666 0.000000
0.856120 0.476620 0.000000
0.862251 0.475906 0.000000
0.000534 0.509915 0.233523
0.000534 0.509916 0.233510
0.000534 0.509939 0.233326
0.000534 0.510081 0.232141
0.000535 0.510465 0.228796
0.000536 0.511115 0.222622
0.000537 0.512027 0.212566
0.000539 0.513152 0.196825
0.000542 0.514377 0.171694
0.000549 0.519656 0.127358
0.118009 0.524065 0.070438
0.197562 0.525303 0.048549
0.256927 0.526111 0.000000
0.309740 0.526307 0.000000
0.357634 0.526277 0.000000
0.402280 0.526035 0.000000
0.444323 0.525636 0.000000
0.483963 0.525182 0.000000
0.521193 0.524812 0.000000
0.555946 0.524686 0.000000
0.588383 0.524861 0.000000
0.619995 0.524735 0.000000
0.651035 0.524161 0.000000
0.681441 0.523154 0.000000
0.711176 0.521743 0.000000
0.740223 0.519969 0.000000
0.768577 0.517879 0.000000
0.795359 0.515600 0.000000
0.818393 0.513422 0.000000
0.836538 0.511575 0.000000
0.849867 0.510149 0.000000
0.859163 0.509123 0.000000
0.865415 0.508418 0.000000
0.000563 0.537575 0.246191
0.000563 0.537577 0.246179
0.000563 0.537596 0.246010
0.000563 0.537718 0.244923
0.000563 0.538050 0.241865
0.000564 0.538612 0.236264
0.000566 0.539402 0.227259
0.000568 0.540383 0.213470
0.000570 0.541466 0.192330
0.000575 0.544450 0.158367
0.000584 0.551439 0.083046
0.164474 0.553222 0.052755
0.233128 0.554308 0.000000
0.290702 0.554742 0.000000
0.341432 0.554976 0.000000
0.388189 0.554994 0.000000
0.432113 0.554814 0.000000
0.473659 0.554490 0.000000
0.512958 0.554113 0.000000
0.549988 0.553807 0.000000
0.584681 0.553711 0.000000
0.617113 0.553902 0.000000
0.648642 0.553837 0.000000
0.679620 0.553328 0.000000
0.709983 0.552388 0.000000
0.739692 0.551039 0.000000
0.768718 0.549318 0.000000
0.796140 0.547338 0.000000
0.819720 0.545373 0.000000
0.838286 0.543665 0.000000
0.851917 0.542325 0.000000
0.861420 0.541350 0.000000
0.867809 0.540676 0.000000
0.000591 0.564913 0.258711
0.000591 0.564914 0.258698
0.000591 0.564931 0.258542
0.000591 0.565037 0.257540
0.000592 0.565324 0.254729
0.000593 0.565810 0.249612
0.000594 0.566495 0.241471
0.000596 0.567348 0.229217
0.000598 0.568298 0.210972
0.000600 0.569214 0.182872
0.000609 0.575570 0.134950
0.114072 0.580734 0.053075
0.204347 0.581977 0.000000
0.269004 0.582616 0.000000
0.323352 0.583089 0.000000
0.372488 0.583365 0.000000
0.418298 0.583435 0.000000
0.461588 0.583319 0.000000
0.502683 0.583069 0.000000
0.541667 0.582767 0.000000
0.578506 0.582523 0.000000
0.613132 0.582458 0.000000
0.645566 0.582661 0.000000
0.677011 0.582656 0.000000
0.707923 0.582212 0.000000
0.738239 0.581337 0.000000
0.767911 0.580052 0.000000
0.795973 0.578447 0.000000
0.820115 0.576770 0.000000
0.839124 0.575261 0.000000
0.853079 0.574052 0.000000
0.862807 0.573160 0.000000
0.869345 0.572538 0.000000
0.000619 0.591933 0.271085
0.000619 0.591934 0.271074
0.000619 0.591948 0.270929
0.000620 0.592040 0.270002
0.000620 0.592288 0.267406
0.000621 0.592708 0.262703
0.000622 0.593301 0.255286
0.000623 0.594041 0.244272
0.000625 0.594871 0.228227
0.000627 0.595685 0.204484
0.000633 0.599548 0.167672
0.000643 0.606714 0.087196
0.167129 0.609148 0.000000
0.243798 0.609960 0.000000
0.303109 0.610643 0.000000
0.355135 0.611158 0.000000
0.402997 0.611480 0.000000
0.447998 0.611605 0.000000
0.490722 0.611555 0.000000
0.531404 0.611377 0.000000
0.570094 0.611147 0.000000
0.606749 0.610963 0.000000
0.641305 0.610932 0.000000
0.673744 0.611144 0.000000
0.705104 0.611196 0.000000
0.735948 0.610816 0.000000
0.766206 0.610007 0.000000
0.794876 0.608832 0.000000
0.819570 0.607500 0.000000
0.839026 0.606243 0.000000
0.853313 0.605205 0.000000
0.863273 0.604425 0.000000
0.869968 0.603876 0.000000
0.000647 0.618638 0.283316
0.000647 0.618639 0.283305
0.000647 0.618652 0.283171
0.000648 0.618731 0.282309
0.000648 0.618945 0.279901
0.000649 0.619308 0.275558
0.000650 0.619820 0.268755
0.000651 0.620460 0.258764
0.000653 0.621181 0.244458
0.000654 0.621895 0.223887
0.000658 0.623340 0.193331
0.000667 0.630066 0.141899
0.109564 0.635847 0.000000
0.213476 0.636803 0.000000
0.280187 0.637667 0.000000
0.335955 0.638395 0.000000
0.386211 0.638955 0.000000
0.433019 0.639325 0.000000
0.477316 0.639507 0.000000
0.519529 0.639522 0.000000
0.559830 0.639416 0.000000
0.598243 0.639256 0.000000
0.634723 0.639131 0.000000
0.669204 0.639134 0.000000
0.701651 0.639353 0.000000
0.732926 0.639462 0.000000
0.763691 0.639143 0.000000
0.792909 0.638430 0.000000
0.818120 0.637483 0.000000
0.838006 0.636517 0.000000
0.852620 0.635684 0.000000
0.862811 0.635041 0.000000
0.869662 0.634580 0.000000
0.000675 0.645033 0.295404
0.000675 0.645034 0.295394
0.000675 0.645045 0.295268
0.000675 0.645113 0.294465
0.000675 0.645297 0.292223
0.000676 0.645610 0.288194
0.000677 0.646051 0.281920
0.000678 0.646602 0.272788
0.000680 0.647224 0.259891
0.000681 0.647843 0.241746
0.000683 0.648344 0.215596
0.000690 0.653256 0.176225
0.000700 0.660582 0.090970
0.174457 0.663170 0.000000
0.253691 0.664187 0.000000
0.314620 0.665102 0.000000
0.367838 0.665877 0.000000
0.416686 0.666483 0.000000
0.462601 0.666905 0.000000
0.506272 0.667145 0.000000
0.548021 0.667226 0.000000
0.587967 0.667189 0.000000
0.626119 0.667098 0.000000
0.662428 0.667029 0.000000
0.696831 0.667067 0.000000
0.729289 0.667292 0.000000
0.760471 0.667455 0.000000
0.790160 0.667212 0.000000
0.815833 0.666672 0.000000
0.836116 0.666022 0.000000
0.851035 0.665415 0.000000
0.861447 0.664927 0.000000
0.868450 0.664569 0.000000
0.000702 0.671121 0.307352
0.000702 0.671122 0.307342
0.000702 0.671131 0.307225
0.000702 0.671189 0.306473
0.000703 0.671347 0.304379
0.000703 0.671616 0.300627
0.000704 0.671994 0.294812
0.000705 0.672466 0.286412
0.000706 0.672998 0.274681
0.000708 0.673529 0.258456
0.000710 0.673962 0.235727
0.000714 0.676256 0.203012
0.000723 0.683177 0.148294
0.114411 0.689084 0.000000
0.221953 0.690229 0.000000
0.290575 0.691304 0.000000
0.347664 0.692270 0.000000
0.398944 0.693092 0.000000
0.446634 0.693747 0.000000
0.491776 0.694222 0.000000
0.534885 0.694522 0.000000
0.576205 0.694668 0.000000
0.615820 0.694700 0.000000
0.653725 0.694674 0.000000
0.689870 0.694660 0.000000
0.724191 0.694735 0.000000
0.756643 0.694969 0.000000
0.786733 0.695180 0.000000
0.812799 0.695049 0.000000
0.833431 0.694725 0.000000
0.848628 0.694358 0.000000
0.859241 0.694036 0.000000
0.866384 0.693788 0.000000
0.000729 0.696905 0.319160
0.000729 0.696905 0.319151
0.000729 0.696913 0.319041
0.000729 0.696963 0.318336
0.000730 0.697098 0.316374
0.000730 0.697327 0.312867
0.000731 0.697649 0.307455
0.000732 0.698051 0.299686
0.000733 0.698502 0.288937
0.000734 0.698950 0.274273
0.000736 0.699314 0.254168
0.000737 0.699470 0.225787
0.000746 0.705603 0.184114
0.000756 0.713075 0.094427
0.181268 0.715813 0.000000
0.262888 0.717025 0.000000
0.325325 0.718158 0.000000
0.379652 0.719174 0.000000
0.429395 0.720045 0.000000
0.476109 0.720750 0.000000
0.520569 0.721279 0.000000
0.563169 0.721639 0.000000
0.604092 0.721851 0.000000
0.643395 0.721950 0.000000
0.681065 0.721988 0.000000
0.717049 0.722029 0.000000
0.751279 0.722140 0.000000
0.782682 0.722375 0.000000
0.809122 0.722621 0.000000
0.830048 0.722622 0.000000
0.845483 0.722497 0.000000
0.856275 0.722344 0.000000
0.863542 0.722211 0.000000
0.000756 0.722381 0.330828
0.000756 0.722382 0.330819
0.000756 0.722389 0.330715
0.000756 0.722431 0.330052
0.000756 0.722546 0.328209
0.000757 0.722739 0.324921
0.000757 0.723012 0.319865
0.000758 0.723350 0.312646
0.000759 0.723728 0.302736
0.000760 0.724100 0.289367
0.000762 0.724397 0.271344
0.000763 0.724514 0.246605
0.000768 0.727831 0.211953
0.000778 0.734926 0.154184
0.118968 0.740952 0.000000
0.229849 0.742280 0.000000
0.300251 0.743556 0.000000
0.358571 0.744745 0.000000
0.410797 0.745812 0.000000
0.459281 0.746733 0.000000
0.505155 0.747489 0.000000
