color-grading/luts/02_looks/BNC_L06_Nostalgic.cube
TITLE "BNC L06 Nostalgic"
# BNC Grade v1.0 — Soft vintage look: lifted blacks, warm greens, cyan-leaning shadows and a gentle highlight shoulder.
# Input: Rec.709 Gamma 2.4 | Output: Rec.709 Gamma 2.4
LUT_3D_SIZE 33
DOMAIN_MIN 0.0 0.0 0.0
DOMAIN_MAX 1.0 1.0 1.0
0.029886 0.033920 0.036817
0.041770 0.035099 0.037889
0.063151 0.039387 0.040577
0.089295 0.047672 0.045102
0.116728 0.056487 0.050099
0.146179 0.063540 0.054671
0.175745 0.070253 0.059352
0.205275 0.076704 0.064085
0.234770 0.082839 0.068788
0.264223 0.088631 0.073410
0.293630 0.094061 0.077915
0.322984 0.099120 0.082284
0.352278 0.103805 0.086501
0.381504 0.108111 0.090559
0.410658 0.112041 0.094452
0.439731 0.115597 0.098178
0.468717 0.118783 0.101736
0.497611 0.121606 0.105127
0.526405 0.124074 0.108355
0.555094 0.126198 0.111421
0.583671 0.127990 0.114332
0.612131 0.129469 0.117092
0.640467 0.130654 0.119708
0.668673 0.131569 0.122187
0.696744 0.132244 0.124538
0.724674 0.132715 0.126769
0.752458 0.133023 0.128892
0.780088 0.133158 0.130811
0.806743 0.132719 0.131706
0.830333 0.131779 0.131542
0.849513 0.130616 0.130700
0.864082 0.129480 0.129595
0.874604 0.128518 0.128525
0.029362 0.046744 0.037739
0.037561 0.048563 0.040413
0.060892 0.051683 0.042360
0.088288 0.057483 0.046590
0.116620 0.064034 0.051195
0.146290 0.069854 0.055561
0.175886 0.075732 0.060106
0.205428 0.081528 0.064726
0.234927 0.087144 0.069337
0.264381 0.092517 0.073884
0.293785 0.097608 0.078329
0.323134 0.102390 0.082649
0.352422 0.106845 0.086827
0.381642 0.110961 0.090851
0.410790 0.114731 0.094717
0.439857 0.118153 0.098419
0.468838 0.121226 0.101957
0.497726 0.123953 0.105332
0.526515 0.126341 0.108545
0.555199 0.128398 0.111599
0.583772 0.130136 0.114499
0.612227 0.131569 0.117250
0.640558 0.132717 0.119857
0.668760 0.133604 0.122330
0.696827 0.134257 0.124674
0.724753 0.134711 0.126900
0.752533 0.135007 0.129018
0.780161 0.135130 0.130925
0.806815 0.134686 0.131799
0.830403 0.133753 0.131618
0.849582 0.132605 0.130762
0.864149 0.131487 0.129648
0.874669 0.130541 0.128570
0.030709 0.070832 0.042510
0.035620 0.072469 0.041812
0.052416 0.076047 0.048142
0.085007 0.079384 0.051268
0.117342 0.082258 0.052345
0.147329 0.086055 0.056893
0.176712 0.090480 0.061761
0.206121 0.095013 0.066391
0.235541 0.099528 0.070898
0.264943 0.103952 0.075311
0.294310 0.108228 0.079623
0.323629 0.112310 0.083819
0.352894 0.116164 0.087884
0.382094 0.119762 0.091808
0.411223 0.123088 0.095585
0.440272 0.126130 0.099212
0.469235 0.128880 0.102686
0.498106 0.131334 0.106006
0.526878 0.133490 0.109171
0.555545 0.135352 0.112185
0.584102 0.136927 0.115049
0.612542 0.138226 0.117770
0.640859 0.139266 0.120351
0.669048 0.140067 0.122800
0.697101 0.140654 0.125125
0.725015 0.141058 0.127334
0.752782 0.141318 0.129438
0.780402 0.141402 0.131300
0.807052 0.140941 0.132104
0.830635 0.140029 0.131866
0.849808 0.138925 0.130966
0.864371 0.137858 0.129819
0.874887 0.136958 0.128718
0.037728 0.100899 0.042761
0.045397 0.101439 0.042985
0.062879 0.103051 0.048220
0.083198 0.107309 0.057163
0.115290 0.109898 0.060206
0.147152 0.112158 0.061490
0.178686 0.113999 0.062531
0.208255 0.116871 0.067465
0.237370 0.120200 0.072586
0.266496 0.123592 0.077296
0.295663 0.126923 0.081687
0.324840 0.130141 0.085851
0.353996 0.133213 0.089835
0.383112 0.136112 0.093657
0.412172 0.138814 0.097327
0.441165 0.141302 0.100846
0.470080 0.143562 0.104215
0.498910 0.145584 0.107435
0.527647 0.147362 0.110506
0.556281 0.148900 0.113435
0.584806 0.150202 0.116226
0.613214 0.151275 0.118883
0.641502 0.152130 0.121408
0.669661 0.152782 0.123810
0.697687 0.153254 0.126093
0.725573 0.153571 0.128266
0.753315 0.153768 0.130339
0.780920 0.153775 0.132092
0.807562 0.153280 0.132749
0.831134 0.152400 0.132389
0.850295 0.151365 0.131395
0.864847 0.150380 0.130178
0.875354 0.149557 0.129027
0.061173 0.129269 0.049645
0.065834 0.129605 0.049366
0.078034 0.130820 0.048126
0.095974 0.133555 0.056905
0.115540 0.137952 0.066406
0.146307 0.140299 0.069496
0.177554 0.142239 0.071850
0.209567 0.143292 0.070068
0.240062 0.144713 0.072680
0.269287 0.146910 0.077759
0.298177 0.149417 0.082870
0.327049 0.151950 0.087531
0.355952 0.154399 0.091787
0.384869 0.156718 0.095731
0.413771 0.158884 0.099432
0.442636 0.160879 0.102930
0.471446 0.162693 0.106250
0.500186 0.164317 0.109408
0.528845 0.165744 0.112411
0.557411 0.166973 0.115268
0.585877 0.168004 0.117985
0.614233 0.168844 0.120566
0.642474 0.169499 0.123019
0.670590 0.169986 0.125350
0.698575 0.170326 0.127572
0.726421 0.170543 0.129692
0.754124 0.170665 0.131720
0.781713 0.170566 0.133272
0.808341 0.170024 0.133707
0.831896 0.169168 0.133164
0.851040 0.168202 0.132027
0.865575 0.167301 0.130704
0.876070 0.166555 0.129477
0.084693 0.157338 0.057112
0.087757 0.157588 0.056855
0.096700 0.158455 0.055926
0.111620 0.160532 0.053719
0.128528 0.163845 0.066149
0.148044 0.168214 0.075660
0.177825 0.170423 0.078756
0.208686 0.172076 0.081626
0.240360 0.172921 0.079419
0.271630 0.173385 0.078747
0.301382 0.174497 0.082367
0.330302 0.176150 0.087458
0.358965 0.178005 0.092458
0.387589 0.179859 0.097005
0.416224 0.181620 0.101111
0.444862 0.183247 0.104859
0.473483 0.184721 0.108321
0.502065 0.186034 0.111547
0.530590 0.187180 0.114574
0.559040 0.188160 0.117426
0.587405 0.188974 0.120120
0.615671 0.189628 0.122669
0.643830 0.190131 0.125084
0.671873 0.190494 0.127376
0.699791 0.190733 0.129554
0.727577 0.190869 0.131628
0.755226 0.190922 0.133594
0.782798 0.190694 0.134824
0.809410 0.190094 0.134963
0.832942 0.189250 0.134175
0.852060 0.188339 0.132845
0.866574 0.187507 0.131379
0.877050 0.186829 0.130048
0.107933 0.185219 0.064158
0.110157 0.185413 0.063928
0.116986 0.186073 0.063130
0.129455 0.187599 0.061251
0.144656 0.190154 0.061357
0.161077 0.193863 0.075389
0.180721 0.198150 0.084744
0.209693 0.200280 0.087834
0.240284 0.201688 0.090771
0.271425 0.202472 0.089330
0.302979 0.202455 0.086194
0.333341 0.202688 0.087264
0.362553 0.203507 0.091429
0.391185 0.204701 0.096457
0.419606 0.206027 0.101309
0.447974 0.207336 0.105713
0.476331 0.208552 0.109669
0.504677 0.209641 0.113244
0.532996 0.210589 0.116508
0.561269 0.211392 0.119514
0.589479 0.212052 0.122304
0.617609 0.212574 0.124911
0.645648 0.212966 0.127357
0.673582 0.213240 0.129662
0.701402 0.213412 0.131841
0.729099 0.213499 0.133910
0.756683 0.213478 0.135727
0.784224 0.213147 0.136587
0.810804 0.212505 0.136387
0.834301 0.211671 0.135307
0.853384 0.210803 0.133744
0.867867 0.210028 0.132099
0.878320 0.209403 0.130639
0.131056 0.212920 0.070427
0.132819 0.213065 0.070428
0.138217 0.213593 0.069620
0.148629 0.214780 0.067867
0.162107 0.216756 0.065248
0.177445 0.219656 0.069736
0.193726 0.223613 0.084428
0.213527 0.227802 0.093585
0.241797 0.229891 0.096667
0.272157 0.231098 0.099499
0.302811 0.231837 0.099066
0.334272 0.231627 0.094689
0.365074 0.231261 0.093039
0.394697 0.231340 0.095375
0.423475 0.231883 0.099813
0.451821 0.232691 0.104739
0.479985 0.233588 0.109435
0.508082 0.234460 0.113694
0.536147 0.235250 0.117511
0.564184 0.235930 0.120941
0.592181 0.236490 0.124047
0.620123 0.236930 0.126885
0.647993 0.237258 0.129498
0.675777 0.237483 0.131924
0.703461 0.237620 0.134190
0.731035 0.237685 0.136318
0.758557 0.237558 0.137809
0.786049 0.237141 0.138272
0.812582 0.236462 0.137697
0.836029 0.235635 0.136290
0.855063 0.234802 0.134458
0.869504 0.234071 0.132605
0.879924 0.233488 0.130990
0.154237 0.240421 0.076428
0.155623 0.240548 0.076255
0.160049 0.240975 0.075604
0.168852 0.241929 0.074146
0.180770 0.243488 0.071810
0.194690 0.245843 0.068251
0.210137 0.249011 0.078277
0.226459 0.253118 0.093200
0.246404 0.257206 0.102160
0.274041 0.259283 0.105238
0.304178 0.260331 0.107977
0.334436 0.261017 0.108391
0.365607 0.260756 0.103704
0.396606 0.260037 0.099830
0.426614 0.259532 0.099826
0.455648 0.259469 0.102967
0.484045 0.259765 0.107523
0.512100 0.260257 0.112335
0.539989 0.260813 0.116884
0.567796 0.261349 0.121013
0.595553 0.261820 0.124715
0.623264 0.262206 0.128034
0.650920 0.262500 0.131028
0.678509 0.262709 0.133751
0.706016 0.262841 0.136250
0.733460 0.262860 0.138341
0.760905 0.262632 0.139450
0.788325 0.262152 0.139523
0.814790 0.261448 0.138565
0.838165 0.260629 0.136808
0.857132 0.259826 0.134682
0.871518 0.259132 0.132595
0.881896 0.258584 0.130804
0.177397 0.267749 0.081863
0.178580 0.267848 0.081896
0.182236 0.268215 0.081028
0.189753 0.269007 0.079655
0.200256 0.270283 0.077396
0.213026 0.272171 0.074256
0.227197 0.274830 0.070185
0.242775 0.278213 0.086769
0.259222 0.282404 0.101689
0.279284 0.286397 0.110471
0.306337 0.288486 0.113554
0.336258 0.289408 0.116214
0.366191 0.290039 0.117285
0.396993 0.289792 0.112854
0.427980 0.288901 0.107480
0.458259 0.287981 0.105107
0.487578 0.287402 0.106381
0.516120 0.287211 0.110013
0.544161 0.287302 0.114605
0.571914 0.287547 0.119307
0.599507 0.287849 0.123734
0.627006 0.288143 0.127760
0.654436 0.288396 0.131379
0.681802 0.288595 0.134630
0.709113 0.288717 0.137458
0.736442 0.288639 0.139314
0.763782 0.288338 0.140116
0.791102 0.287814 0.139847
0.817471 0.287098 0.138527
0.840749 0.286293 0.136421
0.859629 0.285520 0.133985
0.873943 0.284861 0.131645
0.884267 0.284341 0.129656
0.200520 0.294914 0.086846
0.201507 0.295002 0.086776
0.204670 0.295306 0.086268
0.211182 0.295973 0.085113
0.220471 0.297043 0.083133
0.232054 0.298611 0.079989
0.245312 0.300789 0.075913
0.259785 0.303665 0.076425
0.275341 0.307268 0.095116
0.291947 0.311502 0.109910
0.312098 0.315409 0.118539
0.338599 0.317533 0.121636
0.368313 0.318356 0.124233
0.397970 0.318938 0.125798
0.428384 0.318735 0.121939
0.459209 0.317793 0.115750
0.489620 0.316615 0.111329
0.519186 0.315632 0.110443
0.547920 0.315006 0.112616
0.576026 0.314710 0.116545
0.603718 0.314648 0.121135
0.631156 0.314720 0.125746
0.658434 0.314851 0.130084
0.685617 0.314981 0.133958
0.712803 0.314979 0.136799
0.740007 0.314804 0.138521
0.767221 0.314441 0.139125
0.794417 0.313886 0.138593
0.820662 0.313167 0.136957
0.843815 0.312383 0.134517
0.862583 0.311642 0.131765
0.876813 0.310999 0.129138
0.887087 0.310469 0.126896
0.223610 0.321924 0.091720
0.224444 0.322003 0.091553
0.227196 0.322263 0.091172
0.232826 0.322851 0.089641
0.241129 0.323757 0.088190
0.251623 0.325088 0.085166
0.263926 0.326916 0.081114
0.277510 0.329342 0.076659
0.292255 0.332406 0.084251
0.307789 0.336191 0.103282
0.324562 0.340444 0.117890
0.344775 0.344278 0.126391
0.370759 0.346449 0.129521
0.400260 0.347204 0.132065
0.429676 0.347748 0.133993
0.459709 0.347607 0.130881
0.490276 0.346694 0.124433
0.520687 0.345389 0.118465
0.550424 0.344120 0.115425
0.579350 0.343134 0.115740
0.607571 0.342485 0.118527
0.635270 0.342124 0.122639
0.662635 0.341945 0.127058
0.689851 0.341790 0.130781
0.716996 0.341583 0.133523
0.744109 0.341273 0.135167
0.771204 0.340829 0.135653
0.798267 0.340234 0.134932
0.824370 0.339511 0.133026
0.847374 0.338746 0.130263
0.866025 0.338002 0.127147
0.880177 0.337332 0.124155
0.890390 0.336788 0.121608
0.246518 0.348813 0.095953
0.247232 0.348885 0.095689
0.249682 0.349107 0.095580
0.254690 0.349615 0.094427
0.262023 0.350420 0.092351
0.271571 0.351565 0.089707
0.282987 0.353122 0.086384
0.295770 0.355184 0.081589
0.309504 0.357837 0.075563
0.324506 0.361077 0.092111
0.340058 0.365006 0.111270
0.356989 0.369264 0.125667
0.377238 0.373038 0.134064
0.402771 0.375257 0.137260
0.432018 0.375985 0.139749
0.461218 0.376503 0.141932
0.490885 0.376440 0.139671
0.521137 0.375610 0.133391
0.551436 0.374281 0.126420
0.581252 0.372842 0.121479
0.610338 0.371583 0.119742
0.638745 0.370585 0.120556
0.666631 0.369813 0.122690
0.694151 0.369196 0.125157
0.721433 0.368653 0.127258
0.748568 0.368112 0.128565
0.775612 0.367519 0.128821
0.802578 0.366840 0.127862
0.828544 0.366082 0.125647
0.851422 0.365270 0.122453
0.869971 0.364470 0.118834
0.884033 0.363770 0.115357
0.894176 0.363210 0.112386
0.269254 0.375586 0.100015
0.269869 0.375653 0.099653
0.272010 0.375856 0.099317
0.276469 0.376307 0.098183
0.283079 0.377015 0.096349
0.291792 0.378016 0.094119
0.302290 0.379378 0.090458
0.314335 0.381151 0.086593
0.327413 0.383431 0.080550
0.341327 0.386271 0.075968
0.356485 0.389696 0.099956
0.372078 0.393738 0.119106
0.389150 0.397995 0.133284
0.409414 0.401725 0.141601
0.434543 0.403994 0.144886
0.463505 0.404732 0.147328
0.492508 0.405240 0.149669
0.521829 0.405268 0.148331
0.551733 0.404562 0.142547
0.581862 0.403268 0.134890
0.611759 0.401683 0.127737
0.641109 0.400098 0.122613
0.669824 0.398678 0.119819
0.697968 0.397466 0.118787
0.725665 0.396432 0.118633
0.753036 0.395517 0.118539
0.780181 0.394658 0.117885
0.807154 0.393801 0.116226
0.833086 0.392880 0.113278
0.855894 0.391936 0.109256
0.874351 0.391056 0.104756
0.888326 0.390309 0.100407
0.898397 0.389722 0.096648
0.291752 0.402262 0.103945
0.292284 0.402325 0.103485
0.294168 0.402513 0.102927
0.298190 0.402914 0.101984
0.304222 0.403538 0.100754
0.312097 0.404442 0.097937
0.321866 0.405635 0.095432
0.333090 0.407198 0.091199
0.345501 0.409185 0.085530
0.358786 0.411662 0.078585
0.373019 0.414668 0.083623
0.388128 0.418282 0.107778
0.403773 0.422418 0.126827
0.420965 0.426674 0.140791
0.441222 0.430373 0.149048
0.465987 0.432700 0.152443
0.494641 0.433479 0.154836
0.523509 0.433965 0.157022
0.552598 0.434037 0.156156
0.582289 0.433375 0.150183
0.612324 0.432058 0.141163
0.642278 0.430343 0.131365
0.671812 0.428506 0.122523
0.700769 0.426746 0.115487
0.729146 0.425155 0.110257
0.757019 0.423744 0.106260
0.784504 0.422473 0.102672
0.811727 0.421238 0.098593
0.837782 0.420015 0.093411
0.860601 0.418864 0.087118
0.879013 0.417853 0.080183
0.892926 0.417025 0.073272
0.902939 0.416390 0.066961
0.313835 0.428878 0.106975
0.314405 0.428921 0.107232
0.316071 0.429096 0.106452
0.319747 0.429454 0.105877
0.325140 0.430033 0.103908
0.332390 0.430840 0.101575
0.341422 0.431910 0.099192
0.351917 0.433301 0.095275
0.363665 0.435057 0.090112
0.376348 0.437239 0.082818
0.389792 0.439895 0.075718
0.404289 0.443079 0.091455
0.419363 0.446860 0.115593
0.435068 0.451075 0.134455
0.452399 0.455316 0.148043
0.472715 0.458963 0.155914
0.497269 0.461292 0.158879
0.525745 0.462052 0.160490
0.554593 0.462452 0.161851
0.583533 0.462515 0.160911
0.613002 0.461893 0.154627
0.642855 0.460604 0.144400
0.672750 0.458840 0.132072
0.702356 0.456850 0.119244
0.731471 0.454844 0.106945
0.760068 0.452913 0.095451
0.788200 0.451081 0.084368
0.815919 0.449337 0.072632
0.842286 0.447698 0.058531
0.865254 0.446244 0.038573
0.883227 0.445451 0.026121
0.896638 0.444962 0.013902
0.906128 0.444743 0.014201
0.335525 0.455436 0.109789
0.336043 0.455476 0.110035
0.337636 0.455624 0.109943
0.340934 0.455959 0.108994
0.345876 0.456485 0.107230
0.352616 0.457210 0.105793
0.360927 0.458187 0.102995
0.370713 0.459444 0.099049
0.381809 0.461017 0.094222
0.393935 0.462955 0.087555
0.406865 0.465306 0.078903
0.420427 0.468111 0.069129
0.435274 0.471451 0.098085
0.450444 0.475331 0.121723
0.466355 0.479551 0.139878
0.483920 0.483726 0.152713
0.504342 0.487289 0.159916
0.528716 0.489599 0.162257
0.556958 0.490356 0.163051
0.585740 0.490688 0.163592
0.614521 0.490745 0.162428
0.643736 0.490183 0.155850
0.673343 0.488964 0.144491
0.703110 0.487202 0.129560
0.732767 0.485082 0.111998
0.762092 0.482795 0.091983
0.790970 0.480483 0.067736
0.819357 0.478223 0.022381
0.844678 0.477200 0.027436
0.866755 0.476344 0.026734
0.884608 0.475583 0.006974
0.897827 0.475199 0.015568
0.907330 0.474919 0.015302
0.357047 0.481896 0.112702
0.357400 0.481948 0.111911
0.358846 0.482085 0.111653
0.361948 0.482381 0.111279
0.366541 0.482854 0.109798
0.372700 0.483523 0.107329
0.380431 0.484407 0.104014
0.389663 0.485531 0.100048
0.400255 0.486927 0.095729
0.411873 0.488645 0.088658
0.424396 0.490720 0.080031
0.437556 0.493198 0.067395
0.451470 0.496121 0.065229
0.466441 0.499596 0.099716
0.481712 0.503548 0.123721
0.497791 0.507766 0.141686
0.515530 0.511880 0.154066
0.536003 0.515372 0.160728
0.560174 0.517670 0.162459
0.588126 0.518449 0.162410
0.616808 0.518731 0.162104
0.645458 0.518769 0.160526
0.674487 0.518230 0.153522
0.703947 0.517015 0.140716
0.733656 0.515199 0.122501
0.763355 0.512943 0.098312
0.792818 0.510429 0.062766
0.820665 0.508521 0.028268
0.846148 0.507307 0.022106
0.868189 0.506377 0.023063
0.885828 0.505694 0.024387
0.899185 0.505136 0.014911
0.908530 0.504924 0.028128
0.378665 0.508158 0.111060
0.379103 0.508192 0.111278
0.380419 0.508319 0.110825
0.383252 0.508593 0.110047
0.387443 0.509031 0.107763
0.393194 0.509635 0.105291
0.400515 0.510425 0.102835
0.409149 0.511445 0.097893
0.419111 0.512707 0.091832
0.430174 0.514246 0.083046
0.442244 0.516092 0.072944
0.455046 0.518293 0.058517
0.468356 0.520885 0.023850
0.482654 0.523942 0.054373
0.497648 0.527537 0.095671
0.512993 0.531550 0.121313
0.529198 0.535765 0.139680
0.547058 0.539827 0.151911
0.567565 0.543252 0.158140
0.591583 0.545520 0.159211
0.619309 0.546291 0.158175
0.648001 0.546467 0.156830
0.676632 0.546418 0.154456
0.705542 0.545852 0.146670
0.734858 0.544625 0.131837
0.764455 0.542777 0.108922
0.794119 0.540432 0.072121
0.822460 0.538361 0.014637
0.847734 0.537217 0.027099
0.869827 0.536174 0.022255
0.887363 0.535471 0.029439
0.900708 0.534855 0.021628
0.910191 0.534480 0.021744
0.400392 0.534219 0.104840
0.400797 0.534250 0.105059
0.401998 0.534369 0.104351
0.404590 0.534623 0.103050
0.408547 0.535016 0.101176
0.413948 0.535563 0.098854
0.420703 0.536293 0.094602
0.428906 0.537213 0.090126
0.438273 0.538360 0.081776
0.448808 0.539749 0.070655
0.460361 0.541411 0.055261
0.472685 0.543383 0.013393
0.485780 0.545534 0.021648
0.499207 0.548096 0.020755
0.513741 0.551586 0.008807
0.528778 0.555296 0.084042
0.544244 0.559339 0.113603
0.560646 0.563513 0.133177
0.578726 0.567478 0.145577
0.599352 0.570797 0.151431
0.623286 0.573000 0.151721
0.650786 0.573751 0.149477
0.679464 0.573821 0.146870
0.708062 0.573678 0.143271
0.736848 0.573078 0.134161
0.766005 0.571839 0.115992
0.795453 0.569975 0.083908
0.824268 0.567919 0.020370
0.849772 0.566690 0.009343
0.871684 0.565717 0.026174
0.889352 0.564871 0.020749
0.902506 0.564314 0.026511
0.911933 0.563924 0.029272
0.422215 0.560093 0.094207
0.422446 0.560136 0.092558
0.423543 0.560246 0.091452
0.426057 0.560470 0.091293
0.429687 0.560836 0.088192
0.434662 0.561345 0.084087
0.441022 0.562012 0.079011
0.448755 0.562851 0.073017
0.457585 0.563898 0.059605
0.467659 0.565155 0.040597
0.478856 0.566562 0.022420
0.490878 0.568169 0.006045
0.503545 0.570077 0.017710
0.516662 0.572354 0.025999
0.530155 0.575074 0.022838
0.544978 0.578794 0.007164
0.560204 0.582742 0.056246
0.575837 0.586781 0.097936
0.592444 0.590896 0.120573
0.610710 0.594763 0.133849
0.631418 0.597980 0.139524
0.655248 0.600119 0.138876
0.682487 0.600857 0.135023
0.711120 0.600828 0.130674
0.739668 0.600590 0.125071
0.768324 0.599954 0.113391
0.797311 0.598706 0.087795
0.826205 0.596981 0.024992
0.851813 0.595864 0.017793
0.873767 0.594922 0.030255
0.891472 0.594058 0.021473
0.904625 0.593472 0.026445
0.913993 0.593082 0.032530
0.444014 0.585768 0.070826
0.444213 0.585807 0.067986
0.445372 0.585897 0.069122
0.447559 0.586116 0.065007
0.451057 0.586442 0.062141
0.455804 0.586901 0.057070
0.461714 0.587514 0.043634
0.468998 0.588246 0.025819
0.477652 0.589082 0.016988
0.487446 0.590056 0.022365
0.498161 0.591263 0.013218
0.509768 0.592730 0.015290
0.521993 0.594432 0.026684
0.534648 0.596459 0.021506
0.547827 0.598939 0.015734
0.561590 0.601910 0.022110
0.576418 0.605663 0.024500
0.591802 0.609753 0.010371
0.607720 0.613885 0.065617
0.624501 0.617938 0.098348
0.642916 0.621712 0.114306
0.663672 0.624832 0.120223
0.687383 0.626911 0.118240
0.714329 0.627646 0.111728
0.742892 0.627527 0.104248
0.771370 0.627199 0.094377
0.799889 0.626529 0.074908
0.828178 0.625452 0.030173
0.853913 0.624556 0.027697
0.876022 0.623701 0.032345
0.893792 0.622886 0.019804
0.907043 0.622270 0.010171
0.916307 0.621932 0.033341
0.466538 0.610997 0.023250
0.466865 0.611023 0.024637
0.467872 0.611075 0.026827
0.470033 0.611268 0.021450
0.473345 0.611531 0.019165
0.477884 0.611876 0.022736
0.483618 0.612359 0.016998
0.490552 0.612922 0.019283
0.498720 0.613686 0.018626
0.507927 0.614603 0.011325
0.518191 0.615694 0.026922
0.529177 0.616989 0.026276
0.540902 0.618579 0.017220
0.553379 0.620579 0.021482
0.566373 0.622977 0.022293
0.579684 0.625724 0.020636
0.593522 0.628771 0.027879
0.607953 0.632258 0.026021
0.623362 0.636373 0.026874
0.639529 0.640591 0.025520
0.656720 0.644671 0.048356
0.675250 0.648356 0.078767
0.696026 0.651389 0.086676
0.719602 0.653414 0.081669
0.746246 0.654152 0.067015
0.774697 0.653961 0.044231
0.802704 0.653667 0.032338
0.830251 0.653236 0.025006
0.856208 0.652602 0.010205
0.878412 0.651950 0.027003
0.896061 0.651346 0.033968
0.909453 0.650756 0.015361
0.918913 0.650359 0.014663
0.490286 0.635474 0.026112
0.490588 0.635499 0.027262
0.491426 0.635589 0.009583
0.493495 0.635728 0.022711
0.496541 0.635974 0.018101
0.500723 0.636294 0.019446
0.506163 0.636736 0.028236
0.512645 0.637286 0.027608
0.520308 0.638028 0.022624
0.529013 0.638867 0.026971
0.538630 0.639862 0.028577
0.549148 0.641146 0.014383
0.560659 0.642801 0.026331
0.572760 0.644715 0.026426
0.585375 0.646958 0.019200
0.598348 0.649495 0.025348
0.611617 0.652357 0.024067
0.625529 0.655462 0.029746
0.639782 0.658854 0.027480
0.654911 0.662759 0.023573
0.671109 0.666977 0.016026
0.688385 0.671048 0.024446
0.707215 0.674722 0.023421
0.728042 0.677708 0.022435
0.751236 0.679740 0.028436
0.777173 0.680597 0.009237
0.804837 0.680564 0.024185
0.832276 0.680394 0.028799
0.858355 0.680082 0.019370
0.880808 0.679641 0.009314
0.898540 0.679214 0.027373
0.911773 0.678837 0.034399
0.921318 0.678491 0.028569
0.514143 0.659722 0.010845
0.514424 0.659746 0.014082
0.515267 0.659785 0.018353
0.517175 0.659915 0.026651
0.520062 0.660183 0.023206
0.523916 0.660479 0.022305
0.528952 0.660892 0.028444
0.535035 0.661438 0.025828
0.542163 0.662130 0.006640
0.550486 0.662995 0.030096
0.559785 0.664116 0.027414
0.569994 0.665479 0.022678
0.580949 0.667015 0.016832
0.592624 0.668840 0.017798
0.604754 0.670853 0.025674
0.617395 0.673233 0.024332
0.630276 0.675882 0.008321
0.643611 0.678829 0.020753
0.657486 0.681992 0.009893
0.671742 0.685437 0.011500
0.686547 0.689113 0.029203
0.702526 0.693159 0.021562
0.719764 0.697215 0.030756
0.738534 0.700879 0.017683
0.759169 0.703877 0.007797
0.781991 0.705976 0.027466
0.807380 0.706974 0.021461
0.834609 0.707038 0.013523
0.860464 0.706980 0.033494
0.882973 0.706817 0.031357
0.900847 0.706589 0.034158
0.914336 0.706288 0.010242
0.923736 0.706119 0.034083
0.538178 0.683675 0.027938
0.538439 0.683697 0.028942
0.539221 0.683819 0.010999
0.540984 0.683940 0.023153
0.543669 0.684251 0.014569
0.547366 0.684614 0.013535
0.552139 0.685095 0.022129
0.557890 0.685702 0.012996
0.564774 0.686444 0.019467
0.572639 0.687388 0.010181
0.581477 0.688456 0.023202
0.591173 0.689704 0.026974
0.601652 0.691152 0.029026
0.612779 0.692859 0.006141
0.624536 0.694776 0.023013
0.636704 0.696953 0.016863
0.649284 0.699420 0.021526
0.662115 0.702158 0.032265
0.675517 0.705204 0.025936
0.689374 0.708450 0.029128
0.703587 0.711921 0.004014
0.718328 0.715583 0.032196
0.733973 0.719379 0.027078
0.750968 0.723244 0.020382
0.769602 0.726902 0.020068
0.790037 0.729923 0.010406
0.812491 0.732096 0.034595
0.837358 0.733216 0.013955
0.862916 0.733409 0.024412
0.885237 0.733439 0.035791
0.903147 0.733392 0.034753
0.916535 0.733322 0.037006
0.926291 0.733230 0.017682
0.562658 0.708072 0.021569
0.562901 0.708094 0.022964
0.563706 0.708166 0.026925
0.565315 0.708377 0.010506
0.567828 0.708583 0.027174
0.571318 0.708984 0.026074
0.575743 0.709389 0.029445
0.581153 0.710022 0.021789
0.587589 0.710733 0.022015
0.595046 0.711591 0.031458
0.603332 0.712643 0.006868
0.612603 0.713833 0.030668
0.622545 0.715193 0.022982
0.633222 0.716811 0.005544
0.644481 0.718568 0.027047
0.656284 0.720662 0.025715
0.668492 0.722962 0.026457
0.680957 0.725543 0.009107
0.693774 0.728452 0.032921
0.707212 0.731490 0.022879
0.721015 0.734785 0.008598
