color-grading/luts/02_looks/BNC_L08_Bleach.cube
TITLE "BNC L08 Bleach"
# BNC Grade v1.0 — Bleach-bypass emulation: heavy contrast, a crushed toe, and cool-leaning desaturation.
# Input: Rec.709 Gamma 2.4 | Output: Rec.709 Gamma 2.4
LUT_3D_SIZE 5
DOMAIN_MIN 0.0 0.0 0.0
DOMAIN_MAX 1.0 1.0 1.0
0.000176 0.000176 0.000176
0.144051 0.084674 0.078205
0.395028 0.212751 0.189477
0.629806 0.326820 0.287158
0.740206 0.379532 0.332026
0.099299 0.174248 0.115232
0.174020 0.186594 0.131480
0.408033 0.258333 0.209911
0.637427 0.352930 0.298516
0.746456 0.400698 0.341032
0.288922 0.453492 0.280728
0.314228 0.457285 0.285743
0.483423 0.489062 0.327174
0.694868 0.537139 0.386018
0.797486 0.563595 0.415299
0.454748 0.709700 0.422439
0.468280 0.711914 0.425090
0.582484 0.732574 0.449734
0.770178 0.771315 0.495782
0.870676 0.792637 0.521276
0.531317 0.829114 0.482855
0.542115 0.830950 0.485002
0.637936 0.848464 0.505527
0.808775 0.882989 0.547119
0.903277 0.902094 0.572350
0.009426 0.063155 0.133837
0.149304 0.093349 0.159337
0.397530 0.213426 0.233650
0.631397 0.327196 0.314007
0.741539 0.379880 0.353968
0.109441 0.179581 0.182739
0.182707 0.192837 0.196275
0.410957 0.259488 0.250467
0.639142 0.353475 0.324405
0.747868 0.401152 0.362418
0.294003 0.456553 0.309802
0.319129 0.460392 0.314517
0.487862 0.492311 0.353144
0.697734 0.539079 0.406348
0.799681 0.564977 0.433064
0.458076 0.712027 0.439056
0.471576 0.714252 0.441648
0.585652 0.735008 0.465734
0.773251 0.773772 0.510567
0.873473 0.794907 0.535170
0.534190 0.831214 0.496452
0.544971 0.833057 0.498567
0.640701 0.850633 0.518794
0.811505 0.885121 0.559738
0.905599 0.904036 0.584497
0.071538 0.163143 0.347272
0.165140 0.170408 0.357486
0.406319 0.234456 0.407929
0.638080 0.333358 0.464720
0.747946 0.383915 0.492383
0.130913 0.217682 0.370045
0.192366 0.223838 0.377809
0.418991 0.274600 0.421032
0.646270 0.359402 0.473276
0.754720 0.405365 0.499393
0.321808 0.475818 0.474332
0.346162 0.480050 0.478889
0.519854 0.519608 0.518850
0.714148 0.551233 0.544205
0.812908 0.574002 0.560142
0.484660 0.731224 0.566158
0.497991 0.733599 0.568592
0.611862 0.755844 0.591176
0.800100 0.796012 0.631246
0.896868 0.815250 0.650221
0.558761 0.849513 0.608130
0.569431 0.851444 0.610132
0.664761 0.869758 0.629263
0.836037 0.903911 0.667470
0.925235 0.921044 0.689577
0.122461 0.251985 0.544430
0.186547 0.255614 0.550189
0.415728 0.289119 0.586955
0.642529 0.357846 0.635062
0.751360 0.399799 0.658941
0.159799 0.283044 0.557295
0.209690 0.286519 0.562425
0.425674 0.317622 0.596797
0.649897 0.380533 0.642618
0.757840 0.419609 0.665397
0.333525 0.491113 0.644878
0.355513 0.494026 0.648239
0.511363 0.518776 0.674611
0.716197 0.558527 0.707867
0.817351 0.581696 0.722936
0.516775 0.756333 0.743896
0.529913 0.758920 0.746468
0.644498 0.784105 0.771117
0.846948 0.839067 0.822957
0.925022 0.845545 0.827755
0.595603 0.878063 0.781958
0.606206 0.880132 0.784093
0.702155 0.899538 0.804798
0.878739 0.934109 0.847734
0.953941 0.948640 0.870507
0.145097 0.292504 0.637315
0.199173 0.295376 0.641960
0.419951 0.321531 0.674142
0.644392 0.377524 0.718311
0.752243 0.414062 0.740613
0.175648 0.317514 0.647652
0.220115 0.320309 0.651936
0.428935 0.345406 0.682609
0.651122 0.398004 0.725212
0.758298 0.432487 0.746703
0.336580 0.501503 0.725468
0.357582 0.503949 0.728410
0.508574 0.525385 0.752246
0.712930 0.563273 0.785643
0.815100 0.586064 0.801352
0.524255 0.763162 0.827492
0.537011 0.765546 0.829905
0.648100 0.788300 0.852542
0.836116 0.829801 0.890843
0.923934 0.845460 0.902856
0.609545 0.889068 0.869951
0.620050 0.891097 0.872096
0.715658 0.910092 0.892469
0.894654 0.944656 0.931193
0.964235 0.962045 0.957207
