color-grading/luts/02_looks/BNC_L01_Clean.cube
TITLE "BNC L01 Clean"
# BNC Grade v1.0 - A neutral, true-to-life grade with a light punch -- the default 'just make it look intentional' pass.
# Input: Rec.709 Gamma 2.4 | Output: Rec.709 Gamma 2.4
LUT_3D_SIZE 9
DOMAIN_MIN 0.0 0.0 0.0
DOMAIN_MAX 1.0 1.0 1.0
0.007440 0.007440 0.007440
0.109239 0.000000 0.005293
0.238091 0.000000 0.005256
0.365663 0.011457 0.009884
0.492147 0.016069 0.013127
0.617753 0.004800 0.006052
0.742041 0.018333 0.014772
0.865575 0.001779 0.005180
0.952957 0.019788 0.015841
0.004163 0.108951 0.005012
0.109170 0.109162 0.003839
0.238772 0.108624 0.000000
0.366416 0.107964 0.005235
0.492820 0.107554 0.009851
0.618137 0.107369 0.014113
0.742428 0.107384 0.018139
0.865878 0.106648 0.016062
0.952958 0.106363 0.015927
0.007340 0.237592 0.007329
0.108243 0.237862 0.000000
0.238558 0.238559 0.008688
0.367914 0.238179 0.005338
0.494984 0.236976 0.010794
0.620382 0.235822 0.017745
0.744795 0.234486 0.014229
0.868048 0.233405 0.016463
0.954493 0.232944 0.022763
0.015591 0.364765 0.014487
0.107840 0.364988 0.012719
0.236950 0.365938 0.011458
0.366912 0.366913 0.009190
0.496015 0.366749 0.012935
0.623034 0.365378 0.007058
0.748029 0.363609 0.015432
0.871494 0.361875 0.023543
0.958133 0.360615 0.024644
0.014935 0.490654 0.013884
0.107137 0.490843 0.010997
0.235455 0.491734 0.013752
0.364610 0.493169 0.006094
0.494289 0.494306 0.022934
0.623092 0.494360 0.024371
0.750111 0.493072 0.011063
0.875015 0.491017 0.005229
0.962108 0.489491 0.024215
0.025548 0.615237 0.023481
0.107575 0.615402 0.022234
0.234014 0.616273 0.009824
0.362497 0.617721 0.026119
0.491463 0.619498 0.023057
0.620794 0.620808 0.024862
0.749358 0.621022 0.023701
0.876216 0.619936 0.020697
0.964643 0.618566 0.022946
0.029938 0.738660 0.027472
0.108283 0.738786 0.029669
0.233306 0.739561 0.027168
0.360256 0.741068 0.019151
0.488501 0.743018 0.023867
0.617390 0.745026 0.018398
0.746449 0.746458 0.022675
0.874768 0.746820 0.015435
0.964506 0.746324 0.026789
0.023751 0.863699 0.021816
0.106789 0.863699 0.021834
0.232362 0.863700 0.021939
0.358524 0.863702 0.022162
0.485772 0.865182 0.031958
0.613879 0.867496 0.035119
0.742548 0.869697 0.035831
0.871242 0.871273 0.040343
0.961854 0.871779 0.036361
0.026078 0.953021 0.023925
0.107092 0.953021 0.023942
0.232464 0.953022 0.024034
0.358580 0.953024 0.024231
0.484825 0.953026 0.024549
0.611353 0.953289 0.031868
0.739607 0.955792 0.034733
0.868202 0.957967 0.030024
0.959040 0.959050 0.026933
0.007648 0.000045 0.109398
0.108964 0.002891 0.108979
0.238107 0.000000 0.108377
0.365766 0.010890 0.107913
0.492265 0.015458 0.107519
0.617652 0.020307 0.107237
0.742110 0.019910 0.106741
0.865639 0.010487 0.105940
0.952958 0.019777 0.106042
0.004545 0.109334 0.109336
0.109750 0.109750 0.109750
0.241394 0.106236 0.106904
0.370501 0.100232 0.103194
0.498048 0.091266 0.098353
0.624251 0.078425 0.092191
0.749374 0.057056 0.083907
0.872837 0.017404 0.076113
0.958845 0.023404 0.076523
0.007496 0.238109 0.108436
0.103010 0.239298 0.103790
0.239450 0.239233 0.102173
0.371318 0.236821 0.098612
0.499923 0.232769 0.093473
0.626481 0.228059 0.086832
0.751520 0.222951 0.078541
0.876236 0.215277 0.060195
0.964270 0.207392 0.020099
0.010337 0.365228 0.107752
0.091252 0.366824 0.094384
0.233907 0.367451 0.092341
0.367952 0.367547 0.087957
0.499656 0.365745 0.081376
0.628344 0.362253 0.072908
0.754531 0.358049 0.061966
0.878850 0.353663 0.046718
0.966028 0.350302 0.019872
0.004539 0.491052 0.106997
0.071262 0.492922 0.079606
0.227383 0.493665 0.076724
0.362403 0.494660 0.070231
0.495477 0.494931 0.058825
0.626859 0.493547 0.039522
0.755264 0.490698 0.019604
0.880556 0.487389 0.022165
0.967948 0.484892 0.011340
0.022161 0.615585 0.107202
0.019873 0.617700 0.054762
0.220018 0.618443 0.049326
0.356495 0.619719 0.033790
0.489928 0.620865 0.026967
0.621889 0.621370 0.010499
0.752052 0.620660 0.008541
0.879773 0.618675 0.013482
0.968519 0.616726 0.021101
0.011398 0.739021 0.105994
0.001242 0.740659 0.052912
0.215300 0.741635 0.015338
0.352650 0.742882 0.010904
0.485290 0.744469 0.022462
0.616698 0.745999 0.029465
0.747315 0.746924 0.021954
0.876618 0.746723 0.027490
0.966835 0.745826 0.033863
0.023767 0.863699 0.106570
0.009771 0.864920 0.053165
0.214473 0.865099 0.024662
0.350011 0.865006 0.011350
0.481442 0.866579 0.018988
0.612017 0.868596 0.032226
0.742229 0.870461 0.037476
0.872001 0.871687 0.020575
0.963161 0.871902 0.024975
0.026092 0.953021 0.106815
0.038696 0.954002 0.060513
0.214886 0.954219 0.033379
0.350012 0.954157 0.028553
0.479990 0.954055 0.016133
0.608868 0.954401 0.016924
0.738697 0.956632 0.036381
0.868311 0.958524 0.041873
0.959684 0.959418 0.028714
0.000062 0.052673 0.217632
0.108233 0.001610 0.237746
0.237298 0.005633 0.237302
0.365394 0.007293 0.236561
0.492170 0.015925 0.235676
0.617805 0.019342 0.234727
0.742289 0.023210 0.233783
0.865857 0.019271 0.232711
0.952958 0.019730 0.232122
0.000106 0.108440 0.238565
0.108313 0.107136 0.242223
0.240200 0.105121 0.240403
0.369904 0.099928 0.237431
0.497880 0.091317 0.234328
0.624344 0.078580 0.231167
0.749476 0.058849 0.227913
0.873001 0.026199 0.225023
0.958804 0.025794 0.224225
0.006826 0.239214 0.239214
0.102161 0.240313 0.240407
0.241000 0.241000 0.241000
0.372212 0.237364 0.237610
0.500559 0.233037 0.234099
0.627040 0.228230 0.230630
0.752048 0.223056 0.227191
0.876508 0.215880 0.222749
0.964858 0.207102 0.217671
0.006719 0.367007 0.237602
0.088798 0.368699 0.234834
0.234444 0.369437 0.234783
0.369704 0.369527 0.233965
0.501511 0.367061 0.231613
0.629749 0.362970 0.228385
0.755608 0.358457 0.224916
0.879725 0.353905 0.221418
0.967111 0.350045 0.217938
0.014566 0.492814 0.235959
0.066069 0.494833 0.228780
0.227276 0.495602 0.228492
0.363387 0.496622 0.227682
0.497171 0.496783 0.226016
0.628753 0.494995 0.223410
0.757270 0.491470 0.220202
0.883082 0.487146 0.216765
0.970737 0.483955 0.214331
0.017233 0.617285 0.234495
0.021718 0.619347 0.223293
0.219430 0.620254 0.221886
0.356955 0.621539 0.220859
0.490833 0.622789 0.219066
0.623672 0.623120 0.216438
0.754859 0.621792 0.213155
0.883474 0.618802 0.209578
0.972759 0.616013 0.207043
0.030163 0.740516 0.233532
0.025134 0.742161 0.221695
0.208107 0.743869 0.212625
0.350566 0.744981 0.213559
0.484470 0.746653 0.211662
0.617196 0.748107 0.208675
0.749300 0.748624 0.204892
0.880055 0.747655 0.200645
0.971200 0.746009 0.197611
0.023853 0.863699 0.232297
0.038326 0.864812 0.221184
0.185094 0.867034 0.194564
0.338827 0.867938 0.195329
0.476553 0.869431 0.196733
0.610394 0.871104 0.198170
0.742623 0.872626 0.196349
0.874099 0.873329 0.191136
0.966400 0.873014 0.187226
0.026168 0.953021 0.232379
0.037448 0.954004 0.221044
0.168752 0.956726 0.182530
0.330792 0.956532 0.181245
0.469477 0.956210 0.179112
0.604248 0.957533 0.179986
0.737324 0.959281 0.181465
0.869227 0.960598 0.181748
0.961845 0.961024 0.179935
0.000096 0.083723 0.330858
0.107516 0.006501 0.364683
0.236157 0.004856 0.364786
0.364034 0.012802 0.364025
0.491077 0.016684 0.363109
0.617191 0.014065 0.361989
0.742043 0.018196 0.360687
0.865820 0.018077 0.359286
0.952960 0.019693 0.358400
0.000116 0.107263 0.365748
0.107552 0.102744 0.371635
0.238249 0.101598 0.370771
0.367936 0.097751 0.368302
0.496330 0.090301 0.365345
0.623330 0.078380 0.362276
0.749072 0.057571 0.359152
0.872850 0.027205 0.356304
0.958802 0.029290 0.354931
0.007595 0.238106 0.367777
0.101407 0.238025 0.372523
0.238373 0.237910 0.372682
0.370457 0.236007 0.370618
0.499566 0.232461 0.367051
0.626564 0.228029 0.363340
0.751943 0.223028 0.359799
0.876533 0.216203 0.356096
0.964951 0.207641 0.352673
0.012766 0.368328 0.368326
0.085767 0.369840 0.370015
0.234606 0.370877 0.370957
0.372250 0.372250 0.372250
0.502965 0.368042 0.368188
0.630782 0.363467 0.364083
0.756512 0.358786 0.360169
0.880589 0.354141 0.356509
0.967602 0.350728 0.353941
0.003653 0.495343 0.366213
0.056204 0.497435 0.364286
0.226923 0.498341 0.364662
0.364856 0.499653 0.365071
0.500061 0.499917 0.364614
0.631779 0.497289 0.362294
0.759701 0.492873 0.358931
0.885030 0.488029 0.355391
0.972449 0.484611 0.352947
0.014420 0.620128 0.363710
0.017894 0.622123 0.359252
0.218257 0.623311 0.358378
0.357684 0.624695 0.358453
0.492821 0.626043 0.358183
0.626616 0.626264 0.357138
0.758119 0.624397 0.355076
0.886447 0.620684 0.352269
0.975414 0.617463 0.350093
0.018199 0.743439 0.361362
0.033701 0.744959 0.356310
0.209086 0.746699 0.352458
0.350782 0.748091 0.352302
0.485745 0.749827 0.351875
0.619380 0.751283 0.350972
0.752174 0.751647 0.349425
0.883239 0.750283 0.347231
0.974347 0.748254 0.345396
0.039272 0.865435 0.359609
0.030887 0.866779 0.353669
0.189151 0.869434 0.343346
0.341417 0.870533 0.344215
0.478880 0.872094 0.345448
0.612254 0.874045 0.344938
0.744860 0.875646 0.343393
0.876858 0.876195 0.341319
0.969383 0.875678 0.339590
0.026322 0.953021 0.358541
0.034722 0.954006 0.352811
0.167476 0.956735 0.335431
0.330615 0.956794 0.335152
0.471312 0.958326 0.336375
0.606500 0.960158 0.337812
0.739667 0.961967 0.339135
0.871622 0.963421 0.337132
0.964515 0.963778 0.335344
0.000130 0.113400 0.443896
0.106820 0.014222 0.489985
0.234887 0.010340 0.490691
0.362482 0.014259 0.490235
0.489408 0.014505 0.489399
0.615505 0.017778 0.488261
0.740809 0.003219 0.486937
0.864815 0.020414 0.485369
0.952963 0.019758 0.484708
0.000133 0.104681 0.492529
0.107222 0.096707 0.498783
0.236507 0.095907 0.498735
0.365624 0.093151 0.497011
0.493892 0.087118 0.494360
0.621100 0.076617 0.491404
0.747833 0.047967 0.488456
0.871670 0.023470 0.485225
0.958545 0.024717 0.483539
0.011026 0.236321 0.493535
0.101284 0.234414 0.500848
0.236170 0.234322 0.501186
0.367438 0.233200 0.500041
0.496846 0.230674 0.497190
0.624417 0.227019 0.493624
0.750376 0.222545 0.489946
0.875774 0.215243 0.486238
0.964376 0.206967 0.483303
0.016925 0.367184 0.496552
0.085089 0.367762 0.501852
0.233287 0.368334 0.502793
0.368650 0.368369 0.503174
0.500741 0.366301 0.500869
0.629468 0.362638 0.496757
0.755775 0.358399 0.492353
0.880271 0.353992 0.488135
0.967476 0.350729 0.485285
0.020838 0.496735 0.496730
0.045375 0.498619 0.498860
0.226228 0.499657 0.499831
0.365597 0.501470 0.501536
0.503500 0.503500 0.503500
0.633686 0.498676 0.498779
0.761031 0.493597 0.494023
0.886173 0.488516 0.489467
0.973546 0.485009 0.486425
0.004245 0.623062 0.494226
0.028412 0.624837 0.493359
0.216659 0.626412 0.493467
0.358317 0.628077 0.494400
0.495147 0.629909 0.495304
0.630477 0.630356 0.495124
0.762082 0.627537 0.492669
0.889695 0.622726 0.488921
0.978220 0.618985 0.486099
0.005396 0.747005 0.491011
0.016906 0.748514 0.488717
0.206271 0.750492 0.486881
0.350789 0.752009 0.487377
0.487326 0.753942 0.487890
0.622313 0.755590 0.488039
0.756194 0.755878 0.487316
0.887634 0.753906 0.485383
0.978561 0.751258 0.483412
0.028743 0.869278 0.487956
0.036694 0.870506 0.485052
0.195141 0.872858 0.480667
0.343590 0.874248 0.481002
0.480126 0.876227 0.481236
0.614397 0.878355 0.481277
0.748059 0.879998 0.480879
0.880886 0.880392 0.479809
0.973743 0.879580 0.478587
0.042748 0.954892 0.486052
0.019517 0.956109 0.482435
0.172526 0.959216 0.474062
0.334543 0.960326 0.474954
0.474647 0.961963 0.476276
0.609219 0.964111 0.476888
0.742354 0.966271 0.476479
0.875136 0.967685 0.475586
0.968498 0.967899 0.474606
0.000163 0.142522 0.556012
0.106188 0.016450 0.614152
0.233556 0.017516 0.614984
0.360791 0.017890 0.615090
0.487388 0.020679 0.614353
0.613394 0.017683 0.613383
0.738529 0.023262 0.612016
0.863650 0.018505 0.611011
0.952966 0.020015 0.611023
0.017240 0.087535 0.624539
0.107171 0.087902 0.624567
0.234988 0.088349 0.624533
0.363350 0.086197 0.623687
0.491353 0.079974 0.621806
0.618919 0.064524 0.619536
0.745691 0.017957 0.616667
0.869299 0.027939 0.612760
0.958053 0.032187 0.611729
0.005979 0.234559 0.617871
0.101625 0.230519 0.626643
0.234400 0.230465 0.627237
0.364534 0.229778 0.626838
0.493567 0.228022 0.624795
0.621240 0.225185 0.621704
0.747838 0.220699 0.618372
0.874108 0.212431 0.615004
0.962920 0.204352 0.612309
0.017388 0.364784 0.621787
0.086444 0.363974 0.629660
0.231747 0.364283 0.630475
0.365348 0.364239 0.630927
0.496825 0.363013 0.629590
0.626065 0.360469 0.626372
0.753087 0.357060 0.622214
0.878236 0.353212 0.617839
0.966318 0.349489 0.614798
0.021248 0.495644 0.624760
0.043696 0.496715 0.630390
0.225348 0.497485 0.631468
0.363794 0.498599 0.633095
0.499017 0.498815 0.633683
0.631041 0.496547 0.631147
0.759437 0.492527 0.626532
0.885212 0.487958 0.621474
0.972916 0.484671 0.617965
0.029142 0.624482 0.624473
0.026841 0.626027 0.626219
0.215159 0.627688 0.627937
0.358269 0.629572 0.629732
0.496360 0.632086 0.632141
0.634750 0.634750 0.634750
0.764397 0.629312 0.629390
0.891280 0.623672 0.623995
0.979601 0.619691 0.620279
0.011699 0.750167 0.621634
0.029343 0.751523 0.621365
0.203149 0.753786 0.621478
0.350540 0.755521 0.622633
0.488726 0.757880 0.624158
0.625426 0.760196 0.625550
0.760932 0.760828 0.625613
0.892408 0.757810 0.622977
0.982746 0.754218 0.620082
0.038715 0.873271 0.617970
0.016442 0.874565 0.616556
0.190659 0.877108 0.614567
0.342648 0.878656 0.615292
0.481030 0.880850 0.616265
0.616781 0.883280 0.617226
0.751867 0.885214 0.617746
0.885860 0.885575 0.617243
0.979092 0.884361 0.616022
0.035312 0.959311 0.615215
0.036495 0.960395 0.613491
0.181308 0.963147 0.609845
0.337348 0.964571 0.610430
0.475935 0.966689 0.611145
0.611139 0.969182 0.611882
0.745565 0.971541 0.612375
0.879526 0.973040 0.612282
0.973542 0.973130 0.611678
0.003513 0.171409 0.667327
0.105622 0.014262 0.737253
0.232281 0.014992 0.738207
0.359004 0.022479 0.738530
0.485366 0.018407 0.738329
0.611064 0.018400 0.737377
0.737321 0.017429 0.737313
0.863654 0.019153 0.737329
0.952969 0.020521 0.737341
0.028198 0.063294 0.751655
0.107830 0.064006 0.751682
0.234056 0.066061 0.751629
0.361684 0.064955 0.750944
0.489376 0.055906 0.749403
0.616724 0.020760 0.747198
0.742604 0.020849 0.743272
0.868797 0.008122 0.740954
0.957567 0.032293 0.739579
0.004742 0.232957 0.740722
0.101549 0.225416 0.752040
0.232912 0.225819 0.752143
0.361964 0.225740 0.751828
0.490436 0.224317 0.750672
0.618236 0.221098 0.748678
0.745335 0.215689 0.746025
0.871747 0.207451 0.742839
0.962129 0.201565 0.741541
0.008656 0.362185 0.745258
0.088641 0.359864 0.754575
0.230477 0.360075 0.755404
0.362432 0.360082 0.756109
0.492883 0.359330 0.755490
0.621886 0.357578 0.753161
0.749176 0.354978 0.749614
0.875227 0.351109 0.745762
0.964147 0.346817 0.743046
0.014374 0.492892 0.749800
0.050896 0.492800 0.757895
0.224636 0.493299 0.758856
0.361260 0.493941 0.760212
0.494755 0.493970 0.760751
0.626330 0.492626 0.759250
0.755417 0.489868 0.755690
0.882030 0.486237 0.751001
0.970260 0.483423 0.747448
0.026231 0.623468 0.752300
0.027935 0.624498 0.756219
0.214426 0.625764 0.759259
0.357117 0.627244 0.761205
0.494115 0.628871 0.763419
0.629437 0.629280 0.764207
0.761360 0.626805 0.761450
0.889432 0.622370 0.756359
0.978268 0.618834 0.752362
0.015526 0.751672 0.751670
0.017079 0.752871 0.753022
0.200727 0.755055 0.755367
0.349946 0.756897 0.757140
0.489083 0.759554 0.759700
0.627062 0.762721 0.762769
0.766000 0.766000 0.766000
0.895106 0.759958 0.760022
0.984734 0.755570 0.755759
0.017287 0.876675 0.748444
0.007174 0.877808 0.748441
0.185580 0.880516 0.748790
0.341518 0.882227 0.750037
0.481602 0.884737 0.751844
0.618846 0.887731 0.753954
0.755717 0.890508 0.755819
0.891416 0.891326 0.756109
0.984802 0.889425 0.754392
0.044598 0.963402 0.745555
0.043166 0.964445 0.744967
0.174736 0.967453 0.743686
0.335597 0.969035 0.744639
0.476222 0.971383 0.746026
0.612953 0.974240 0.747656
0.748898 0.977092 0.749175
0.884430 0.979032 0.749981
0.979321 0.979115 0.749653
0.008643 0.201261 0.781126
0.105611 0.016279 0.863577
0.231976 0.016283 0.863582
0.358319 0.016401 0.863591
0.484656 0.016779 0.863603
0.610991 0.017517 0.863617
0.737324 0.018634 0.863632
0.863657 0.020095 0.863647
0.952972 0.021299 0.863659
0.002714 0.189471 0.811201
0.108942 0.017662 0.879213
0.233910 0.017154 0.878748
0.360619 0.023966 0.877378
0.487816 0.009560 0.875771
0.614854 0.011847 0.873255
0.741507 0.021937 0.870595
0.867802 0.029915 0.868322
0.957098 0.025401 0.867181
0.008846 0.232117 0.863589
0.101756 0.217933 0.879197
0.231762 0.217793 0.878775
0.359969 0.217760 0.878343
0.487990 0.216674 0.877366
0.615558 0.213651 0.875551
0.743378 0.209465 0.873886
0.871322 0.203552 0.872247
0.961775 0.198009 0.871047
0.012513 0.359759 0.866884
0.087494 0.354970 0.879367
0.228902 0.355353 0.879617
0.359808 0.355709 0.879791
0.489247 0.355414 0.879391
0.617793 0.353977 0.878085
0.745417 0.351157 0.875849
0.872143 0.346800 0.872832
0.961231 0.342674 0.870312
0.015777 0.489653 0.872440
0.059908 0.488290 0.882221
0.224199 0.488645 0.883123
0.358880 0.489103 0.884439
0.490826 0.489168 0.885192
0.621463 0.488335 0.884407
0.750429 0.486442 0.881808
0.877435 0.483695 0.877843
0.966072 0.481410 0.874576
0.028857 0.620546 0.876953
0.024880 0.620909 0.882929
0.214529 0.621592 0.886470
0.355474 0.622607 0.888206
0.490721 0.623576 0.889995
0.624296 0.623691 0.890618
0.755914 0.622226 0.888968
0.884842 0.619203 0.885086
0.974363 0.616453 0.881507
0.032013 0.750669 0.879201
0.023661 0.751583 0.882041
0.199999 0.753317 0.886336
0.349074 0.754896 0.888306
0.487670 0.757048 0.891020
0.624404 0.759160 0.893759
0.759895 0.759767 0.894746
0.891696 0.757085 0.891774
0.982350 0.753758 0.887977
0.025789 0.878193 0.878189
0.040362 0.879123 0.879233
0.181956 0.881794 0.882158
0.340437 0.883561 0.883871
0.481465 0.886218 0.886448
0.619520 0.889585 0.889717
0.757747 0.893373 0.893415
0.897250 0.897250 0.897249
0.988433 0.892586 0.892613
0.035548 0.966405 0.875862
0.025931 0.967385 0.876243
0.168208 0.970386 0.877559
0.333885 0.972085 0.878959
0.476147 0.974669 0.881078
0.614137 0.977973 0.883767
0.751566 0.981646 0.886727
0.889239 0.984889 0.889283
0.985529 0.985485 0.889630
0.008922 0.222069 0.861907
0.105602 0.017742 0.952886
0.231973 0.017741 0.952891
0.358319 0.017821 0.952898
0.484657 0.018108 0.952909
0.610992 0.018701 0.952923
0.737326 0.019644 0.952937
0.863659 0.020924 0.952953
0.952975 0.022008 0.952964
0.007190 0.212369 0.887793
0.109005 0.015897 0.966620
0.233734 0.015920 0.966293
0.360175 0.028507 0.965107
0.487178 0.006471 0.964264
0.614104 0.016822 0.962311
0.740760 0.029323 0.960039
0.867425 0.014786 0.958397
0.956698 0.022163 0.957163
0.008567 0.232154 0.952896
0.102927 0.213299 0.970422
0.232069 0.213195 0.970036
0.359787 0.212762 0.969277
0.487486 0.211614 0.968192
0.615288 0.209338 0.966862
0.743167 0.205549 0.965365
0.871084 0.199870 0.963757
0.961527 0.194482 0.962575
0.012065 0.358410 0.952912
0.085536 0.350710 0.968659
0.227373 0.350755 0.968524
0.357970 0.351171 0.968672
0.487079 0.351004 0.968319
0.615425 0.349736 0.967139
0.742983 0.347080 0.965070
0.870365 0.343540 0.962857
0.960886 0.341002 0.961758
0.020241 0.487365 0.957956
0.058296 0.484796 0.969806
0.223368 0.485204 0.970165
0.357346 0.485770 0.970816
0.488253 0.485877 0.971766
0.618148 0.485296 0.971416
0.746768 0.483846 0.969409
0.874038 0.481232 0.966398
0.963461 0.478378 0.964021
0.028218 0.617964 0.963567
0.020091 0.617740 0.970943
0.214944 0.618094 0.974331
0.354319 0.618902 0.975963
0.488333 0.619658 0.977649
0.620830 0.619769 0.978375
0.751866 0.618716 0.977256
0.880845 0.616399 0.974125
0.970637 0.614162 0.970982
0.035830 0.748699 0.967480
0.022563 0.749339 0.971320
0.200535 0.750588 0.976548
0.348424 0.751891 0.978447
0.486025 0.753574 0.980943
0.621475 0.755032 0.983225
0.755654 0.755290 0.983949
0.887437 0.753468 0.981886
0.978666 0.750996 0.978844
0.032321 0.877793 0.968525
0.040755 0.878606 0.970258
0.181051 0.880962 0.974866
0.339865 0.882619 0.976749
0.480814 0.885082 0.979559
0.618555 0.888102 0.983028
0.755959 0.891116 0.986546
0.892389 0.892334 0.988094
0.985821 0.890247 0.985859
0.019857 0.967315 0.967312
0.039342 0.968128 0.968224
0.165122 0.971030 0.971425
0.332932 0.972738 0.973089
0.475802 0.975357 0.975639
0.614194 0.978768 0.978960
0.752109 0.982747 0.982843
0.890967 0.987013 0.987033
0.990042 0.990042 0.990041
