color-grading/luts/02_looks/BNC_L02_Print2383.cube
TITLE "BNC L02 Print2383"
# BNC Grade v1.0 - Kodak 2383 print-stock emulation: punchy contrast, a crushed toe, cool-leaning shadows against warm highlights, and an overall desaturated, filmic roll-off.
# Input: Rec.709 Gamma 2.4 | Output: Rec.709 Gamma 2.4
LUT_3D_SIZE 33
DOMAIN_MIN 0.0 0.0 0.0
DOMAIN_MAX 1.0 1.0 1.0
0.000551 0.000553 0.000553
0.001790 0.000739 0.000689
0.005999 0.002019 0.001656
0.018267 0.006568 0.005170
0.042312 0.017474 0.013287
0.070753 0.032431 0.024213
0.101907 0.048317 0.035812
0.137314 0.061821 0.045841
0.174654 0.073275 0.054541
0.211265 0.083772 0.062578
0.245915 0.093097 0.069769
0.278388 0.101329 0.076156
0.310548 0.109017 0.082156
0.342493 0.116208 0.087801
0.374217 0.122918 0.093102
0.405717 0.129161 0.098066
0.436989 0.134947 0.102700
0.468028 0.140288 0.107008
0.498831 0.145190 0.110995
0.529394 0.149660 0.114664
0.559714 0.153705 0.118016
0.589788 0.157328 0.121053
0.619058 0.161774 0.124904
0.647556 0.167065 0.129551
0.675715 0.172288 0.134148
0.703532 0.177460 0.138704
0.730212 0.182447 0.143092
0.753242 0.186786 0.146901
0.771162 0.190190 0.149881
0.784014 0.192649 0.152029
0.792703 0.194322 0.153486
0.798346 0.195412 0.154434
0.801588 0.196040 0.154980
0.000865 0.001864 0.000861
0.002008 0.001865 0.000714
0.006035 0.002551 0.001725
0.018269 0.006696 0.005193
0.042311 0.017509 0.013295
0.070752 0.032447 0.024217
0.101907 0.048326 0.035814
0.137314 0.061826 0.045842
0.174655 0.073279 0.054541
0.211265 0.083775 0.062579
0.245915 0.093100 0.069769
0.278388 0.101332 0.076156
0.310548 0.109019 0.082156
0.342493 0.116210 0.087802
0.374217 0.122920 0.093103
0.405718 0.129162 0.098067
0.436989 0.134949 0.102700
0.468028 0.140289 0.107008
0.498831 0.145191 0.110995
0.529394 0.149662 0.114664
0.559714 0.153706 0.118016
0.589788 0.157329 0.121053
0.619058 0.161774 0.124904
0.647556 0.167065 0.129551
0.675715 0.172288 0.134148
0.703532 0.177460 0.138704
0.730213 0.182447 0.143092
0.753242 0.186786 0.146901
0.771162 0.190190 0.149881
0.784015 0.192649 0.152029
0.792704 0.194322 0.153486
0.798346 0.195412 0.154435
0.801588 0.196041 0.154980
0.002164 0.006305 0.002538
0.002629 0.006314 0.002557
0.006678 0.006330 0.002237
0.018364 0.008563 0.005469
0.042289 0.018138 0.013435
0.070732 0.032726 0.024288
0.101900 0.048481 0.035853
0.137318 0.061926 0.045863
0.174659 0.073356 0.054557
0.211269 0.083837 0.062591
0.245919 0.093152 0.069779
0.278392 0.101378 0.076164
0.310552 0.109060 0.082163
0.342496 0.116246 0.087808
0.374220 0.122953 0.093108
0.405720 0.129193 0.098071
0.436992 0.134977 0.102705
0.468031 0.140316 0.107012
0.498833 0.145216 0.110999
0.529396 0.149685 0.114667
0.559716 0.153729 0.118019
0.589790 0.157351 0.121056
0.619062 0.161786 0.124905
0.647559 0.167076 0.129552
0.675718 0.172299 0.134150
0.703535 0.177470 0.138705
0.730216 0.182457 0.143093
0.753245 0.186795 0.146902
0.771165 0.190199 0.149882
0.784017 0.192658 0.152030
0.792706 0.194330 0.153487
0.798349 0.195421 0.154435
0.801591 0.196049 0.154981
0.006191 0.019401 0.009763
0.006195 0.019415 0.009731
0.006255 0.019665 0.009061
0.019115 0.020075 0.007875
0.042386 0.024917 0.014436
0.070496 0.036478 0.025211
0.101808 0.050692 0.036400
0.137383 0.063377 0.046166
0.174725 0.074477 0.054777
0.211332 0.084749 0.062761
0.245978 0.093925 0.069917
0.278447 0.102053 0.076281
0.310603 0.109660 0.082263
0.342544 0.116787 0.087896
0.374266 0.123446 0.093186
0.405763 0.129647 0.098141
0.437032 0.135399 0.102768
0.468069 0.140710 0.107070
0.498869 0.145587 0.111052
0.529430 0.150037 0.114716
0.559749 0.154064 0.118065
0.589821 0.157671 0.121099
0.619099 0.162074 0.124930
0.647596 0.167348 0.129576
0.675753 0.172555 0.134172
0.703569 0.177713 0.138726
0.730248 0.182688 0.143113
0.753276 0.187016 0.146921
0.771196 0.190412 0.149901
0.784047 0.192867 0.152048
0.792736 0.194536 0.153505
0.798378 0.195624 0.154453
0.801620 0.196251 0.154999
0.014817 0.045959 0.028695
0.014818 0.045962 0.028692
0.014838 0.046032 0.028636
0.015125 0.047070 0.027600
0.039522 0.049929 0.021858
0.069611 0.055372 0.027739
0.102217 0.063807 0.038496
0.138186 0.073084 0.047859
0.175354 0.082361 0.056210
0.211873 0.091346 0.063945
0.246462 0.099612 0.070913
0.278890 0.107079 0.077138
0.311012 0.114164 0.083011
0.342925 0.120869 0.088556
0.374621 0.127183 0.093775
0.406097 0.133099 0.098672
0.437346 0.138612 0.103250
0.468365 0.143722 0.107512
0.499150 0.148428 0.111460
0.529697 0.152732 0.115095
0.560002 0.156634 0.118419
0.590063 0.160135 0.121432
0.619389 0.164292 0.125126
0.647875 0.169441 0.129759
0.676022 0.174535 0.134345
0.703829 0.179589 0.138889
0.730500 0.184471 0.143269
0.753521 0.188725 0.147070
0.771434 0.192065 0.150045
0.784282 0.194482 0.152189
0.792969 0.196126 0.153644
0.798609 0.197198 0.154591
0.801850 0.197816 0.155137
0.025536 0.079040 0.051193
0.025536 0.079042 0.051192
0.025545 0.079074 0.051172
0.025684 0.079562 0.050850
0.026692 0.083311 0.046010
0.067611 0.086319 0.037902
0.102538 0.091020 0.042097
0.141903 0.094817 0.047354
0.178432 0.101137 0.057297
0.214165 0.108082 0.065904
0.248316 0.114693 0.073029
0.280484 0.120819 0.079189
0.312426 0.126760 0.084931
0.344205 0.132488 0.090330
0.375797 0.137967 0.095409
0.407186 0.143166 0.100179
0.438363 0.148064 0.104644
0.469320 0.152643 0.108806
0.500050 0.156891 0.112666
0.530548 0.160798 0.116225
0.560809 0.164357 0.119482
0.590829 0.167561 0.122437
0.620290 0.171052 0.125741
0.648744 0.175838 0.130335
0.676862 0.180601 0.134887
0.704640 0.185351 0.139402
0.731284 0.189961 0.143756
0.754283 0.193992 0.147538
0.772180 0.197169 0.150499
0.785017 0.199471 0.152634
0.793695 0.201039 0.154083
0.799331 0.202063 0.155026
0.802569 0.202653 0.155569
0.037128 0.115429 0.069031
0.037128 0.115430 0.069030
0.037134 0.115450 0.069007
0.037215 0.115749 0.068658
0.037826 0.118046 0.065370
0.059368 0.122585 0.052839
0.108167 0.123169 0.050853
0.141488 0.128184 0.054861
0.181315 0.130752 0.059476
0.219165 0.133694 0.064481
0.253202 0.138004 0.072440
0.284557 0.142809 0.080125
0.315883 0.147570 0.086660
0.347214 0.152206 0.092431
0.378474 0.156677 0.097656
0.409609 0.160955 0.102453
0.440585 0.165019 0.106883
0.471377 0.168849 0.110980
0.501969 0.172426 0.114762
0.532349 0.175736 0.118240
0.562506 0.178764 0.121417
0.592435 0.181499 0.124296
0.622078 0.184027 0.126992
0.650477 0.188187 0.131510
0.678541 0.192369 0.135994
0.706267 0.196580 0.140450
0.732862 0.200702 0.144754
0.755820 0.204333 0.148497
0.773686 0.207210 0.151430
0.786500 0.209303 0.153546
0.795164 0.210733 0.154983
0.800790 0.211668 0.155918
0.804022 0.212208 0.156457
0.049161 0.153434 0.084797
0.049161 0.153435 0.084796
0.049165 0.153449 0.084773
0.049219 0.153656 0.084434
0.049630 0.155252 0.081529
0.051397 0.160211 0.067052
0.104987 0.161020 0.064426
0.150900 0.161286 0.063643
0.182980 0.166229 0.067422
0.220645 0.168692 0.071524
0.256390 0.170394 0.075678
0.289469 0.172298 0.079851
0.322018 0.174483 0.084195
0.352983 0.177815 0.091188
0.383557 0.181442 0.097876
0.414127 0.184949 0.103604
0.444649 0.188283 0.108608
0.475077 0.191420 0.113050
0.505372 0.194346 0.117032
0.535504 0.197049 0.120618
0.565453 0.199519 0.123845
0.595202 0.201746 0.126738
0.624739 0.203718 0.129311
0.653203 0.206866 0.133434
0.681199 0.210293 0.137814
0.708857 0.213791 0.142178
0.735386 0.217257 0.146403
0.758287 0.220343 0.150083
0.776108 0.222808 0.152972
0.788891 0.224613 0.155057
0.797533 0.225851 0.156474
0.803145 0.226662 0.157398
0.806369 0.227132 0.157929
0.061220 0.191674 0.098566
0.061220 0.191675 0.098565
0.061223 0.191685 0.098544
0.061262 0.191841 0.098220
0.061562 0.193039 0.095550
0.062456 0.196775 0.084720
0.101712 0.198958 0.079743
0.150449 0.199378 0.074113
0.194385 0.199434 0.075966
0.225451 0.203833 0.079454
0.258318 0.207033 0.083084
0.292024 0.208118 0.086634
0.324644 0.209142 0.090312
0.356820 0.210399 0.094179
0.388658 0.211895 0.098200
0.420079 0.213551 0.102315
0.451038 0.215355 0.106533
0.480886 0.217962 0.112417
0.510674 0.220407 0.117427
0.540376 0.222659 0.121737
0.569959 0.224699 0.125472
0.599397 0.226521 0.128721
0.628511 0.228329 0.131904
0.656801 0.230852 0.136149
0.684744 0.233476 0.140392
0.712341 0.236200 0.144635
0.738806 0.238944 0.148754
0.761647 0.241422 0.152351
0.779421 0.243423 0.155180
0.792169 0.244900 0.157225
0.800787 0.245918 0.158615
0.806385 0.246586 0.159512
0.809602 0.246972 0.160024
0.072916 0.228885 0.110141
0.072916 0.228885 0.110140
0.072918 0.228893 0.110119
0.072949 0.229017 0.109809
0.073181 0.229969 0.107302
0.073884 0.232940 0.097950
0.102652 0.235490 0.091514
0.148394 0.236525 0.090323
0.195825 0.236388 0.084698
0.237106 0.236442 0.087557
0.266704 0.240110 0.090707
0.294352 0.244221 0.093947
0.327474 0.245269 0.097247
0.360065 0.245886 0.100642
0.391822 0.246436 0.104135
0.423229 0.247198 0.107787
0.454348 0.248171 0.111574
0.485090 0.249288 0.115452
0.515417 0.250521 0.119390
0.545321 0.251858 0.123372
0.574808 0.253300 0.127385
0.603891 0.254847 0.131423
0.632583 0.256502 0.135481
0.660894 0.258268 0.139555
0.688836 0.260147 0.143645
0.716413 0.262144 0.147749
0.742845 0.264196 0.151746
0.765649 0.266082 0.155248
0.783388 0.267627 0.158006
0.796113 0.268773 0.159976
0.804720 0.269562 0.161286
0.810311 0.270081 0.162127
0.813524 0.270381 0.162607
0.083886 0.263874 0.119508
0.083886 0.263874 0.119507
0.083888 0.263881 0.119487
0.083912 0.263983 0.119189
0.084102 0.264775 0.116798
0.084678 0.267248 0.108230
0.107150 0.269718 0.101383
0.149073 0.270975 0.101962
0.194279 0.271709 0.098152
0.239719 0.271055 0.095481
0.277558 0.271202 0.098187
0.305637 0.274225 0.101044
0.331506 0.278637 0.104130
0.362649 0.280460 0.107296
0.395173 0.280860 0.110511
0.426825 0.281083 0.113796
0.457758 0.281265 0.117161
0.488425 0.281663 0.120674
0.518823 0.282254 0.124308
0.548869 0.282981 0.128030
0.578518 0.283820 0.131815
0.607753 0.284760 0.135648
0.636572 0.285803 0.139522
0.664983 0.286952 0.143429
0.692994 0.288213 0.147366
0.720616 0.289590 0.151330
0.747070 0.291044 0.155205
0.769878 0.292410 0.158601
0.787627 0.293534 0.161201
0.800359 0.294371 0.163027
0.808969 0.294953 0.164243
0.814561 0.295337 0.165024
0.817775 0.295560 0.165470
0.094055 0.296373 0.126994
0.094055 0.296373 0.126993
0.094056 0.296379 0.126973
0.094077 0.296467 0.126684
0.094237 0.297147 0.124379
0.094726 0.299273 0.116315
0.113925 0.301481 0.109890
0.151982 0.302788 0.111086
0.194385 0.303938 0.110144
0.238690 0.304247 0.103307
0.280781 0.303265 0.105368
0.315407 0.303505 0.107911
0.343397 0.306246 0.110689
0.368549 0.310595 0.113672
0.397506 0.313297 0.116764
0.429847 0.313601 0.119868
0.461378 0.313635 0.123024
0.492112 0.313529 0.126234
0.522267 0.313444 0.129527
0.552220 0.313586 0.132963
0.581904 0.313905 0.136509
0.611245 0.314357 0.140140
0.640199 0.314920 0.143836
0.668746 0.315587 0.147584
0.696881 0.316358 0.151378
0.724605 0.317239 0.155213
0.751141 0.318201 0.158948
0.774026 0.319112 0.162102
0.791826 0.319875 0.164496
0.804591 0.320452 0.166180
0.813219 0.320857 0.167303
0.818769 0.321192 0.168166
0.821945 0.321403 0.168688
0.104029 0.328298 0.133315
0.104029 0.328299 0.133314
0.104030 0.328304 0.133295
0.104048 0.328381 0.133014
0.104186 0.328975 0.130777
0.104609 0.330835 0.123085
0.122372 0.332693 0.117731
0.156692 0.333980 0.119145
0.196126 0.335332 0.119627
0.238292 0.336219 0.116486
0.280510 0.335926 0.112576
0.318982 0.335004 0.114862
0.352775 0.335296 0.117390
0.380728 0.337825 0.120123
0.405496 0.342023 0.123035
0.432661 0.345371 0.126075
0.464178 0.345964 0.129115
0.495580 0.345885 0.132186
0.526178 0.345612 0.135298
0.556032 0.345229 0.138455
0.585466 0.344947 0.141713
0.614709 0.344886 0.145105
0.643679 0.344994 0.148602
0.672311 0.345235 0.152183
0.700565 0.345590 0.155831
0.728427 0.346045 0.159474
0.755116 0.346566 0.162888
0.778124 0.347086 0.165763
0.795916 0.347637 0.168210
0.808575 0.348165 0.170185
0.817120 0.348549 0.171528
0.822663 0.348811 0.172402
0.825847 0.348966 0.172906
0.113859 0.359794 0.138674
0.113859 0.359794 0.138673
0.113860 0.359799 0.138654
0.113875 0.359867 0.138379
0.113995 0.360393 0.136202
0.114366 0.362041 0.128802
0.131710 0.363527 0.124995
0.162774 0.364755 0.126472
0.199277 0.366190 0.127640
0.239088 0.367425 0.126776
0.279543 0.367996 0.121465
0.319164 0.367274 0.121896
0.356544 0.366410 0.124203
0.389730 0.366755 0.126735
0.417621 0.369114 0.129444
0.442177 0.373131 0.132312
0.468016 0.376872 0.135318
0.498107 0.378094 0.138332
0.529374 0.377960 0.141354
0.559837 0.377588 0.144406
0.589541 0.377059 0.147494
0.618562 0.376458 0.150627
0.647298 0.376029 0.153879
0.675834 0.375809 0.157242
0.704118 0.375738 0.160576
0.732092 0.375782 0.163833
0.758871 0.375960 0.167058
0.781759 0.376373 0.170384
0.799520 0.376783 0.173008
0.812232 0.377127 0.174909
0.820813 0.377384 0.176202
0.826379 0.377562 0.177045
0.829576 0.377668 0.177530
0.123548 0.390862 0.143258
0.123548 0.390862 0.143257
0.123549 0.390866 0.143239
0.123563 0.390927 0.142970
0.123669 0.391398 0.140846
0.123999 0.392874 0.133694
0.141469 0.393998 0.131716
0.169793 0.395150 0.133197
0.203533 0.396604 0.134692
0.240971 0.398033 0.135107
0.279588 0.399055 0.132642
0.318138 0.399192 0.128948
0.357011 0.398305 0.131122
0.393557 0.397516 0.133464
0.426212 0.397919 0.136013
0.454020 0.400147 0.138718
0.478454 0.403977 0.141567
0.503313 0.407932 0.144555
0.531671 0.409949 0.147576
0.562690 0.409862 0.150581
0.593017 0.409443 0.153606
0.622583 0.408827 0.156634
0.651446 0.408076 0.159585
0.679735 0.407293 0.162470
0.707843 0.406710 0.165351
0.735544 0.406468 0.168928
0.762127 0.406438 0.172508
0.785056 0.406556 0.175675
0.802872 0.406738 0.178183
0.815631 0.406916 0.180004
0.824247 0.407060 0.181245
0.829837 0.407164 0.182055
0.833047 0.407227 0.182522
0.133102 0.421503 0.147281
0.133102 0.421503 0.147280
0.133103 0.421507 0.147262
0.133115 0.421562 0.147000
0.133210 0.421988 0.144929
0.133506 0.423322 0.138003
0.151297 0.424120 0.137925
0.177349 0.425195 0.139388
0.208564 0.426631 0.141034
0.243721 0.428161 0.142161
0.280441 0.429469 0.141500
0.317291 0.430278 0.137568
0.356035 0.429965 0.138098
0.394174 0.429057 0.140326
0.429985 0.428360 0.142712
0.462163 0.428826 0.145292
0.489870 0.430954 0.148012
0.514226 0.434609 0.150863
0.538348 0.438651 0.153849
0.565242 0.441319 0.156832
0.595515 0.441580 0.159674
0.625757 0.441132 0.162414
0.655218 0.440461 0.165212
0.683820 0.439697 0.168472
0.711704 0.438863 0.171739
0.739080 0.438115 0.175056
0.765464 0.437650 0.178385
0.788304 0.437432 0.181361
0.806096 0.437370 0.183734
0.818858 0.437381 0.185465
0.827484 0.437413 0.186647
0.833084 0.437445 0.187420
0.836301 0.437467 0.187866
0.142525 0.451720 0.150984
0.142525 0.451720 0.150983
0.142525 0.451724 0.150966
0.142537 0.451774 0.150710
0.142623 0.452162 0.148695
0.143702 0.453291 0.142686
0.160898 0.453907 0.143646
0.184980 0.454915 0.145083
0.214050 0.456311 0.146798
0.247082 0.457884 0.148324
0.281943 0.459367 0.148767
0.317272 0.460523 0.146994
0.354685 0.460973 0.145114
0.393169 0.460460 0.147280
0.430631 0.459567 0.149568
0.465785 0.458974 0.152009
0.497534 0.459508 0.154615
0.525145 0.461556 0.157261
0.549489 0.465039 0.159914
0.573131 0.469071 0.162575
0.598818 0.472223 0.165673
0.627769 0.473134 0.168919
0.657747 0.472774 0.172122
0.686932 0.472183 0.175310
0.715347 0.471427 0.178490
0.743029 0.470572 0.181665
0.769242 0.469700 0.184748
0.791824 0.469062 0.187491
0.809471 0.468699 0.189699
0.822165 0.468502 0.191319
0.830761 0.468398 0.192431
0.836347 0.468341 0.193159
0.839559 0.468313 0.193580
0.151821 0.481514 0.154631
0.151821 0.481514 0.154630
0.151821 0.481517 0.154613
0.151831 0.481563 0.154365
0.151910 0.481918 0.152413
0.154418 0.482795 0.147983
0.170022 0.483375 0.148905
0.192388 0.484327 0.150313
0.219691 0.485669 0.152059
0.250788 0.487250 0.153812
0.283889 0.488835 0.154934
0.317703 0.490224 0.154584
0.353519 0.491250 0.152181
0.391530 0.491287 0.154261
0.429562 0.490708 0.156401
0.466436 0.489849 0.158592
0.501049 0.489352 0.160851
0.532454 0.489940 0.163313
0.559932 0.491927 0.166294
0.584186 0.495277 0.169373
0.607354 0.499313 0.172560
0.631985 0.502829 0.175831
0.659458 0.504485 0.179055
0.689085 0.504300 0.182213
0.718082 0.503778 0.185345
0.746312 0.503064 0.188456
0.773030 0.502234 0.191462
0.795827 0.501437 0.194078
0.813407 0.500784 0.196130
0.825965 0.500323 0.197619
0.834477 0.500046 0.198645
0.840015 0.499880 0.199319
0.843201 0.499790 0.199710
0.160993 0.510886 0.158503
0.160993 0.510886 0.158502
0.160994 0.510889 0.158486
0.161003 0.510932 0.158247
0.161076 0.511259 0.156368
0.164135 0.511988 0.152834
0.178451 0.512537 0.153721
0.199353 0.513442 0.155091
0.225238 0.514724 0.156827
0.254622 0.516291 0.158660
0.286134 0.517926 0.160120
0.318536 0.519458 0.160574
0.352999 0.520803 0.159143
0.389993 0.521385 0.160681
0.427860 0.521295 0.162910
0.465463 0.520657 0.165372
0.501752 0.519847 0.167938
0.535780 0.519463 0.170643
0.566748 0.520141 0.173512
0.594050 0.522112 0.176476
0.618226 0.525359 0.179521
0.641067 0.529367 0.182664
0.664839 0.533129 0.185892
0.691034 0.535412 0.189100
0.719901 0.535637 0.192226
0.748767 0.535166 0.195308
0.776081 0.534491 0.198271
0.799367 0.533765 0.200839
0.817309 0.533128 0.202846
0.830084 0.532640 0.204292
0.838678 0.532298 0.205272
0.844241 0.532072 0.205910
0.847431 0.531941 0.206277
0.170041 0.539861 0.162052
0.170041 0.539861 0.162052
0.170041 0.539863 0.162040
0.170050 0.539902 0.161807
0.170117 0.540205 0.159985
0.174325 0.540736 0.157916
0.187045 0.541309 0.158269
0.206070 0.542243 0.158851
0.230748 0.543468 0.160498
0.258685 0.545000 0.162292
0.288743 0.546651 0.163886
0.319805 0.548270 0.164801
0.353422 0.549675 0.166099
0.389213 0.550648 0.168247
0.426288 0.551084 0.170546
0.463804 0.550924 0.172953
0.500836 0.550303 0.175443
0.536483 0.549597 0.178030
0.569926 0.549359 0.180746
0.600475 0.550144 0.183613
0.627579 0.552121 0.186561
0.651689 0.555275 0.189576
0.674321 0.559213 0.192677
0.697463 0.563085 0.195857
0.722654 0.565838 0.199048
0.750439 0.566638 0.202152
0.778364 0.566235 0.205104
0.802173 0.565688 0.207651
0.820511 0.565152 0.209635
0.833563 0.564716 0.211060
0.842341 0.564400 0.212024
0.848020 0.564186 0.212651
0.851277 0.564060 0.213011
0.179676 0.568383 0.165386
0.179676 0.568383 0.165386
0.179691 0.568384 0.165387
0.179944 0.568395 0.165395
0.181887 0.568480 0.165458
0.187807 0.568747 0.165653
0.199268 0.569289 0.166054
0.216695 0.570177 0.166719
0.239192 0.571426 0.167673
0.265102 0.572982 0.168900
0.293306 0.574667 0.170350
0.322908 0.576320 0.171973
0.354983 0.577889 0.173824
0.389232 0.579215 0.175884
0.425134 0.580126 0.178113
0.462020 0.580496 0.180468
0.499099 0.580310 0.182909
0.535549 0.579739 0.185423
0.570597 0.579149 0.188027
0.603528 0.579044 0.190753
0.633744 0.579908 0.193618
0.660734 0.581859 0.196549
0.684841 0.584901 0.199534
0.707349 0.588739 0.202596
0.729976 0.592643 0.205725
0.754324 0.595770 0.208898
0.780131 0.597161 0.211899
0.804224 0.597017 0.214452
0.822973 0.596658 0.216432
0.836317 0.596330 0.217850
0.845290 0.596077 0.218809
0.851096 0.595900 0.219431
0.854425 0.595795 0.219789
0.194593 0.595952 0.173532
0.194593 0.595952 0.173532
0.194605 0.595953 0.173532
0.194828 0.595963 0.173540
0.196543 0.596046 0.173599
0.201794 0.596303 0.173782
0.212066 0.596827 0.174158
0.227916 0.597687 0.174782
0.248702 0.598904 0.175679
0.272916 0.600432 0.176834
0.299234 0.602135 0.178198
0.327050 0.603862 0.179730
0.357385 0.605589 0.181487
0.390016 0.607183 0.183457
0.424566 0.608480 0.185611
0.460512 0.609329 0.187908
0.497201 0.609636 0.190307
0.533900 0.609424 0.192776
0.569864 0.608890 0.195310
0.604400 0.608395 0.197929
0.636884 0.608401 0.200662
0.666794 0.609333 0.203522
0.693653 0.611268 0.206439
0.717735 0.614214 0.209397
0.740142 0.617951 0.212422
0.762383 0.621873 0.215510
0.785263 0.625170 0.218561
0.806755 0.626952 0.221176
0.824777 0.627441 0.223183
0.838331 0.627315 0.224609
0.847503 0.627159 0.225570
0.853438 0.627042 0.226193
0.856841 0.626969 0.226551
0.209051 0.623149 0.181567
0.209051 0.623149 0.181567
0.209062 0.623149 0.181567
0.209260 0.623160 0.181575
0.210788 0.623240 0.181630
0.215483 0.623489 0.181802
0.224745 0.623997 0.182156
0.239211 0.624833 0.182744
0.258444 0.626018 0.183590
0.281144 0.627515 0.184682
0.305788 0.629213 0.185969
0.331969 0.630975 0.187416
0.360699 0.632796 0.189084
0.391802 0.634566 0.190966
0.424965 0.636146 0.193039
0.459780 0.637389 0.195272
0.495726 0.638165 0.197625
0.532179 0.638414 0.200060
0.568468 0.638192 0.202552
0.603930 0.637710 0.205103
0.637958 0.637318 0.207735
0.670003 0.637434 0.210473
0.699607 0.638434 0.213330
0.726321 0.640360 0.216232
0.750364 0.643223 0.219165
0.772684 0.646861 0.222155
0.793964 0.650660 0.225115
0.813264 0.653736 0.227745
0.829273 0.655651 0.229805
0.841364 0.656614 0.231269
0.849856 0.657045 0.232251
0.855512 0.657225 0.232886
0.858812 0.657291 0.233249
0.223527 0.649941 0.189491
0.223527 0.649941 0.189491
0.223537 0.649942 0.189492
0.223715 0.649952 0.189498
0.225090 0.650028 0.189550
0.229330 0.650269 0.189713
0.237749 0.650758 0.190047
0.251024 0.651566 0.190602
0.268873 0.652715 0.191403
0.290174 0.654173 0.192437
0.313358 0.655845 0.193655
0.337997 0.657615 0.195026
0.365170 0.659490 0.196611
0.394737 0.661384 0.198407
0.426447 0.663177 0.200399
0.459979 0.664736 0.202562
0.494919 0.665926 0.204862
0.530757 0.666641 0.207260
0.566907 0.666850 0.209725
0.602754 0.666636 0.212237
0.637713 0.666218 0.214803
0.671244 0.665931 0.217446
0.702863 0.666155 0.220189
0.732166 0.667223 0.223041
0.758725 0.669145 0.225929
0.782714 0.671936 0.228839
0.804324 0.675368 0.231710
0.822678 0.678654 0.234259
0.837287 0.681177 0.236283
0.848203 0.682889 0.237766
0.855830 0.683939 0.238775
0.860888 0.684549 0.239427
0.863834 0.684872 0.239801
0.238491 0.676290 0.197305
0.238491 0.676290 0.197305
0.238501 0.676291 0.197305
0.238662 0.676300 0.197311
0.239902 0.676375 0.197361
0.243738 0.676606 0.197515
0.251396 0.677080 0.197831
0.263572 0.677862 0.198357
0.280109 0.678979 0.199116
0.300047 0.680400 0.200098
0.321894 0.682040 0.201256
0.345043 0.683805 0.202557
0.370699 0.685711 0.204064
0.398747 0.687688 0.205778
0.428981 0.689638 0.207690
0.461146 0.691443 0.209780
0.494915 0.692976 0.212020
0.529874 0.694116 0.214377
0.565528 0.694782 0.216813
0.601330 0.694967 0.219302
0.636723 0.694775 0.221832
0.671184 0.694430 0.224411
0.704234 0.694250 0.227063
0.735444 0.694579 0.229809
0.764453 0.695712 0.232657
0.790850 0.697636 0.235532
0.814109 0.700273 0.238335
0.833011 0.703147 0.240813
0.847362 0.705654 0.242784
0.857665 0.707514 0.244221
0.864707 0.708765 0.245203
0.871893 0.711638 0.246567
0.876977 0.714050 0.247622
0.253757 0.702215 0.205009
0.253757 0.702215 0.205009
0.253765 0.702215 0.205009
0.253911 0.702225 0.205015
0.255034 0.702296 0.205062
0.258514 0.702521 0.205208
0.265493 0.702980 0.205508
0.276669 0.703739 0.206008
0.291981 0.704825 0.206730
0.310615 0.706212 0.207665
0.331210 0.707819 0.208768
0.352970 0.709570 0.210005
0.377163 0.711488 0.211441
0.403730 0.713519 0.213079
0.432499 0.715581 0.214912
0.463264 0.717574 0.216928
0.495764 0.719382 0.219104
0.529667 0.720887 0.221411
0.564563 0.721983 0.223815
0.599979 0.722610 0.226283
0.635407 0.722785 0.228793
0.670343 0.722628 0.231337
0.704319 0.722362 0.233928
0.736910 0.722287 0.236588
0.767728 0.722716 0.239337
0.796451 0.723913 0.242179
0.821957 0.725774 0.244958
0.842364 0.727972 0.247387
0.857417 0.730070 0.249308
0.869209 0.732843 0.251083
0.883122 0.739884 0.254057
0.891832 0.744303 0.255946
0.896748 0.746770 0.257018
0.268829 0.727178 0.212440
0.268829 0.727178 0.212440
0.268837 0.727179 0.212441
0.268970 0.727188 0.212447
0.269993 0.727258 0.212491
0.273167 0.727476 0.212630
0.279557 0.727922 0.212916
0.289849 0.728660 0.213392
0.304057 0.729719 0.214081
0.321488 0.731074 0.214974
0.340903 0.732651 0.216029
0.361441 0.734380 0.217211
0.384267 0.736299 0.218581
0.409437 0.738361 0.220149
0.436804 0.740499 0.221909
0.466199 0.742629 0.223853
0.497412 0.744650 0.225963
0.530175 0.746449 0.228216
0.564153 0.747918 0.230581
