color-grading/luts/02_looks/BNC_L03_GoldenHour.cube
TITLE "BNC L03 GoldenHour"
# BNC Grade v1.0 — Warm, golden-hour glow with an amber split-tone and a soft top end.
# Input: Rec.709 Gamma 2.4 | Output: Rec.709 Gamma 2.4
LUT_3D_SIZE 9
DOMAIN_MIN 0.0 0.0 0.0
DOMAIN_MAX 1.0 1.0 1.0
0.011767 0.011709 0.011689
0.102749 0.021292 0.000000
0.236176 0.038312 0.000000
0.368329 0.044767 0.000000
0.497489 0.049821 0.010972
0.624894 0.044959 0.008227
0.749352 0.041838 0.016794
0.863372 0.047943 0.016972
0.907667 0.068694 0.027482
0.061982 0.095800 0.000000
0.111909 0.096712 0.002673
0.239326 0.098940 0.006134
0.369748 0.100721 0.007802
0.498630 0.101450 0.007034
0.625454 0.100621 0.012796
0.749950 0.098815 0.019911
0.863698 0.101915 0.028760
0.907598 0.108680 0.027554
0.096569 0.227146 0.000000
0.129642 0.227591 0.002713
0.246920 0.229498 0.000000
0.376284 0.229658 0.009210
0.504303 0.228347 0.011336
0.630598 0.226169 0.011135
0.754390 0.224227 0.018850
0.867485 0.224599 0.024071
0.910729 0.226600 0.021172
0.101850 0.356358 0.013070
0.132051 0.356732 0.005143
0.245665 0.358778 0.005296
0.376326 0.361108 0.016248
0.508091 0.360975 0.015625
0.636415 0.358404 0.017798
0.761171 0.355120 0.016823
0.874012 0.353936 0.024381
0.916608 0.354454 0.027954
0.075752 0.482644 0.018981
0.115769 0.482918 0.016057
0.237265 0.484755 0.015656
0.369433 0.487881 0.016531
0.504623 0.490155 0.015577
0.638078 0.489713 0.020486
0.766565 0.486973 0.017257
0.881354 0.484548 0.028857
0.923836 0.483838 0.008192
0.133514 0.603596 0.021566
0.155041 0.603817 0.018174
0.253701 0.605301 0.014317
0.377660 0.608112 0.009132
0.508820 0.611316 0.017083
0.641439 0.613418 0.028139
0.771755 0.613477 0.008711
0.889037 0.612068 0.016319
0.930932 0.611423 0.026408
0.248530 0.718810 0.021074
0.257959 0.718979 0.022009
0.317196 0.720260 0.027623
0.414982 0.722980 0.029163
0.530910 0.726677 0.030121
0.654796 0.730361 0.032545
0.781186 0.733098 0.018830
0.898056 0.734168 0.018349
0.938508 0.734218 0.023960
0.345629 0.829039 0.023258
0.351288 0.829052 0.017175
0.391247 0.829533 0.041374
0.466559 0.832139 0.038136
0.565367 0.836027 0.040186
0.677224 0.840573 0.030349
0.795950 0.844917 0.036436
0.908686 0.848188 0.036034
0.946090 0.854502 0.211223
0.390347 0.889279 0.037730
0.395076 0.889296 0.036530
0.428322 0.889424 0.023335
0.494189 0.889629 0.031552
0.584568 0.892636 0.033498
0.690239 0.897308 0.035345
0.804504 0.902202 0.038933
0.914121 0.906168 0.038347
0.948274 0.919272 0.413549
0.022065 0.005001 0.098735
0.105963 0.000036 0.090309
0.238783 0.007195 0.090734
0.370355 0.006074 0.090109
0.499074 0.016032 0.089893
0.625806 0.013248 0.089643
0.749801 0.024302 0.091167
0.864008 0.016936 0.089072
0.909274 0.015139 0.083458
0.054321 0.098816 0.090395
0.116089 0.096810 0.088813
0.250582 0.083147 0.081010
0.383546 0.052470 0.066147
0.509261 0.013375 0.059056
0.632900 0.016473 0.060656
0.755286 0.030141 0.064554
0.868442 0.024224 0.060659
0.912867 0.028096 0.049594
0.071036 0.230677 0.070977
0.117858 0.230769 0.070194
0.249945 0.229850 0.064183
0.385884 0.222882 0.012428
0.513901 0.216822 0.011066
0.638682 0.212444 0.013079
0.761713 0.208173 0.009288
0.872987 0.208817 0.026270
0.915087 0.211236 0.027991
0.020960 0.360001 0.017975
0.100913 0.360226 0.013037
0.239871 0.361244 0.013397
0.378407 0.361583 0.016486
0.512496 0.358839 0.006527
0.641425 0.354291 0.014680
0.765902 0.349635 0.016829
0.878133 0.347746 0.013975
0.920035 0.348189 0.030617
0.011271 0.483935 0.074595
0.073228 0.485286 0.015708
0.228244 0.486871 0.014144
0.367584 0.489315 0.010218
0.505913 0.490623 0.010475
0.640475 0.488804 0.023874
0.769371 0.485170 0.024750
0.884497 0.481799 0.000000
0.926252 0.481093 0.014746
0.105029 0.604705 0.022169
0.133833 0.604919 0.017059
0.245403 0.606272 0.023500
0.374366 0.608932 0.017190
0.508077 0.611780 0.020547
0.642192 0.613441 0.008748
0.773195 0.612998 0.025550
0.890835 0.611125 0.029069
0.932492 0.610260 0.027247
0.240492 0.719494 0.037265
0.250418 0.719660 0.037279
0.312019 0.720962 0.038061
0.412069 0.723599 0.034396
0.529545 0.727164 0.017573
0.654677 0.730671 0.026085
0.781748 0.733087 0.030452
0.899139 0.733841 0.000000
0.939403 0.733805 0.023723
0.341033 0.829762 0.025071
0.346828 0.829772 0.019549
0.387455 0.830073 0.037327
0.463931 0.832640 0.027531
0.564003 0.836382 0.044562
0.676672 0.840879 0.029667
0.796010 0.845067 0.028705
0.909162 0.848186 0.037568
0.946308 0.854755 0.220422
0.386468 0.889940 0.031118
0.391285 0.889955 0.029058
0.425620 0.889964 0.042587
0.492215 0.890132 0.043832
0.583260 0.893009 0.040702
0.689562 0.897606 0.035710
0.804360 0.902388 0.027522
0.914432 0.906268 0.013478
0.948441 0.919509 0.418119
0.046371 0.005949 0.223177
0.109853 0.004766 0.220031
0.240546 0.005432 0.216149
0.370719 0.006166 0.217519
0.499771 0.000000 0.217981
0.626098 0.020135 0.217834
0.750220 0.032854 0.217312
0.864436 0.033807 0.215334
0.909228 0.026206 0.212821
0.055835 0.096742 0.226266
0.113561 0.095353 0.226057
0.248711 0.084351 0.222541
0.382524 0.057633 0.217478
0.509747 0.003612 0.213803
0.633466 0.019762 0.212566
0.756156 0.022695 0.211603
0.869169 0.031346 0.209454
0.913000 0.012645 0.206588
0.067899 0.233401 0.223543
0.117175 0.233644 0.223849
0.253508 0.233176 0.223569
0.386828 0.225630 0.218678
0.517174 0.216482 0.212845
0.644483 0.206322 0.207003
0.769428 0.194348 0.200530
0.887359 0.169497 0.184457
0.931295 0.150727 0.172002
0.008597 0.363422 0.215667
0.098407 0.363855 0.215302
0.240774 0.365209 0.215587
0.382055 0.365292 0.214765
0.525977 0.355598 0.189485
0.656362 0.345323 0.186369
0.781072 0.336035 0.181252
0.897272 0.323239 0.160705
0.939055 0.314792 0.142177
0.007204 0.487234 0.217954
0.012672 0.489513 0.208757
0.221598 0.491598 0.205976
0.367607 0.493779 0.204919
0.510290 0.494028 0.200613
0.652734 0.487332 0.166101
0.795396 0.469075 0.013924
0.908301 0.459770 0.013780
0.945671 0.457801 0.017411
0.017646 0.609391 0.195482
0.025774 0.610969 0.184076
0.217898 0.613050 0.174351
0.363989 0.615223 0.167404
0.506794 0.616877 0.153112
0.648701 0.615761 0.124443
0.786879 0.609723 0.026217
0.905352 0.602848 0.022452
0.944652 0.600937 0.021256
0.137664 0.727719 0.032462
0.159569 0.727847 0.028408
0.260576 0.728584 0.034637
0.386674 0.730082 0.036154
0.519209 0.731886 0.029612
0.653505 0.733043 0.020406
0.786716 0.733067 0.019441
0.907113 0.731464 0.030672
0.947301 0.731686 0.007755
0.300286 0.835483 0.041369
0.307489 0.835468 0.037895
0.355896 0.835265 0.021590
0.443285 0.836450 0.030041
0.552492 0.839684 0.040011
0.672193 0.843256 0.045101
0.796565 0.846349 0.029297
0.912805 0.848096 0.040276
0.947799 0.856888 0.282738
0.354512 0.894947 0.032856
0.360133 0.894943 0.028772
0.399516 0.894809 0.030805
0.473890 0.894557 0.028010
0.571815 0.895911 0.037872
0.684009 0.899945 0.032533
0.803325 0.903839 0.039556
0.916384 0.906789 0.038234
0.949728 0.921223 0.449677
0.057603 0.008151 0.347713
0.111151 0.000143 0.347349
0.240516 0.005349 0.343494
0.369926 0.006556 0.342316
0.498612 0.009620 0.343104
0.625536 0.011764 0.342994
0.750184 0.020958 0.341934
0.864599 0.035679 0.339282
0.909343 0.023802 0.336797
0.062005 0.090007 0.356105
0.113488 0.088969 0.356239
0.245219 0.080274 0.354641
0.379001 0.056224 0.350668
0.507629 0.009255 0.345670
0.632551 0.015908 0.342571
0.755758 0.028623 0.340322
0.869298 0.035143 0.336929
0.913225 0.024357 0.334170
0.064184 0.230411 0.358882
0.114445 0.230434 0.359186
0.247886 0.229447 0.359583
0.383896 0.224354 0.355947
0.515578 0.216303 0.350211
0.643784 0.206627 0.344391
0.769315 0.195024 0.338492
0.887401 0.171666 0.328172
0.931361 0.154159 0.321485
0.005311 0.366101 0.356368
0.093985 0.366832 0.357061
0.241613 0.368886 0.359208
0.387750 0.370428 0.360538
0.521230 0.362714 0.354696
0.650892 0.353890 0.347625
0.777965 0.343603 0.338270
0.895406 0.330730 0.324499
0.937136 0.323932 0.317052
0.020254 0.492253 0.352182
0.016990 0.494480 0.349867
0.221937 0.497045 0.349790
0.371146 0.499788 0.350903
0.516235 0.500105 0.349298
0.662706 0.489318 0.323080
0.796494 0.475318 0.309343
0.913445 0.462582 0.294967
0.950332 0.456848 0.286855
0.024710 0.615065 0.336068
0.024462 0.616670 0.331869
0.218642 0.618972 0.328435
0.366941 0.621358 0.326518
0.511619 0.623204 0.321871
0.654877 0.621791 0.312361
0.797563 0.612539 0.276862
0.928534 0.593145 0.209955
0.953868 0.599349 0.264215
0.117018 0.734485 0.284286
0.144229 0.734613 0.284195
0.253139 0.735622 0.282870
0.382516 0.737698 0.278484
0.518547 0.739927 0.270229
0.657691 0.740719 0.256308
0.796979 0.738171 0.234280
0.923638 0.730708 0.185517
0.952986 0.735145 0.272440
0.203853 0.845896 0.187814
0.217207 0.846000 0.187548
0.293266 0.846750 0.185491
0.406141 0.848282 0.180312
0.532741 0.850259 0.170124
0.665172 0.851908 0.150769
0.800011 0.852172 0.096173
0.923247 0.849823 0.034122
0.950982 0.861526 0.380175
0.242769 0.907072 0.053571
0.253054 0.907024 0.049844
0.317259 0.906563 0.021135
0.421385 0.905258 0.023882
0.542522 0.906220 0.029368
0.670868 0.907918 0.032145
0.801714 0.909017 0.043976
0.921819 0.908970 0.015788
0.952466 0.924949 0.512869
0.065449 0.003410 0.470347
0.112489 0.010610 0.470312
0.238632 0.011355 0.468913
0.367961 0.014639 0.466953
0.495967 0.013295 0.466624
0.622764 0.012478 0.466464
0.747790 0.029666 0.465360
0.863250 0.028950 0.461973
0.909551 0.020647 0.459984
0.068968 0.076404 0.482543
0.114652 0.075442 0.482846
0.241919 0.067387 0.482766
0.374496 0.039787 0.479944
0.503146 0.007501 0.473636
0.629099 0.017314 0.469388
0.753239 0.026612 0.466184
0.867873 0.024705 0.461539
0.912875 0.036544 0.459017
0.062282 0.224322 0.487217
0.112089 0.224285 0.487493
0.242813 0.223471 0.488231
0.377970 0.220018 0.486371
0.510572 0.213677 0.481748
0.639982 0.205144 0.476069
0.766714 0.194175 0.469823
0.886301 0.169611 0.460164
0.930696 0.152331 0.454584
0.014367 0.363123 0.488702
0.088428 0.363571 0.491673
0.238023 0.364704 0.493695
0.380322 0.364712 0.494820
0.517508 0.360240 0.490596
0.648854 0.352774 0.483176
0.777191 0.343071 0.472906
0.895496 0.330642 0.459617
0.937303 0.324256 0.453238
0.016592 0.495440 0.485745
0.017684 0.497305 0.487538
0.221335 0.500258 0.490305
0.373691 0.504213 0.493805
0.524374 0.506786 0.494449
0.659403 0.496912 0.483834
0.790976 0.484676 0.468857
0.910122 0.471436 0.452125
0.948362 0.465605 0.444667
0.028192 0.621358 0.472154
0.029235 0.622985 0.470979
0.219788 0.625495 0.470487
0.370604 0.628508 0.470694
0.518011 0.631327 0.469287
0.663416 0.629967 0.463110
0.810270 0.616115 0.429959
0.931958 0.600160 0.411147
0.957491 0.603549 0.425566
0.118238 0.742244 0.435562
0.144944 0.742415 0.435492
0.254488 0.743625 0.434931
0.385894 0.745974 0.433375
0.523942 0.748593 0.429939
0.665070 0.749641 0.423269
0.805676 0.746660 0.411814
0.932999 0.736459 0.378487
0.957702 0.741769 0.426863
0.216083 0.853449 0.386643
0.228650 0.853563 0.386600
0.301967 0.854395 0.386257
0.413169 0.856152 0.385096
0.538346 0.858778 0.380504
0.671255 0.860932 0.373056
0.807554 0.861119 0.361955
0.931233 0.858205 0.347835
0.955444 0.868711 0.493198
0.246022 0.910272 0.353019
0.256432 0.910371 0.352968
0.320655 0.911093 0.352566
0.424411 0.912605 0.351520
0.545772 0.914678 0.349401
0.674804 0.916857 0.343948
0.807829 0.918125 0.333369
0.930135 0.917298 0.320546
0.956392 0.930539 0.598929
0.070219 0.021339 0.589756
0.113252 0.020679 0.590014
0.236107 0.006194 0.590811
0.364663 0.017493 0.589466
0.492093 0.028181 0.588293
0.618493 0.028991 0.587830
0.743818 0.027316 0.586796
0.862317 0.029355 0.584302
0.909887 0.019898 0.582726
0.075034 0.035869 0.606847
0.116119 0.035788 0.606942
0.238899 0.011444 0.607278
0.368875 0.019994 0.602842
0.497293 0.020254 0.597364
0.623802 0.018519 0.593160
0.748581 0.030451 0.589510
0.866134 0.023212 0.585024
0.913114 0.029838 0.582982
0.062041 0.216766 0.611369
0.110605 0.216724 0.611667
0.238489 0.216132 0.612828
0.371857 0.213679 0.612282
0.504125 0.208714 0.608920
0.633989 0.201403 0.603835
0.762661 0.188321 0.597920
0.883501 0.162336 0.588410
0.928665 0.144507 0.583179
0.017201 0.357172 0.612410
0.083074 0.356537 0.618866
0.233137 0.357120 0.620518
0.372919 0.356972 0.621653
0.509840 0.354289 0.619326
0.642794 0.348810 0.613144
0.772965 0.340470 0.602839
0.892727 0.329091 0.589570
0.935998 0.322018 0.583429
0.014070 0.493392 0.613946
0.020952 0.494474 0.618764
0.218945 0.496663 0.623990
0.370231 0.499231 0.627042
0.516354 0.499687 0.627037
0.656125 0.493846 0.618518
0.789577 0.483417 0.603959
0.909796 0.471136 0.587434
0.948348 0.465606 0.580240
0.016096 0.625134 0.606784
0.027880 0.626563 0.607967
0.221063 0.629113 0.609717
0.373277 0.632865 0.611856
0.523501 0.637812 0.614128
0.674672 0.637787 0.608344
0.808274 0.625536 0.594296
0.927138 0.611767 0.576455
0.959654 0.606978 0.570035
0.118011 0.749822 0.578112
0.145148 0.750020 0.578145
0.256307 0.751449 0.578354
0.389595 0.754340 0.578536
0.529952 0.757932 0.577896
0.673878 0.760102 0.574731
0.816243 0.756825 0.565982
0.944250 0.741822 0.531054
0.962278 0.749376 0.568692
0.222385 0.862582 0.539305
0.234441 0.862738 0.539275
0.305890 0.863865 0.539031
0.416509 0.866193 0.538318
0.543676 0.869271 0.536656
0.678725 0.871950 0.533271
0.817055 0.872377 0.527148
0.939596 0.868937 0.518198
0.960482 0.878006 0.612589
0.258779 0.918595 0.517263
0.268691 0.918703 0.517284
0.330588 0.919514 0.517353
0.431194 0.921455 0.516522
0.551471 0.924095 0.514839
0.681560 0.926673 0.511811
0.816501 0.928054 0.506866
0.938153 0.927102 0.500143
0.960904 0.937537 0.698268
0.072383 0.015924 0.707227
0.113102 0.019863 0.707473
0.233160 0.021417 0.708775
0.360716 0.014945 0.709241
0.487819 0.025740 0.708377
0.613894 0.008423 0.707646
0.741922 0.024758 0.708922
0.862679 0.034032 0.706902
0.910393 0.026050 0.705038
0.076710 0.024643 0.720802
0.115644 0.026649 0.720965
0.235045 0.027007 0.721718
0.363358 0.021827 0.720739
0.491332 0.026502 0.717430
0.617784 0.025906 0.713841
0.745349 0.030112 0.712328
0.866101 0.028265 0.708775
0.913233 0.038290 0.706267
0.060871 0.205606 0.734726
0.108948 0.205717 0.734831
0.234711 0.206035 0.735301
0.366191 0.204788 0.735128
0.497734 0.200247 0.733320
0.628137 0.191512 0.729839
0.757808 0.176339 0.723983
0.880709 0.150714 0.715353
0.928043 0.135987 0.711768
0.010602 0.350843 0.731626
0.078345 0.348345 0.741135
0.228621 0.348751 0.742726
0.366148 0.348727 0.744205
0.501716 0.347002 0.743120
0.635067 0.342967 0.737947
0.766433 0.336054 0.728144
0.888629 0.323904 0.715836
0.933183 0.316857 0.710101
0.014756 0.487742 0.735430
0.011902 0.487772 0.742448
0.216218 0.488700 0.749586
0.364852 0.490209 0.751695
0.508165 0.490270 0.751243
0.648193 0.486698 0.744926
0.783614 0.478979 0.732521
0.905777 0.468561 0.717041
0.945830 0.463631 0.710148
0.021916 0.623608 0.736572
0.021889 0.624653 0.739794
0.222258 0.626616 0.742543
0.372795 0.629760 0.745130
0.520816 0.633200 0.747343
0.667390 0.632751 0.744258
0.805885 0.623900 0.730764
0.926547 0.611474 0.713272
0.959234 0.607643 0.706245
0.120739 0.754359 0.717128
0.147428 0.754581 0.717251
0.258388 0.756201 0.718127
0.392482 0.759643 0.719882
0.534557 0.764565 0.722067
0.682284 0.769791 0.723559
0.830168 0.765603 0.711393
0.944884 0.752472 0.698019
0.965319 0.755705 0.704912
0.222626 0.871392 0.683233
0.234904 0.871571 0.683284
0.307534 0.872883 0.683643
0.419804 0.875668 0.684302
0.548984 0.879584 0.684883
0.686602 0.883509 0.684528
0.827769 0.885024 0.681557
0.948294 0.880924 0.673408
0.965321 0.888781 0.733737
0.260297 0.927308 0.664445
0.270085 0.927445 0.664479
0.331735 0.928443 0.664715
0.434142 0.930549 0.665142
0.556439 0.933494 0.665493
0.688839 0.936538 0.665202
0.826293 0.938431 0.663336
0.946638 0.937612 0.659094
0.965317 0.945409 0.802382
0.072470 0.022840 0.829608
0.112878 0.018705 0.829646
0.231863 0.016522 0.829408
0.358451 0.023317 0.829056
0.485871 0.031493 0.829148
0.613641 0.026933 0.830290
0.741942 0.037565 0.830533
0.863542 0.013991 0.827792
0.911059 0.038582 0.825352
0.076427 0.028505 0.839827
0.115075 0.026370 0.839822
0.233111 0.025624 0.839278
0.359994 0.022540 0.838314
0.487997 0.027743 0.837091
0.616101 0.035495 0.836098
0.744806 0.035892 0.834727
0.866307 0.031594 0.830284
0.913810 0.030924 0.827565
0.061257 0.188832 0.859529
0.108184 0.188744 0.859449
0.231829 0.188008 0.858878
0.361583 0.186807 0.858285
0.492347 0.182856 0.856746
0.622904 0.174530 0.853852
0.755295 0.162173 0.849438
0.880730 0.139237 0.842197
0.928107 0.123775 0.838548
0.019514 0.345218 0.844493
0.067730 0.338290 0.861254
0.223955 0.338994 0.861904
0.360069 0.339600 0.862547
0.494289 0.338733 0.861756
0.627653 0.335279 0.857710
0.760352 0.327859 0.849497
0.883628 0.315630 0.838065
0.929282 0.308866 0.832593
0.020618 0.481117 0.850544
0.017694 0.479874 0.859978
0.214576 0.479634 0.867919
0.360188 0.480767 0.869617
0.501011 0.480925 0.869214
0.639810 0.478566 0.864188
0.775621 0.472827 0.853712
0.899128 0.464276 0.839741
0.941226 0.460030 0.833330
0.021336 0.617741 0.858634
0.008814 0.618188 0.863624
0.223871 0.619416 0.865686
0.370501 0.621568 0.867746
0.514730 0.623441 0.868841
0.658107 0.622656 0.865761
0.797743 0.617007 0.855762
0.921415 0.607471 0.840885
0.955874 0.605661 0.833244
0.127366 0.753555 0.848613
0.152437 0.753763 0.848781
0.260487 0.755279 0.849991
0.393257 0.758478 0.852460
0.534278 0.762933 0.855657
0.680335 0.767082 0.857897
0.824539 0.764842 0.852539
0.943018 0.753625 0.837274
0.965015 0.758006 0.831938
0.223550 0.876959 0.821564
0.235905 0.877158 0.821686
0.309019 0.878626 0.822581
0.422156 0.881830 0.824495
0.552683 0.886653 0.827271
0.692710 0.892465 0.830398
0.838402 0.897403 0.832343
0.957886 0.890847 0.818331
0.968948 0.899494 0.850431
0.260006 0.933874 0.805364
0.269971 0.934021 0.805465
0.332609 0.935096 0.806207
0.436437 0.937407 0.807802
0.560474 0.940781 0.810120
0.695240 0.944635 0.812686
0.836019 0.947790 0.814341
0.954730 0.947703 0.812330
0.968996 0.953612 0.900102
0.071192 0.028009 0.901820
0.112126 0.026019 0.901854
0.231339 0.030699 0.901559
0.358023 0.026700 0.901597
0.485633 0.023794 0.901959
0.613380 0.036526 0.902434
0.742302 0.027812 0.902399
0.864009 0.030556 0.898843
0.911817 0.028900 0.896550
0.075258 0.023308 0.910756
0.114324 0.020458 0.910758
0.232491 0.027511 0.910255
0.359330 0.008006 0.909842
0.487353 0.020426 0.909063
0.615616 0.027506 0.908385
0.744677 0.037534 0.906363
0.866716 0.016732 0.901810
0.914240 0.028126 0.898970
0.063071 0.179119 0.931824
0.108847 0.179044 0.931763
0.231793 0.178408 0.931324
0.360904 0.176563 0.930404
0.491335 0.172629 0.929031
0.622537 0.165613 0.926964
0.755236 0.153315 0.922640
0.880855 0.129595 0.915867
0.928232 0.113108 0.912469
0.019560 0.342365 0.909558
0.058132 0.330479 0.930052
0.220840 0.331132 0.930441
0.356676 0.331897 0.930877
0.490685 0.331399 0.929979
0.624061 0.328344 0.926416
0.756932 0.321272 0.919216
0.881957 0.311152 0.910341
0.929330 0.306435 0.906741
0.028201 0.477089 0.915995
0.027352 0.474941 0.925525
0.214301 0.474147 0.932117
0.357935 0.475192 0.933364
0.497266 0.475462 0.933132
0.635067 0.473634 0.929534
0.770615 0.468795 0.921398
0.894742 0.460828 0.909803
0.938456 0.456110 0.904525
0.021871 0.613148 0.926230
0.026126 0.613174 0.930920
0.225286 0.614166 0.931854
0.369133 0.615930 0.933316
0.511220 0.617387 0.933974
0.652903 0.616688 0.931706
0.792111 0.612113 0.924429
0.916933 0.604000 0.912470
0.952847 0.603591 0.904687
0.132959 0.750637 0.921136
0.156660 0.750821 0.921287
0.261808 0.752154 0.922357
0.392827 0.754895 0.924453
0.532076 0.758434 0.926872
0.675484 0.760970 0.927825
0.818110 0.758771 0.923603
0.939691 0.750274 0.912456
0.963197 0.757373 0.902124
0.224504 0.877887 0.900720
0.236803 0.878087 0.900868
0.309709 0.879558 0.901955
0.422726 0.882785 0.904307
0.553253 0.887703 0.907813
0.693517 0.893853 0.912091
0.840796 0.900428 0.916567
0.957102 0.895674 0.910410
0.969558 0.904025 0.913425
0.259889 0.936127 0.886850
0.269912 0.936277 0.886986
0.332869 0.937378 0.887991
0.437162 0.939765 0.890198
0.561810 0.943329 0.893578
0.697592 0.947644 0.897832
0.840596 0.951951 0.902277
0.959173 0.953244 0.902999
0.970553 0.958538 0.943411
