color-grading/luts/02_looks/BNC_L12_Vivid.cube
TITLE "BNC L12 Vivid"
# BNC Grade v1.0 - High-punch, high-vibrance grade with cool blue shadows lifted in luminance for extra pop.
# Input: Rec.709 Gamma 2.4 | Output: Rec.709 Gamma 2.4
LUT_3D_SIZE 9
DOMAIN_MIN 0.0 0.0 0.0
DOMAIN_MAX 1.0 1.0 1.0
0.002839 0.002839 0.002839
0.086216 0.000000 0.000000
0.215854 0.000000 0.000000
0.338767 0.000000 0.000000
0.455604 0.000000 0.000000
0.566789 0.000000 0.000000
0.672634 0.000000 0.000000
0.768859 0.000000 0.000000
0.815368 0.000000 0.000000
0.000089 0.085475 0.039088
0.086107 0.086698 0.000000
0.218003 0.084322 0.000000
0.340657 0.081683 0.000000
0.457218 0.079440 0.000000
0.568199 0.077405 0.000000
0.673890 0.075521 0.000000
0.770001 0.073791 0.000000
0.815370 0.073172 0.000000
0.000224 0.214420 0.098183
0.000229 0.217751 0.074420
0.217010 0.218515 0.000000
0.348348 0.215958 0.000000
0.467208 0.209881 0.000000
0.578358 0.203713 0.000000
0.683624 0.198032 0.000000
0.779198 0.193023 0.000000
0.822429 0.190785 0.000000
0.000353 0.336914 0.154289
0.000355 0.338351 0.144714
0.165039 0.346754 0.059302
0.342373 0.344750 0.000000
0.473296 0.342959 0.000000
0.591255 0.335926 0.000000
0.699588 0.326894 0.000000
0.796247 0.318159 0.000000
0.839648 0.314183 0.000000
0.000475 0.453609 0.207735
0.000476 0.454352 0.201982
0.000489 0.462290 0.119023
0.294967 0.467997 0.000000
0.462756 0.465970 0.000000
0.592998 0.464958 0.000000
0.710695 0.458289 0.000000
0.813195 0.448418 0.000000
0.858438 0.443283 0.000000
0.000591 0.564913 0.258711
0.000592 0.565324 0.254729
0.000598 0.568298 0.210972
0.204347 0.581977 0.000000
0.418298 0.583435 0.000000
0.578506 0.582523 0.000000
0.707923 0.582212 0.000000
0.820115 0.576770 0.000000
0.869345 0.572538 0.000000
0.000702 0.671121 0.307352
0.000703 0.671347 0.304379
0.000706 0.672998 0.274681
0.000723 0.683177 0.148294
0.347664 0.692270 0.000000
0.534885 0.694522 0.000000
0.689870 0.694660 0.000000
0.812799 0.695049 0.000000
0.866384 0.693788 0.000000
0.000804 0.767908 0.351678
0.000804 0.768027 0.349323
0.000806 0.768862 0.326830
0.000816 0.774355 0.254577
0.244036 0.788531 0.000000
0.474372 0.793753 0.000000
0.648593 0.796719 0.000000
0.792204 0.797706 0.000000
0.851846 0.798146 0.000000
0.000849 0.811773 0.371767
0.000850 0.811855 0.369631
0.000852 0.813224 0.349863
0.000868 0.824148 0.291418
0.159932 0.839898 0.000000
0.440292 0.837657 0.000000
0.623479 0.842121 0.000000
0.774781 0.844177 0.000000
0.838871 0.844696 0.000000
0.003041 0.000033 0.081270
0.085606 0.000036 0.085614
0.216017 0.000000 0.083582
0.339085 0.000000 0.081344
0.455921 0.000000 0.079254
0.567083 0.000000 0.077293
0.672903 0.000000 0.075435
0.769107 0.000000 0.073728
0.815368 0.000000 0.073195
0.000087 0.087041 0.087042
0.088400 0.088400 0.088400
0.231644 0.059395 0.069369
0.351179 0.000000 0.056652
0.463288 0.000000 0.056015
0.572167 0.000000 0.054999
0.678493 0.000000 0.053995
0.773653 0.000000 0.052833
0.818441 0.000000 0.052398
0.000224 0.215593 0.118749
0.000229 0.219071 0.104189
0.218950 0.219065 0.000000
0.356761 0.209731 0.000000
0.474649 0.199122 0.000000
0.583960 0.190740 0.000000
0.689569 0.184557 0.000000
0.785018 0.179293 0.000000
0.827781 0.176924 0.000000
0.000353 0.337779 0.165763
0.000355 0.339259 0.157488
0.152372 0.348486 0.063305
0.343360 0.345019 0.000000
0.476916 0.341192 0.000000
0.595108 0.332218 0.000000
0.702892 0.321875 0.000000
0.800488 0.312999 0.000000
0.844127 0.308931 0.000000
0.000475 0.454309 0.215147
0.000476 0.455070 0.209760
0.000487 0.461693 0.135275
0.290942 0.468924 0.000000
0.463374 0.466136 0.000000
0.594983 0.464238 0.000000
0.713021 0.456575 0.000000
0.815365 0.445925 0.000000
0.860466 0.440500 0.000000
0.000591 0.565508 0.263968
0.000592 0.565928 0.260128
0.000598 0.568995 0.218239
0.194544 0.582710 0.000000
0.416567 0.583952 0.000000
0.578937 0.582638 0.000000
0.709168 0.581862 0.000000
0.821654 0.575876 0.000000
0.870904 0.571396 0.000000
0.000703 0.671644 0.311316
0.000703 0.671875 0.308408
0.000707 0.673576 0.279436
0.000722 0.682739 0.159488
0.343979 0.692732 0.000000
0.533992 0.694843 0.000000
0.690191 0.694746 0.000000
0.813632 0.694876 0.000000
0.867365 0.693463 0.000000
0.000804 0.768379 0.354829
0.000804 0.768501 0.352510
0.000807 0.769367 0.330377
0.000816 0.774363 0.259567
0.237149 0.788871 0.000000
0.472455 0.794064 0.000000
0.648116 0.796932 0.000000
0.792457 0.797773 0.000000
0.852295 0.798141 0.000000
0.000850 0.812223 0.374627
0.000850 0.812308 0.372518
0.000852 0.813242 0.352825
0.000867 0.824157 0.295497
0.146515 0.840534 0.000000
0.437916 0.837939 0.000000
0.622676 0.842347 0.000000
0.774770 0.844297 0.000000
0.839100 0.844757 0.000000
0.000051 0.044253 0.177069
0.076920 0.000082 0.198784
0.212705 0.000089 0.212707
0.337551 0.000049 0.209268
0.455939 0.000000 0.204825
0.567954 0.000000 0.200056
0.674182 0.000000 0.195306
0.770558 0.000000 0.190887
0.815368 0.000000 0.189151
0.000076 0.075795 0.196284
0.075592 0.053773 0.225932
0.225199 0.048440 0.226661
0.348869 0.000037 0.209359
0.463384 0.000000 0.201271
0.573059 0.000000 0.195657
0.679867 0.000000 0.191296
0.775171 0.000000 0.186764
0.818434 0.000000 0.184743
0.000221 0.220846 0.220846
0.000224 0.223990 0.224474
0.228400 0.228400 0.228400
0.369169 0.205515 0.207821
0.493166 0.177907 0.188077
0.607847 0.146367 0.170127
0.715902 0.112134 0.154795
0.814454 0.000000 0.135060
0.854471 0.000000 0.133945
0.000354 0.343899 0.235931
0.000356 0.345594 0.233083
0.118718 0.358242 0.198321
0.353143 0.352965 0.180733
0.498266 0.337516 0.164642
0.621770 0.314164 0.143699
0.733134 0.291265 0.123523
0.832127 0.273519 0.109336
0.878625 0.260782 0.088702
0.000477 0.459761 0.268266
0.000478 0.460647 0.265005
0.000488 0.467476 0.225206
0.264267 0.477659 0.135696
0.471775 0.471550 0.105201
0.616475 0.460392 0.063154
0.739779 0.442723 0.000000
0.843706 0.425961 0.000000
0.889839 0.418722 0.000000
0.000594 0.570368 0.304745
0.000594 0.570858 0.301867
0.000601 0.574650 0.271548
0.071559 0.588739 0.106370
0.399488 0.589762 0.000000
0.585038 0.586079 0.000000
0.722757 0.580319 0.000000
0.838712 0.569582 0.000000
0.889228 0.563410 0.000000
0.000705 0.676015 0.343407
0.000705 0.676289 0.340985
0.000709 0.678396 0.317175
0.000717 0.680734 0.229404
0.306671 0.697009 0.000000
0.525559 0.698020 0.000000
0.695136 0.697682 0.000000
0.823389 0.695198 0.000000
0.878639 0.692413 0.000000
0.000806 0.772371 0.380962
0.000807 0.772520 0.378917
0.000809 0.773642 0.359525
0.000814 0.774724 0.298465
0.154001 0.792062 0.000000
0.454356 0.796837 0.000000
0.645055 0.800606 0.000000
0.798300 0.802030 0.000000
0.860455 0.801999 0.000000
0.000852 0.816061 0.398530
0.000852 0.816168 0.396637
0.000855 0.816955 0.378891
0.000866 0.824243 0.328156
0.000893 0.843217 0.140050
0.418420 0.846382 0.000000
0.615236 0.844356 0.000000
0.777894 0.848974 0.000000
0.846054 0.850282 0.000000
0.000079 0.069060 0.270799
0.071350 0.000122 0.297361
0.205892 0.000139 0.332110
0.331386 0.000139 0.331387
0.450959 0.000115 0.326774
0.564982 0.000000 0.321001
0.673024 0.000000 0.314485
0.770690 0.000000 0.307951
0.815368 0.000000 0.305098
0.000084 0.070429 0.297114
0.072563 0.000132 0.320662
0.210859 0.000147 0.351320
0.338957 0.000142 0.340006
0.457333 0.000115 0.328769
0.570366 0.000000 0.320707
0.678743 0.000000 0.313846
0.775377 0.000000 0.306714
0.819017 0.000000 0.303453
0.000193 0.199501 0.321814
0.000186 0.192661 0.331514
0.200056 0.194720 0.356391
0.359240 0.197880 0.360437
0.487851 0.175330 0.340438
0.605561 0.145980 0.321836
0.715609 0.111924 0.306574
0.815460 0.000000 0.291970
0.855904 0.000000 0.287758
0.000351 0.350561 0.350561
0.000353 0.352139 0.352384
0.183692 0.360800 0.361427
0.368400 0.368400 0.368400
0.506210 0.342398 0.343659
0.627079 0.315986 0.321151
0.737543 0.291733 0.302625
0.836167 0.272939 0.289364
0.881055 0.264752 0.283840
0.000480 0.469374 0.354801
0.000481 0.470405 0.353802
0.000492 0.479083 0.341611
0.276591 0.491775 0.331897
0.487576 0.487525 0.319196
0.632291 0.471385 0.305538
0.754133 0.446831 0.287844
0.857908 0.424191 0.273412
0.903342 0.414927 0.268197
0.000598 0.579912 0.378914
0.000599 0.580522 0.377360
0.000606 0.585561 0.361289
0.100569 0.601609 0.304064
0.399886 0.606493 0.280502
0.601063 0.600932 0.269896
0.745329 0.589625 0.257198
0.864662 0.570973 0.242595
0.914102 0.562091 0.240263
0.000710 0.685166 0.406669
0.000711 0.685523 0.405026
0.000715 0.688434 0.389075
0.000724 0.693415 0.335333
0.291322 0.712054 0.261309
0.523723 0.715153 0.224555
0.710952 0.711116 0.213890
0.847226 0.703456 0.198883
0.905141 0.697464 0.189982
0.000812 0.781048 0.435198
0.000812 0.781256 0.433638
0.000815 0.782919 0.418963
0.000821 0.785590 0.374619
0.000850 0.805959 0.245189
0.437301 0.813855 0.212499
0.644960 0.816442 0.158012
0.813300 0.814051 0.144387
0.879317 0.811994 0.139524
0.000858 0.824511 0.449049
0.000858 0.824668 0.447548
0.000860 0.825909 0.433578
0.000865 0.827788 0.392785
0.033035 0.851304 0.290015
0.419782 0.859605 0.263893
0.609384 0.862775 0.148694
0.787302 0.862844 0.096204
0.860550 0.861661 0.095513
0.000107 0.093437 0.364556
0.068942 0.000163 0.396493
0.190547 0.000176 0.424157
0.323794 0.000189 0.446848
0.442506 0.000185 0.442506
0.557099 0.000167 0.436811
0.666759 0.000120 0.429958
0.766285 0.000000 0.422552
0.815368 0.000000 0.421044
0.019888 0.000169 0.410029
0.070643 0.000169 0.411217
0.191879 0.000181 0.436469
0.328316 0.000193 0.457821
0.448013 0.000188 0.448664
0.563444 0.000168 0.440545
0.672195 0.000118 0.431570
0.770906 0.000000 0.423063
0.818283 0.000000 0.420507
0.000179 0.183506 0.408544
0.000168 0.168720 0.434032
0.184283 0.159583 0.468720
0.342729 0.180985 0.490610
0.473834 0.166724 0.476005
0.594916 0.143635 0.457961
0.708332 0.114936 0.441382
0.810647 0.000000 0.425244
0.852356 0.000000 0.418631
0.000324 0.331683 0.457737
0.000322 0.329700 0.460872
0.146790 0.316104 0.474676
0.328703 0.325778 0.487282
0.493411 0.332728 0.494374
0.619900 0.312038 0.471315
0.733820 0.290336 0.449244
0.834697 0.272484 0.431921
0.880288 0.264710 0.424891
0.000477 0.476591 0.476591
0.000478 0.477571 0.477725
0.089882 0.487107 0.488383
0.324813 0.496681 0.497201
0.508400 0.508400 0.508399
0.642986 0.478618 0.479477
0.761148 0.449829 0.453250
0.863648 0.425519 0.432421
0.908526 0.415706 0.424306
0.000603 0.591677 0.472933
0.000603 0.592383 0.472483
0.000610 0.598438 0.467593
0.219775 0.613767 0.465521
0.416036 0.625348 0.464941
0.622350 0.622399 0.455119
0.766500 0.605257 0.441101
0.881557 0.579926 0.422668
0.924613 0.573140 0.424035
0.000716 0.697573 0.489799
0.000717 0.698024 0.488945
0.000722 0.701846 0.480656
0.000735 0.711846 0.454564
0.306008 0.729565 0.432323
0.531985 0.735928 0.413256
0.731121 0.731086 0.407659
0.868934 0.720149 0.398001
0.924040 0.712764 0.396030
0.000819 0.793526 0.510318
0.000819 0.793810 0.509308
0.000823 0.796189 0.499837
0.000830 0.800986 0.471750
0.123535 0.822887 0.412408
0.439231 0.831893 0.392033
0.654985 0.835502 0.368350
0.831818 0.832028 0.365981
0.898328 0.829166 0.363858
0.000865 0.836921 0.520543
0.000866 0.837145 0.519507
0.000868 0.839016 0.509887
0.000875 0.842696 0.482260
0.128235 0.866353 0.430804
0.435676 0.876487 0.424595
0.622276 0.881862 0.376608
0.802371 0.880461 0.346134
0.878230 0.878672 0.347661
0.000133 0.116691 0.454207
0.066967 0.000202 0.491183
0.179202 0.000210 0.508740
0.310338 0.000228 0.546213
0.432872 0.000234 0.552075
0.546613 0.000229 0.546613
0.656477 0.000212 0.539902
0.763551 0.000182 0.536990
0.815368 0.000159 0.536990
0.021471 0.000206 0.500390
0.068845 0.000206 0.501272
0.180025 0.000213 0.517780
0.312705 0.000232 0.555628
0.437682 0.000238 0.560718
0.551703 0.000231 0.552153
0.661278 0.000213 0.543191
0.766424 0.000182 0.537858
0.818074 0.000158 0.537495
0.000180 0.176934 0.502460
0.018742 0.116275 0.565506
0.178220 0.120975 0.572503
0.320479 0.148633 0.594864
0.458279 0.154734 0.597481
0.579930 0.139194 0.582322
0.698010 0.087045 0.567628
0.798743 0.000180 0.549485
0.842090 0.000149 0.541290
0.000290 0.299644 0.527405
0.000287 0.296439 0.533805
0.133524 0.277348 0.576487
0.302224 0.289567 0.592825
0.472069 0.315152 0.621033
0.602211 0.302465 0.604185
0.720455 0.286276 0.583242
0.825017 0.271918 0.564495
0.874081 0.257033 0.555605
0.000457 0.465133 0.593222
0.000456 0.464730 0.595398
0.000450 0.460277 0.617055
0.279377 0.442238 0.600875
0.458434 0.456438 0.618370
0.627623 0.466694 0.628422
0.752356 0.444539 0.602503
0.858556 0.423150 0.578071
0.904910 0.414138 0.567807
0.000600 0.599186 0.599185
0.000601 0.599865 0.599973
0.000607 0.605763 0.606810
0.272427 0.619046 0.620234
0.462479 0.632688 0.633127
0.648400 0.648400 0.648399
0.779649 0.614763 0.615412
0.890112 0.584258 0.586692
0.929853 0.578281 0.580913
0.000722 0.710828 0.589823
0.000723 0.711346 0.589600
0.000728 0.715832 0.587272
0.151911 0.731894 0.587269
0.376613 0.744685 0.595772
0.552167 0.759005 0.598053
0.757354 0.757480 0.590556
0.894807 0.740424 0.576554
0.940733 0.732246 0.577380
0.000827 0.807988 0.598827
0.000828 0.808342 0.598315
0.000831 0.811390 0.593494
0.000841 0.818914 0.579647
0.224495 0.840640 0.566452
0.456998 0.853469 0.561347
0.667579 0.861108 0.545460
0.856939 0.856993 0.543307
0.922534 0.852947 0.540414
0.000874 0.851672 0.605669
0.000874 0.851965 0.605075
0.000878 0.854475 0.599564
0.000885 0.860003 0.583754
0.188377 0.883563 0.566418
0.456195 0.896131 0.573453
0.642786 0.905929 0.556886
0.822659 0.904844 0.521490
0.902321 0.902424 0.523511
0.000159 0.138833 0.540009
0.065150 0.000239 0.581026
0.171659 0.000244 0.592546
0.293118 0.000260 0.627297
0.421263 0.000275 0.653276
0.536992 0.000277 0.652938
0.652937 0.000273 0.652937
0.763551 0.000262 0.652935
0.815368 0.000253 0.652935
0.000153 0.128690 0.539963
0.067096 0.000242 0.588348
0.172320 0.000247 0.599420
0.293768 0.000262 0.633273
0.424104 0.000278 0.660838
0.539552 0.000279 0.657572
0.655562 0.000275 0.655898
0.766052 0.000262 0.654712
0.817778 0.000253 0.654289
0.000186 0.171349 0.591754
0.059394 0.000272 0.661758
0.175209 0.000275 0.669789
0.302481 0.082347 0.691616
0.441987 0.120108 0.709010
0.567048 0.093623 0.702715
0.682239 0.000287 0.685496
0.787593 0.000268 0.669585
0.838601 0.000256 0.665489
0.000278 0.285695 0.611438
0.000273 0.280115 0.620646
0.139522 0.252007 0.677935
0.288554 0.262023 0.692626
0.444149 0.288124 0.721243
0.582231 0.291637 0.721564
0.702070 0.281205 0.704338
0.812347 0.256711 0.688155
0.862752 0.239830 0.679847
0.000410 0.422059 0.654515
0.000408 0.420403 0.657070
0.000392 0.405453 0.687114
0.251402 0.394556 0.692193
0.422615 0.414195 0.717032
0.601890 0.446110 0.751903
0.731324 0.432582 0.733106
0.842446 0.416918 0.710576
0.891212 0.409898 0.700097
0.000584 0.592784 0.720777
0.000584 0.592912 0.722432
0.000584 0.593354 0.737212
0.251429 0.591403 0.748119
0.406994 0.568457 0.727412
0.588761 0.587251 0.749645
0.761905 0.600595 0.762586
0.879633 0.577442 0.735316
0.924786 0.571109 0.723039
0.000720 0.718523 0.718523
0.000720 0.719027 0.719107
0.000724 0.723405 0.724193
0.198011 0.737847 0.739545
0.415305 0.751370 0.752454
0.599320 0.768806 0.769184
0.788400 0.788400 0.788399
0.910104 0.752637 0.753112
0.948768 0.741709 0.742419
0.000833 0.822221 0.705321
0.000834 0.822627 0.705228
0.000838 0.826155 0.704239
0.000855 0.842138 0.706948
0.347914 0.855175 0.716023
0.522838 0.871305 0.728112
0.691773 0.888237 0.733667
0.887840 0.888027 0.728551
0.947179 0.881846 0.723424
0.000882 0.866976 0.704240
0.000882 0.867323 0.704012
0.000886 0.870330 0.701845
0.000900 0.882649 0.699549
0.278397 0.899724 0.703148
0.481113 0.914086 0.714361
0.664590 0.928308 0.723998
0.846285 0.932520 0.701881
0.929823 0.929951 0.703734
0.000182 0.159038 0.618371
0.064188 0.000276 0.669417
0.167179 0.000278 0.674840
0.281114 0.000290 0.703524
0.410951 0.000311 0.745247
0.536974 0.000322 0.763527
0.652936 0.000323 0.763551
0.763550 0.000320 0.763550
0.815367 0.000315 0.763550
0.000177 0.151118 0.618307
0.066286 0.000278 0.676239
0.168050 0.000280 0.681422
0.281934 0.000293 0.709397
0.412154 0.000313 0.750600
0.538853 0.000324 0.768266
0.655022 0.000325 0.767005
0.765661 0.000321 0.765931
0.817450 0.000316 0.765510
0.018506 0.037994 0.735559
0.067263 0.000302 0.733865
0.171028 0.000303 0.736732
0.286583 0.000313 0.758778
0.420769 0.000332 0.795883
0.554050 0.000341 0.809015
0.672650 0.000338 0.796861
0.783782 0.000329 0.786393
0.835406 0.000323 0.782287
0.000274 0.276106 0.691030
0.000267 0.266846 0.702351
0.141616 0.216675 0.776723
0.278329 0.229416 0.785299
0.420467 0.255945 0.808502
0.563452 0.271985 0.825108
0.686420 0.257384 0.815943
0.797801 0.230187 0.801545
0.850889 0.215064 0.795902
0.000385 0.397871 0.721536
0.000382 0.395603 0.725328
0.000364 0.375053 0.775687
0.248931 0.371022 0.787392
0.404151 0.387376 0.809632
0.570124 0.418102 0.844210
0.708414 0.420050 0.842350
0.821729 0.409710 0.823876
0.872279 0.403694 0.814746
0.000537 0.550857 0.783270
0.000536 0.549881 0.784629
0.000526 0.540329 0.797028
0.202419 0.526121 0.814293
0.366473 0.511627 0.803223
0.545249 0.539225 0.836567
0.733631 0.577836 0.878067
0.856473 0.563228 0.858053
0.908793 0.555139 0.846567
0.000706 0.713936 0.834885
0.000706 0.714219 0.836111
0.000708 0.716542 0.847084
0.194481 0.726649 0.873470
0.396696 0.725747 0.875747
0.538705 0.700471 0.853012
0.722544 0.721446 0.877279
0.891621 0.736861 0.892167
0.940637 0.728206 0.878417
0.000831 0.829466 0.829465
0.000831 0.829860 0.829924
0.000834 0.833299 0.833925
0.000849 0.848158 0.850128
0.366161 0.861369 0.862963
0.554499 0.878752 0.879713
0.738212 0.899608 0.899907
0.920333 0.920332 0.920331
0.961724 0.903141 0.903224
0.000884 0.878403 0.822579
0.000885 0.878777 0.822767
0.000888 0.882036 0.824332
0.000903 0.896575 0.833893
0.344316 0.910289 0.845074
0.534754 0.925365 0.858943
0.711388 0.941490 0.876843
0.873595 0.954764 0.891961
0.954443 0.954558 0.890611
0.000192 0.168207 0.653941
0.064186 0.000294 0.714823
0.166843 0.000296 0.719191
0.278455 0.000307 0.744160
0.406189 0.000327 0.786599
0.535692 0.000342 0.813397
0.652936 0.000346 0.815368
0.763550 0.000344 0.815367
0.815367 0.000341 0.815367
0.000189 0.162149 0.658262
0.066296 0.000297 0.721052
0.167671 0.000298 0.725244
0.279195 0.000309 0.749635
0.407165 0.000329 0.791571
0.537239 0.000344 0.817941
0.654796 0.000347 0.818933
0.765481 0.000345 0.817943
0.817293 0.000342 0.817539
0.031548 0.000319 0.773995
0.069745 0.000319 0.773923
0.170945 0.000319 0.776403
0.283544 0.000328 0.795904
0.414128 0.000346 0.833733
0.549632 0.000360 0.856958
0.670477 0.000360 0.849832
0.782029 0.000354 0.840202
0.833876 0.000350 0.836260
0.000273 0.272060 0.727120
0.000265 0.260499 0.739405
0.143194 0.189385 0.825245
0.274167 0.203273 0.832576
0.410911 0.230935 0.853146
0.553213 0.251877 0.872200
0.678996 0.241497 0.867364
0.794841 0.219200 0.857870
0.850202 0.206860 0.854479
0.000377 0.389958 0.755177
0.000375 0.387271 0.759444
0.000354 0.362083 0.820114
0.248832 0.361362 0.828310
0.396996 0.376124 0.849281
0.555881 0.405122 0.882289
0.698036 0.414867 0.889212
0.812208 0.403128 0.874162
0.864044 0.393621 0.866658
0.000517 0.531861 0.807582
0.000515 0.530686 0.809133
0.000504 0.519442 0.823780
0.202855 0.507193 0.847707
0.367627 0.502140 0.842274
0.536364 0.529309 0.873447
0.717083 0.567658 0.917589
0.844083 0.555795 0.909293
0.897573 0.549094 0.899391
0.000692 0.703743 0.878815
0.000692 0.703633 0.879951
0.000690 0.702340 0.890019
0.207370 0.703389 0.908126
0.384342 0.687921 0.892731
0.513615 0.659610 0.863908
0.699809 0.698168 0.906878
0.876121 0.728521 0.939075
0.931540 0.716253 0.932304
0.000826 0.828920 0.885169
0.000826 0.829262 0.885856
0.000829 0.832227 0.891900
0.000842 0.845801 0.913311
0.366415 0.858487 0.926089
0.557807 0.874827 0.939938
0.730308 0.888102 0.950877
0.886579 0.886386 0.951357
0.956072 0.894163 0.956151
0.000882 0.880489 0.880488
0.000882 0.880845 0.880902
0.000885 0.883947 0.884513
0.000899 0.897379 0.899125
0.340876 0.911313 0.912970
0.533767 0.926569 0.927599
0.716054 0.943216 0.943616
0.896190 0.958101 0.958143
0.964231 0.964231 0.964231
