color-grading/luts/02_looks/BNC_L12_Vivid.cube
TITLE "BNC L12 Vivid"
# BNC Grade v1.0 - High-punch, high-vibrance grade with cool blue shadows lifted in luminance for extra pop.
# Input: Rec.709 Gamma 2.4 | Output: Rec.709 Gamma 2.4
LUT_3D_SIZE 5
DOMAIN_MIN 0.0 0.0 0.0
DOMAIN_MAX 1.0 1.0 1.0
0.002839 0.002839 0.002839
0.215854 0.000000 0.000000
0.455604 0.000000 0.000000
0.672634 0.000000 0.000000
0.815368 0.000000 0.000000
0.000224 0.214420 0.098183
0.217010 0.218515 0.000000
0.467208 0.209881 0.000000
0.683624 0.198032 0.000000
0.822429 0.190785 0.000000
0.000475 0.453609 0.207735
0.000489 0.462290 0.119023
0.462756 0.465970 0.000000
0.710695 0.458289 0.000000
0.858438 0.443283 0.000000
0.000702 0.671121 0.307352
0.000706 0.672998 0.274681
0.347664 0.692270 0.000000
0.689870 0.694660 0.000000
0.866384 0.693788 0.000000
0.000849 0.811773 0.371767
0.000852 0.813224 0.349863
0.159932 0.839898 0.000000
0.623479 0.842121 0.000000
0.838871 0.844696 0.000000
0.000051 0.044253 0.177069
0.212705 0.000089 0.212707
0.455939 0.000000 0.204825
0.674182 0.000000 0.195306
0.815368 0.000000 0.189151
0.000221 0.220846 0.220846
0.228400 0.228400 0.228400
0.493166 0.177907 0.188077
0.715902 0.112134 0.154795
0.854471 0.000000 0.133945
0.000477 0.459761 0.268266
0.000488 0.467476 0.225206
0.471775 0.471550 0.105201
0.739779 0.442723 0.000000
0.889839 0.418722 0.000000
0.000705 0.676015 0.343407
0.000709 0.678396 0.317175
0.306671 0.697009 0.000000
0.695136 0.697682 0.000000
0.878639 0.692413 0.000000
0.000852 0.816061 0.398530
0.000855 0.816955 0.378891
0.000893 0.843217 0.140050
0.615236 0.844356 0.000000
0.846054 0.850282 0.000000
0.000107 0.093437 0.364556
0.190547 0.000176 0.424157
0.442506 0.000185 0.442506
0.666759 0.000120 0.429958
0.815368 0.000000 0.421044
0.000179 0.183506 0.408544
0.184283 0.159583 0.468720
0.473834 0.166724 0.476005
0.708332 0.114936 0.441382
0.852356 0.000000 0.418631
0.000477 0.476591 0.476591
0.089882 0.487107 0.488383
0.508400 0.508400 0.508399
0.761148 0.449829 0.453250
0.908526 0.415706 0.424306
0.000716 0.697573 0.489799
0.000722 0.701846 0.480656
0.306008 0.729565 0.432323
0.731121 0.731086 0.407659
0.924040 0.712764 0.396030
0.000865 0.836921 0.520543
0.000868 0.839016 0.509887
0.128235 0.866353 0.430804
0.622276 0.881862 0.376608
0.878230 0.878672 0.347661
0.000159 0.138833 0.540009
0.171659 0.000244 0.592546
0.421263 0.000275 0.653276
0.652937 0.000273 0.652937
0.815368 0.000253 0.652935
0.000186 0.171349 0.591754
0.175209 0.000275 0.669789
0.441987 0.120108 0.709010
0.682239 0.000287 0.685496
0.838601 0.000256 0.665489
0.000410 0.422059 0.654515
0.000392 0.405453 0.687114
0.422615 0.414195 0.717032
0.731324 0.432582 0.733106
0.891212 0.409898 0.700097
0.000720 0.718523 0.718523
0.000724 0.723405 0.724193
0.415305 0.751370 0.752454
0.788400 0.788400 0.788399
0.948768 0.741709 0.742419
0.000882 0.866976 0.704240
0.000886 0.870330 0.701845
0.278397 0.899724 0.703148
0.664590 0.928308 0.723998
0.929823 0.929951 0.703734
0.000192 0.168207 0.653941
0.166843 0.000296 0.719191
0.406189 0.000327 0.786599
0.652936 0.000346 0.815368
0.815367 0.000341 0.815367
0.031548 0.000319 0.773995
0.170945 0.000319 0.776403
0.414128 0.000346 0.833733
0.670477 0.000360 0.849832
0.833876 0.000350 0.836260
0.000377 0.389958 0.755177
0.000354 0.362083 0.820114
0.396996 0.376124 0.849281
0.698036 0.414867 0.889212
0.864044 0.393621 0.866658
0.000692 0.703743 0.878815
0.000690 0.702340 0.890019
0.384342 0.687921 0.892731
0.699809 0.698168 0.906878
0.931540 0.716253 0.932304
0.000882 0.880489 0.880488
0.000885 0.883947 0.884513
0.340876 0.911313 0.912970
0.716054 0.943216 0.943616
0.964231 0.964231 0.964231
