color-grading/luts/02_looks/BNC_L03_GoldenHour.cube
TITLE "BNC L03 GoldenHour"
# BNC Grade v1.0 — Warm, golden-hour glow with an amber split-tone and a soft top end.
# Input: Rec.709 Gamma 2.4 | Output: Rec.709 Gamma 2.4
LUT_3D_SIZE 5
DOMAIN_MIN 0.0 0.0 0.0
DOMAIN_MAX 1.0 1.0 1.0
0.011767 0.011709 0.011689
0.236176 0.038312 0.000000
0.497489 0.049821 0.010972
0.749352 0.041838 0.016794
0.907667 0.068694 0.027482
0.096569 0.227146 0.000000
0.246920 0.229498 0.000000
0.504303 0.228347 0.011336
0.754390 0.224227 0.018850
0.910729 0.226600 0.021172
0.075752 0.482644 0.018981
0.237265 0.484755 0.015656
0.504623 0.490155 0.015577
0.766565 0.486973 0.017257
0.923836 0.483838 0.008192
0.248530 0.718810 0.021074
0.317196 0.720260 0.027623
0.530910 0.726677 0.030121
0.781186 0.733098 0.018830
0.938508 0.734218 0.023960
0.390347 0.889279 0.037730
0.428322 0.889424 0.023335
0.584568 0.892636 0.033498
0.804504 0.902202 0.038933
0.948274 0.919272 0.413549
0.046371 0.005949 0.223177
0.240546 0.005432 0.216149
0.499771 0.000000 0.217981
0.750220 0.032854 0.217312
0.909228 0.026206 0.212821
0.067899 0.233401 0.223543
0.253508 0.233176 0.223569
0.517174 0.216482 0.212845
0.769428 0.194348 0.200530
0.931295 0.150727 0.172002
0.007204 0.487234 0.217954
0.221598 0.491598 0.205976
0.510290 0.494028 0.200613
0.795396 0.469075 0.013924
0.945671 0.457801 0.017411
0.137664 0.727719 0.032462
0.260576 0.728584 0.034637
0.519209 0.731886 0.029612
0.786716 0.733067 0.019441
0.947301 0.731686 0.007755
0.354512 0.894947 0.032856
0.399516 0.894809 0.030805
0.571815 0.895911 0.037872
0.803325 0.903839 0.039556
0.949728 0.921223 0.449677
0.065449 0.003410 0.470347
0.238632 0.011355 0.468913
0.495967 0.013295 0.466624
0.747790 0.029666 0.465360
0.909551 0.020647 0.459984
0.062282 0.224322 0.487217
0.242813 0.223471 0.488231
0.510572 0.213677 0.481748
0.766714 0.194175 0.469823
0.930696 0.152331 0.454584
0.016592 0.495440 0.485745
0.221335 0.500258 0.490305
0.524374 0.506786 0.494449
0.790976 0.484676 0.468857
0.948362 0.465605 0.444667
0.118238 0.742244 0.435562
0.254488 0.743625 0.434931
0.523942 0.748593 0.429939
0.805676 0.746660 0.411814
0.957702 0.741769 0.426863
0.246022 0.910272 0.353019
0.320655 0.911093 0.352566
0.545772 0.914678 0.349401
0.807829 0.918125 0.333369
0.956392 0.930539 0.598929
0.072383 0.015924 0.707227
0.233160 0.021417 0.708775
0.487819 0.025740 0.708377
0.741922 0.024758 0.708922
0.910393 0.026050 0.705038
0.060871 0.205606 0.734726
0.234711 0.206035 0.735301
0.497734 0.200247 0.733320
0.757808 0.176339 0.723983
0.928043 0.135987 0.711768
0.014756 0.487742 0.735430
0.216218 0.488700 0.749586
0.508165 0.490270 0.751243
0.783614 0.478979 0.732521
0.945830 0.463631 0.710148
0.120739 0.754359 0.717128
0.258388 0.756201 0.718127
0.534557 0.764565 0.722067
0.830168 0.765603 0.711393
0.965319 0.755705 0.704912
0.260297 0.927308 0.664445
0.331735 0.928443 0.664715
0.556439 0.933494 0.665493
0.826293 0.938431 0.663336
0.965317 0.945409 0.802382
0.071192 0.028009 0.901820
0.231339 0.030699 0.901559
0.485633 0.023794 0.901959
0.742302 0.027812 0.902399
0.911817 0.028900 0.896550
0.063071 0.179119 0.931824
0.231793 0.178408 0.931324
0.491335 0.172629 0.929031
0.755236 0.153315 0.922640
0.928232 0.113108 0.912469
0.028201 0.477089 0.915995
0.214301 0.474147 0.932117
0.497266 0.475462 0.933132
0.770615 0.468795 0.921398
0.938456 0.456110 0.904525
0.132959 0.750637 0.921136
0.261808 0.752154 0.922357
0.532076 0.758434 0.926872
0.818110 0.758771 0.923603
0.963197 0.757373 0.902124
0.259889 0.936127 0.886850
0.332869 0.937378 0.887991
0.561810 0.943329 0.893578
0.840596 0.951951 0.902277
0.970553 0.958538 0.943411
