color-grading/luts/02_looks/BNC_L11_Acros.cube
TITLE "BNC L11 Acros"
# BNC Grade v1.0 — Fujifilm Acros-style fine-grain black & white with punchy contrast and a gentle toe.
# Input: Rec.709 Gamma 2.4 | Output: Rec.709 Gamma 2.4
LUT_3D_SIZE 5
DOMAIN_MIN 0.0 0.0 0.0
DOMAIN_MAX 1.0 1.0 1.0
0.001404 0.001404 0.001404
0.134978 0.134978 0.134978
0.347762 0.347762 0.347762
0.553893 0.553893 0.553893
0.760024 0.760024 0.760023
0.134978 0.134978 0.134978
0.209347 0.209347 0.209347
0.378669 0.378669 0.378669
0.571970 0.571970 0.571970
0.772229 0.772229 0.772229
0.347762 0.347762 0.347762
0.378669 0.378669 0.378669
0.485803 0.485803 0.485803
0.642260 0.642260 0.642260
0.821838 0.821838 0.821838
0.553893 0.553893 0.553893
0.571970 0.571970 0.571970
0.642260 0.642260 0.642260
0.760955 0.760955 0.760955
0.908279 0.908278 0.908278
0.760024 0.760024 0.760023
0.772229 0.772229 0.772229
0.821838 0.821838 0.821838
0.908279 0.908278 0.908278
0.960157 0.960157 0.960157
0.038265 0.038265 0.038265
0.154391 0.154391 0.154391
0.354907 0.354907 0.354907
0.557973 0.557973 0.557973
0.762758 0.762758 0.762758
0.154391 0.154391 0.154391
0.222350 0.222350 0.222350
0.385139 0.385139 0.385139
0.575891 0.575891 0.575890
0.774908 0.774908 0.774908
0.354907 0.354907 0.354907
0.385139 0.385139 0.385139
0.490601 0.490601 0.490601
0.645649 0.645649 0.645649
0.824310 0.824310 0.824310
0.557973 0.557973 0.557973
0.575891 0.575891 0.575890
0.645649 0.645649 0.645649
0.763685 0.763685 0.763685
0.909988 0.909988 0.909988
0.762758 0.762758 0.762758
0.774908 0.774908 0.774908
0.824310 0.824310 0.824310
0.909988 0.909988 0.909988
0.960441 0.960441 0.960441
0.150263 0.150263 0.150263
0.219547 0.219547 0.219547
0.383714 0.383714 0.383714
0.575023 0.575023 0.575023
0.774314 0.774314 0.774314
0.219547 0.219547 0.219547
0.268990 0.268990 0.268990
0.411453 0.411453 0.411453
0.592296 0.592296 0.592296
0.786235 0.786235 0.786235
0.383714 0.383714 0.383714
0.411453 0.411453 0.411453
0.510500 0.510500 0.510500
0.659899 0.659899 0.659899
0.834778 0.834778 0.834778
0.575023 0.575023 0.575023
0.592296 0.592296 0.592296
0.659899 0.659899 0.659899
0.775224 0.775224 0.775224
0.916876 0.916876 0.916876
0.774314 0.774314 0.774314
0.786235 0.786235 0.786235
0.834778 0.834778 0.834778
0.916876 0.916876 0.916876
0.961570 0.961570 0.961570
0.265940 0.265940 0.265940
0.306721 0.306721 0.306721
0.435379 0.435379 0.435379
0.607821 0.607821 0.607821
0.797124 0.797124 0.797124
0.306721 0.306721 0.306721
0.342032 0.342032 0.342032
0.459415 0.459415 0.459415
0.623960 0.623960 0.623960
0.808612 0.808612 0.808612
0.435379 0.435379 0.435379
0.459415 0.459415 0.459415
0.548195 0.548195 0.548195
0.687692 0.687692 0.687692
0.855527 0.855526 0.855526
0.607821 0.607821 0.607821
0.623960 0.623960 0.623960
0.687692 0.687692 0.687692
0.798000 0.798000 0.798000
0.928782 0.928782 0.928782
0.797124 0.797124 0.797124
0.808612 0.808612 0.808612
0.855527 0.855526 0.855526
0.928782 0.928782 0.928782
0.963484 0.963484 0.963484
0.376086 0.376086 0.376086
0.404452 0.404452 0.404452
0.505147 0.505147 0.505147
0.656036 0.656036 0.656036
0.831928 0.831928 0.831928
0.404452 0.404452 0.404452
0.430598 0.430598 0.430598
0.525340 0.525340 0.525340
0.670720 0.670720 0.670720
0.842806 0.842806 0.842806
0.505147 0.505147 0.505147
0.525340 0.525340 0.525340
0.602480 0.602480 0.602480
0.729355 0.729355 0.729355
0.886643 0.886643 0.886642
0.656036 0.656036 0.656036
0.670720 0.670720 0.670720
0.729355 0.729355 0.729355
0.832757 0.832757 0.832757
0.942710 0.942710 0.942710
0.831928 0.831928 0.831928
0.842806 0.842806 0.842806
0.886643 0.886643 0.886642
0.942710 0.942710 0.942710
0.965738 0.965738 0.965738
