color-grading/luts/02_looks/BNC_L10_Faded.cube
TITLE "BNC L10 Faded"
# BNC Grade v1.0 - Faded, lifted-black low-contrast look with a soft highlight shoulder, like a sun-faded print.
# Input: Rec.709 Gamma 2.4 | Output: Rec.709 Gamma 2.4
LUT_3D_SIZE 33
DOMAIN_MIN 0.0 0.0 0.0
DOMAIN_MAX 1.0 1.0 1.0
0.080566 0.062900 0.053219
0.105246 0.062290 0.052438
0.130832 0.062277 0.052367
0.156861 0.062971 0.052605
0.183109 0.064427 0.053100
0.209426 0.066704 0.054000
0.235744 0.069791 0.055431
0.262027 0.073630 0.057473
0.288257 0.078132 0.060158
0.314428 0.083200 0.063470
0.340534 0.088739 0.067358
0.366575 0.094664 0.071756
0.392552 0.100900 0.076588
0.418468 0.107383 0.081781
0.444326 0.114063 0.087269
0.470128 0.120894 0.092991
0.495879 0.127840 0.098896
0.521583 0.134871 0.104939
0.547244 0.141959 0.111083
0.572866 0.149081 0.117293
0.598454 0.156217 0.123539
0.624011 0.163349 0.129795
0.649544 0.170459 0.136037
0.675054 0.177533 0.142242
0.700548 0.184555 0.148389
0.725923 0.191482 0.154433
0.750908 0.198229 0.160291
0.775232 0.204713 0.165889
0.798682 0.210823 0.171052
0.821095 0.216454 0.175596
0.842321 0.221593 0.179540
0.862259 0.226244 0.182925
0.880857 0.230424 0.185796
0.089481 0.090058 0.051910
0.110441 0.090356 0.052511
0.134472 0.090584 0.052844
0.159601 0.091114 0.053329
0.185248 0.092071 0.054097
0.211144 0.093533 0.055268
0.237154 0.095538 0.056940
0.263206 0.098100 0.059176
0.289260 0.101206 0.061996
0.315291 0.104832 0.065387
0.341287 0.108937 0.069306
0.367239 0.113475 0.073695
0.393144 0.118400 0.078490
0.419001 0.123661 0.083627
0.444809 0.129212 0.089046
0.470570 0.135009 0.094693
0.496287 0.141012 0.100520
0.521961 0.147184 0.106484
0.547598 0.153491 0.112550
0.573199 0.159905 0.118684
0.598768 0.166397 0.124857
0.624311 0.172942 0.131043
0.649830 0.179519 0.137217
0.675330 0.186106 0.143357
0.700814 0.192683 0.149442
0.726182 0.199205 0.155428
0.751160 0.205586 0.161231
0.775479 0.211742 0.166777
0.798932 0.217549 0.171858
0.821347 0.222915 0.176326
0.842575 0.227824 0.180204
0.862516 0.232276 0.183529
0.881115 0.236284 0.186348
0.103724 0.116145 0.046678
0.117339 0.117867 0.052639
0.138830 0.118589 0.053997
0.162981 0.119114 0.054863
0.187962 0.119876 0.055998
0.213378 0.120953 0.057501
0.239028 0.122402 0.059452
0.264803 0.124255 0.061899
0.290638 0.126528 0.064860
0.316494 0.129222 0.068324
0.342348 0.132328 0.072258
0.368184 0.135829 0.076615
0.393993 0.139701 0.081345
0.419770 0.143917 0.086393
0.445511 0.148447 0.091708
0.471215 0.153257 0.097242
0.496884 0.158317 0.102953
0.522518 0.163594 0.108800
0.548120 0.169058 0.114751
0.573692 0.174679 0.120772
0.599237 0.180430 0.126837
0.624758 0.186285 0.132918
0.650259 0.192218 0.138992
0.675743 0.198206 0.145036
0.701214 0.204226 0.151030
0.726571 0.210233 0.156927
0.751540 0.216141 0.162648
0.775853 0.221867 0.168110
0.799310 0.227272 0.173063
0.821729 0.232285 0.177419
0.842961 0.236885 0.181197
0.862906 0.241066 0.184433
0.881508 0.244839 0.187174
0.118843 0.142521 0.037426
0.130171 0.143864 0.047208
0.145115 0.145908 0.055141
0.166742 0.146982 0.057562
0.191016 0.147698 0.059077
0.215935 0.148608 0.060920
0.241215 0.149761 0.063141
0.266700 0.151202 0.065780
0.292303 0.152957 0.068855
0.317971 0.155045 0.072361
0.343668 0.157470 0.076277
0.369373 0.160232 0.080569
0.395073 0.163321 0.085198
0.420756 0.166724 0.090121
0.446419 0.170425 0.095295
0.472056 0.174404 0.100679
0.497668 0.178638 0.106235
0.523253 0.183104 0.111929
0.548813 0.187778 0.117727
0.574349 0.192636 0.123599
0.599863 0.197652 0.129519
0.625358 0.202803 0.135461
0.650836 0.208066 0.141402
0.676301 0.213417 0.147317
0.701756 0.218834 0.153187
0.727099 0.224273 0.158967
0.752057 0.229653 0.164577
0.776367 0.234883 0.169904
0.799830 0.239825 0.174689
0.822255 0.244427 0.178893
0.843493 0.248664 0.182536
0.863442 0.252526 0.185653
0.882049 0.256018 0.188286
0.133901 0.169136 0.019567
0.144151 0.170057 0.036639
0.156925 0.171787 0.050330
0.172714 0.174064 0.059901
0.194266 0.175455 0.063477
0.218658 0.176307 0.065591
0.243563 0.177322 0.068036
0.268766 0.178534 0.070827
0.294146 0.179972 0.073977
0.319629 0.181661 0.077489
0.345172 0.183620 0.081352
0.370747 0.185854 0.085545
0.396335 0.188367 0.090040
0.421923 0.191155 0.094804
0.447503 0.194210 0.099803
0.473070 0.197520 0.105003
0.498620 0.201072 0.110371
0.524153 0.204850 0.115876
0.549667 0.208836 0.121487
0.575163 0.213012 0.127177
0.600643 0.217357 0.132919
0.626108 0.221852 0.138688
0.651562 0.226476 0.144462
0.677006 0.231208 0.150218
0.702442 0.236028 0.155934
0.727770 0.240895 0.161566
0.752716 0.245735 0.167035
0.777028 0.250440 0.172161
0.800501 0.254897 0.176733
0.822934 0.259062 0.180748
0.844179 0.262908 0.184221
0.864136 0.266423 0.187186
0.882749 0.269609 0.189684
0.149396 0.195601 0.006849
0.158100 0.196534 0.011795
0.170014 0.197795 0.040193
0.183769 0.199823 0.056160
0.200131 0.202279 0.066804
0.221466 0.203968 0.071464
0.245971 0.204924 0.074045
0.270891 0.206021 0.076934
0.296058 0.207278 0.080123
0.321374 0.208718 0.083613
0.346779 0.210361 0.087398
0.372236 0.212224 0.091468
0.397722 0.214315 0.095805
0.423221 0.216639 0.100386
0.448724 0.219193 0.105186
0.474223 0.221975 0.110176
0.499714 0.224976 0.115328
0.525195 0.228186 0.120616
0.550664 0.231593 0.126011
0.576121 0.235183 0.131489
0.601566 0.238942 0.137024
0.627002 0.242852 0.142591
0.652431 0.246897 0.148170
0.677853 0.251059 0.153736
0.703271 0.255320 0.159268
0.728584 0.259644 0.164724
0.753520 0.263959 0.170010
0.777845 0.268141 0.174858
0.801330 0.272117 0.179178
0.823775 0.275845 0.182966
0.845030 0.279297 0.186236
0.864996 0.282459 0.189019
0.883617 0.285331 0.191354
0.164856 0.222134 0.004086
0.172558 0.222873 0.009339
0.183109 0.224104 0.019959
0.196144 0.225660 0.047550
0.210611 0.227919 0.064187
0.227380 0.230521 0.075408
0.248436 0.232482 0.081003
0.273009 0.233537 0.083942
0.297963 0.234698 0.087130
0.323123 0.235992 0.090577
0.348408 0.237435 0.094274
0.373766 0.239044 0.098214
0.399168 0.240833 0.102385
0.424595 0.242811 0.106773
0.450033 0.244983 0.111360
0.475475 0.247350 0.116125
0.500915 0.249909 0.121045
0.526350 0.252656 0.126096
0.551780 0.255583 0.131255
0.577202 0.258680 0.136498
0.602617 0.261935 0.141801
0.628027 0.265337 0.147142
0.653432 0.268872 0.152499
0.678835 0.272524 0.157851
0.704237 0.276279 0.163174
0.729536 0.280105 0.168428
0.754479 0.283913 0.173428
0.778822 0.287602 0.177958
0.802323 0.291121 0.181989
0.824782 0.294428 0.185516
0.846051 0.297498 0.188551
0.866029 0.300315 0.191122
0.884661 0.302877 0.193267
0.180042 0.248733 0.008575
0.186916 0.249370 0.000000
0.196499 0.250373 0.009050
0.208574 0.251795 0.033183
0.222407 0.253603 0.057264
0.237415 0.256046 0.073745
0.254486 0.258768 0.085230
0.275306 0.260949 0.091556
0.299825 0.262134 0.094834
0.324825 0.263346 0.098213
0.349998 0.264669 0.101815
0.375276 0.266115 0.105627
0.400615 0.267697 0.109638
0.425988 0.269425 0.113838
0.451380 0.271310 0.118214
0.476781 0.273356 0.122752
0.502184 0.275566 0.127433
0.527587 0.277938 0.132238
0.552986 0.280469 0.137148
0.578382 0.283154 0.142142
0.603775 0.285983 0.147197
0.629164 0.288949 0.152294
0.654552 0.292040 0.157410
0.679940 0.295245 0.162525
0.705330 0.298549 0.167618
0.730628 0.301917 0.172604
0.755596 0.305249 0.177223
0.779962 0.308485 0.181403
0.803484 0.311579 0.185114
0.825962 0.314493 0.188350
0.847248 0.317202 0.191121
0.867241 0.319692 0.193453
0.885887 0.321957 0.195383
0.194886 0.275393 0.008397
0.201160 0.275909 0.011381
0.209974 0.276763 0.011435
0.220992 0.278065 0.007892
0.234308 0.279566 0.046652
0.248737 0.281588 0.068242
0.264173 0.284180 0.084289
0.281478 0.287004 0.095869
0.302102 0.289363 0.102757
0.326465 0.290701 0.106374
0.351522 0.291953 0.109867
0.376724 0.293299 0.113553
0.402014 0.294746 0.117414
0.427353 0.296303 0.121439
0.452720 0.297980 0.125617
0.478099 0.299785 0.129936
0.503484 0.301722 0.134384
0.528870 0.303796 0.138945
0.554254 0.306006 0.143604
0.579637 0.308349 0.148342
0.605017 0.310821 0.153142
0.630396 0.313415 0.157982
0.655775 0.316124 0.162844
0.681156 0.318938 0.167708
0.706544 0.321843 0.172535
0.731872 0.324777 0.177107
0.756872 0.327681 0.181319
0.781267 0.330507 0.185122
0.804816 0.333212 0.188487
0.827318 0.335763 0.191405
0.848626 0.338138 0.193888
0.868637 0.340321 0.195958
0.887300 0.342308 0.197650
0.209458 0.302061 0.012016
0.215141 0.302531 0.006727
0.223337 0.303235 0.012557
0.233671 0.304299 0.011382
0.246056 0.305765 0.029181
0.260215 0.307387 0.059988
0.275106 0.309590 0.079866
0.290892 0.312306 0.095435
0.308385 0.315215 0.107022
0.328850 0.317719 0.114343
0.352979 0.319225 0.118303
0.378099 0.320509 0.121855
0.403342 0.321871 0.125572
0.428659 0.323316 0.129435
0.454017 0.324849 0.133431
0.479394 0.326479 0.137549
0.504780 0.328212 0.141778
0.530168 0.330053 0.146106
0.555554 0.332006 0.150521
0.580938 0.334070 0.155007
0.606321 0.336245 0.159548
0.631702 0.338526 0.164129
0.657083 0.340908 0.168730
0.682470 0.343381 0.173318
0.707897 0.345907 0.177713
0.733269 0.348453 0.181835
0.758309 0.350975 0.185624
0.782741 0.353432 0.189030
0.806322 0.355786 0.192028
0.828854 0.358007 0.194609
0.850187 0.360074 0.196782
0.870222 0.361974 0.198569
0.888894 0.363718 0.200043
0.223736 0.328742 0.011867
0.228991 0.329139 0.011038
0.236598 0.329756 0.013326
0.246295 0.330677 0.006845
0.257907 0.331981 0.007820
0.271561 0.333422 0.048666
0.286245 0.335232 0.073137
0.301508 0.337590 0.091795
0.317584 0.340408 0.106920
0.335237 0.343389 0.118467
0.355577 0.346012 0.126116
0.379413 0.347694 0.130424
0.404602 0.349000 0.133992
0.429896 0.350372 0.137699
0.455252 0.351810 0.141528
0.480642 0.353319 0.145462
0.506045 0.354904 0.149490
0.531453 0.356570 0.153602
0.556860 0.358322 0.157786
0.582264 0.360163 0.162030
0.607665 0.362095 0.166321
0.633063 0.364114 0.170645
0.658467 0.366215 0.174954
0.683908 0.368366 0.179091
0.709393 0.370555 0.183013
0.734819 0.372760 0.186680
0.759907 0.374945 0.190035
0.784384 0.377073 0.193033
0.808004 0.379110 0.195649
0.830572 0.381031 0.197876
0.851936 0.382818 0.199722
0.871986 0.384475 0.201254
0.890652 0.386017 0.202561
0.237782 0.355407 0.008541
0.242645 0.355766 0.004582
0.249761 0.356292 0.012199
0.258922 0.357087 0.009955
0.269980 0.358161 0.015295
0.282770 0.359617 0.030612
0.297285 0.361102 0.064388
0.312376 0.363079 0.086073
0.327945 0.365570 0.103826
0.344271 0.368474 0.118555
0.362065 0.371515 0.130033
0.382312 0.374232 0.137926
0.405816 0.376094 0.142578
0.431078 0.377414 0.146128
0.456430 0.378789 0.149794
0.481836 0.380215 0.153557
0.507268 0.381697 0.157401
0.532711 0.383236 0.161315
0.558155 0.384838 0.165285
0.583595 0.386505 0.169303
0.609031 0.388242 0.173356
0.634480 0.390036 0.177352
0.659961 0.391871 0.181192
0.685478 0.393742 0.184852
0.711033 0.395640 0.188308
0.736522 0.397549 0.191521
0.761670 0.399436 0.194440
0.786198 0.401271 0.197024
0.809866 0.403025 0.199249
0.832475 0.404676 0.201110
0.853859 0.406228 0.202677
0.873905 0.407688 0.204020
0.892566 0.409050 0.205159
0.251715 0.382025 0.008630
0.256243 0.382334 0.007667
0.262886 0.382811 0.010619
0.271532 0.383512 0.008121
0.282017 0.384446 0.006607
0.294180 0.385770 0.013770
0.308207 0.387136 0.052920
0.323189 0.388785 0.078710
0.338605 0.390912 0.098764
0.354431 0.393517 0.115819
0.370976 0.396494 0.130197
0.388900 0.399581 0.141585
0.409085 0.402373 0.149649
0.432273 0.404395 0.154610
0.457574 0.405737 0.158134
0.482991 0.407106 0.161731
0.508453 0.408516 0.165402
0.533938 0.409966 0.169132
0.559430 0.411458 0.172906
0.584930 0.412990 0.176678
0.610454 0.414552 0.180344
0.636004 0.416141 0.183878
0.661579 0.417756 0.187259
0.687184 0.419391 0.190462
0.712819 0.421041 0.193466
0.738383 0.422693 0.196235
0.763598 0.424321 0.198722
0.788188 0.425897 0.200890
0.811909 0.427400 0.202723
0.834540 0.428836 0.204299
0.855925 0.430201 0.205660
0.875969 0.431486 0.206818
0.894627 0.432685 0.207791
0.265591 0.408582 0.009742
0.269855 0.408850 0.013825
0.276084 0.409277 0.015313
0.284197 0.409915 0.003512
0.294254 0.410709 0.017355
0.305862 0.411866 0.016034
0.319080 0.413268 0.035278
0.333914 0.414652 0.069540
0.349258 0.416453 0.092200
0.364935 0.418714 0.111171
0.380983 0.421418 0.127669
0.397723 0.424454 0.141731
0.415773 0.427578 0.153008
0.435926 0.430425 0.161179
0.458864 0.432571 0.166381
0.484138 0.433953 0.169897
0.509623 0.435310 0.173398
0.535160 0.436691 0.176910
0.560742 0.438086 0.180356
0.586355 0.439493 0.183712
0.611992 0.440911 0.186954
0.637651 0.442338 0.190061
0.663330 0.443773 0.193011
0.689032 0.445213 0.195783
0.714758 0.446655 0.198353
0.740407 0.448088 0.200691
0.765699 0.449491 0.202753
0.790352 0.450847 0.204529
0.814096 0.452162 0.206091
0.836734 0.453426 0.207451
0.858122 0.454627 0.208614
0.878167 0.455758 0.209594
0.896823 0.456814 0.210408
0.279467 0.435067 0.007837
0.283517 0.435284 0.018187
0.289286 0.435702 0.010610
0.297031 0.436246 0.013177
0.306563 0.436975 0.016578
0.317664 0.437980 0.013778
0.330259 0.439316 0.019047
0.344614 0.440619 0.057534
0.359860 0.442150 0.084118
0.375487 0.444091 0.105051
0.391380 0.446470 0.123248
0.407621 0.449261 0.139284
0.424542 0.452344 0.153054
0.442717 0.455494 0.164201
0.462871 0.458377 0.172396
0.485647 0.460605 0.177682
0.510897 0.462015 0.181030
0.536521 0.463323 0.184160
0.562202 0.464634 0.187224
0.587923 0.465945 0.190195
0.613672 0.467251 0.193048
0.639442 0.468551 0.195760
0.665230 0.469843 0.198309
0.691037 0.471125 0.200674
0.716862 0.472395 0.202832
0.742602 0.473644 0.204755
0.767958 0.474871 0.206469
0.792636 0.476074 0.208002
0.816396 0.477239 0.209347
0.839045 0.478355 0.210505
0.860440 0.479415 0.211484
0.880487 0.480413 0.212297
0.899143 0.481344 0.212961
0.293541 0.461428 0.017476
0.297178 0.461687 0.007899
0.302760 0.462006 0.018313
0.309982 0.462537 0.004913
0.319031 0.463200 0.006302
0.329680 0.464066 0.009202
0.341829 0.465266 0.016216
0.355386 0.466631 0.038761
0.370472 0.467944 0.073972
0.386035 0.469613 0.097486
0.401889 0.471681 0.117300
0.417974 0.474164 0.134855
0.434407 0.477022 0.150409
0.451528 0.480133 0.163769
0.469882 0.483280 0.174572
0.490134 0.486156 0.182512
0.512868 0.488408 0.187628
0.538110 0.489825 0.190688
0.563870 0.491068 0.193395
0.589684 0.492302 0.196008
0.615535 0.493521 0.198499
0.641411 0.494722 0.200843
0.667307 0.495901 0.203017
0.693220 0.497057 0.204999
0.719136 0.498194 0.206797
0.744929 0.499322 0.208455
0.770316 0.500431 0.209953
0.795018 0.501511 0.211279
0.818797 0.502553 0.212429
0.841460 0.503547 0.213404
0.862863 0.504488 0.214215
0.882916 0.505372 0.214876
0.901573 0.506196 0.215402
0.307802 0.487699 0.020120
0.311299 0.487906 0.020544
0.316375 0.488266 0.007659
0.323367 0.488703 0.016777
0.331975 0.489305 0.016495
0.342124 0.490084 0.011753
0.353845 0.491127 0.020683
0.366730 0.492478 0.019208
0.381302 0.493756 0.059038
0.396769 0.495194 0.087210
0.412598 0.496985 0.109072
0.428650 0.499164 0.128093
0.444912 0.501733 0.145102
0.461534 0.504640 0.160186
0.478863 0.507761 0.173111
0.497420 0.510885 0.183526
0.517813 0.513727 0.191153
0.540575 0.515965 0.196021
0.565816 0.517369 0.198769
0.591700 0.518538 0.201042
0.617634 0.519686 0.203190
0.643603 0.520808 0.205186
0.669587 0.521904 0.207035
0.695559 0.522983 0.208766
0.721514 0.524046 0.210372
0.747342 0.525092 0.211840
0.772759 0.526112 0.213153
0.797487 0.527096 0.214300
0.821287 0.528039 0.215278
0.843965 0.528935 0.216094
0.865379 0.529779 0.216757
0.885438 0.530568 0.217283
0.904100 0.531302 0.217687
0.322817 0.513767 0.017746
0.326062 0.513965 0.013894
0.330927 0.514282 0.005842
0.337595 0.514652 0.021046
0.345795 0.515195 0.022101
0.355477 0.515922 0.017162
0.366651 0.516819 0.019928
0.379117 0.518035 0.020746
0.392642 0.519499 0.021853
0.407916 0.520753 0.071332
0.423644 0.522315 0.097344
0.439649 0.524226 0.118524
0.455837 0.526509 0.137145
0.472237 0.529154 0.153794
0.489031 0.532099 0.168490
0.506569 0.535216 0.181001
0.525347 0.538299 0.191003
0.545922 0.541082 0.198256
0.568772 0.543270 0.202798
0.594037 0.544637 0.205196
0.620006 0.545734 0.207068
0.645999 0.546814 0.208853
0.672000 0.547872 0.210536
0.697997 0.548907 0.212104
0.723980 0.549920 0.213549
0.749837 0.550907 0.214858
0.775282 0.551862 0.216015
0.800035 0.552776 0.217010
0.823855 0.553644 0.217845
0.846549 0.554463 0.218526
0.867975 0.555229 0.219064
0.888042 0.555943 0.219475
0.906709 0.556604 0.219775
0.338958 0.539567 0.019891
0.341971 0.539775 0.012027
0.346617 0.540017 0.017989
0.352846 0.540386 0.021817
0.360519 0.540923 0.012754
0.369851 0.541527 0.022359
0.380503 0.542340 0.023079
0.392387 0.543408 0.018714
0.405478 0.544735 0.023283
0.419610 0.546242 0.038998
0.435148 0.547618 0.079525
0.451039 0.549303 0.105006
0.467149 0.551330 0.126033
0.483429 0.553710 0.144496
0.499946 0.556421 0.160900
0.516906 0.559391 0.175257
0.534659 0.562487 0.187364
0.553662 0.565516 0.196963
0.574418 0.568230 0.203871
0.597342 0.570365 0.208165
0.622569 0.571710 0.210374
0.648543 0.572764 0.212009
0.674539 0.573796 0.213549
0.700542 0.574803 0.214979
0.726540 0.575782 0.216289
0.752415 0.576732 0.217467
0.777881 0.577642 0.218496
0.802654 0.578506 0.219369
0.826492 0.579321 0.220088
0.849201 0.580083 0.220659
0.870638 0.580792 0.221096
0.890715 0.581447 0.221415
0.909387 0.582051 0.221632
0.356113 0.565124 0.016368
0.359053 0.565277 0.021378
0.363371 0.565527 0.021985
0.369157 0.565883 0.020418
0.376453 0.566371 0.018172
0.385201 0.566968 0.016465
0.395337 0.567701 0.018484
0.406745 0.568587 0.024647
0.419246 0.569775 0.024383
0.432703 0.571260 0.019152
0.447223 0.572851 0.044244
0.462919 0.574350 0.084531
0.478890 0.576158 0.110426
0.495042 0.578300 0.131702
0.511366 0.580774 0.150236
0.527961 0.583547 0.166559
0.545049 0.586541 0.180720
0.562973 0.589621 0.192561
0.582165 0.592600 0.201869
0.603073 0.595250 0.208516
0.626060 0.597333 0.212606
0.651252 0.598653 0.214639
0.677219 0.599666 0.216054
0.703208 0.600654 0.217367
0.729201 0.601613 0.218566
0.755081 0.602539 0.219638
0.780556 0.603421 0.220566
0.805342 0.604254 0.221345
0.829192 0.605034 0.221974
0.851912 0.605757 0.222463
0.873359 0.606425 0.222824
0.893443 0.607039 0.223074
0.912120 0.607601 0.223230
0.374470 0.590404 0.025406
0.377016 0.590606 0.011668
0.381170 0.590796 0.025285
0.386539 0.591162 0.019538
0.393443 0.591569 0.024424
0.401604 0.592167 0.013031
0.411233 0.592847 0.020663
0.421974 0.593719 0.011233
0.433937 0.594685 0.026202
0.446768 0.596033 0.015249
0.460525 0.597645 0.008073
0.475214 0.599370 0.044259
0.490959 0.601002 0.087476
0.506935 0.602938 0.114387
0.523084 0.605193 0.136170
0.539430 0.607756 0.154913
0.556095 0.610584 0.171234
0.573310 0.613592 0.185245
0.591407 0.616648 0.196846
0.610784 0.619573 0.205884
0.631842 0.622157 0.212284
0.654894 0.624184 0.216178
0.680055 0.625475 0.218044
0.706005 0.626451 0.219259
0.731974 0.627398 0.220368
0.757841 0.628311 0.221356
0.783311 0.629180 0.222209
0.808097 0.629995 0.222918
0.831952 0.630754 0.223485
0.854677 0.631455 0.223918
0.876129 0.632097 0.224229
0.896218 0.632684 0.224435
0.914898 0.633218 0.224552
0.393129 0.615593 0.010471
0.395634 0.615739 0.012612
0.399477 0.615923 0.024198
0.404434 0.616285 0.008555
0.410860 0.616702 0.009615
0.418735 0.617183 0.026331
0.427742 0.617867 0.023935
0.437930 0.618667 0.021287
0.449238 0.619640 0.020948
0.461517 0.620758 0.024122
0.474644 0.622206 0.015800
0.488602 0.623951 0.013717
0.503326 0.625849 0.040738
0.519089 0.627610 0.089004
0.535055 0.629667 0.117218
0.551200 0.632024 0.139617
0.567575 0.634664 0.158625
0.584319 0.637535 0.174981
0.601669 0.640549 0.188871
0.619939 0.643573 0.200261
0.639496 0.646441 0.209056
0.660696 0.648959 0.215230
0.683812 0.650930 0.218942
0.708945 0.652191 0.220655
0.734866 0.653132 0.221694
0.760700 0.654040 0.222621
0.786148 0.654902 0.223421
0.810921 0.655712 0.224085
0.834768 0.656462 0.224615
0.857490 0.657152 0.225017
0.878941 0.657782 0.225304
0.899029 0.658354 0.225490
0.917709 0.658872 0.225593
0.412256 0.640613 0.011317
0.414568 0.640757 0.009135
0.418149 0.640958 0.022004
0.422893 0.641259 0.022984
0.428850 0.641669 0.017652
0.436210 0.642160 0.025784
0.444621 0.642831 0.010917
0.454323 0.643580 0.017414
0.465092 0.644475 0.021755
0.476813 0.645506 0.026369
0.489317 0.646780 0.017650
0.502676 0.648349 0.006853
0.516777 0.650225 0.005012
0.531507 0.652295 0.031646
0.547267 0.654178 0.089116
0.563220 0.656346 0.118952
0.579367 0.658796 0.142083
0.595781 0.661501 0.161413
0.612615 0.664404 0.177844
0.630103 0.667414 0.191650
0.648544 0.670403 0.202863
0.668274 0.673212 0.211447
0.689608 0.675664 0.217422
0.712783 0.677580 0.220975
0.737885 0.678812 0.222556
0.763664 0.679719 0.223442
0.789071 0.680583 0.224211
0.813814 0.681393 0.224854
0.837641 0.682145 0.225371
0.860349 0.682834 0.225768
0.881790 0.683462 0.226055
0.901871 0.684030 0.226246
0.920545 0.684542 0.226358
0.431625 0.665528 0.011696
0.433939 0.665609 0.028847
0.437085 0.665867 0.018379
0.441484 0.666164 0.014707
0.447203 0.666532 0.024927
0.454064 0.667015 0.026977
0.462059 0.667618 0.025106
0.471176 0.668374 0.020011
0.481438 0.669191 0.029139
0.492551 0.670236 0.022784
0.504519 0.671420 0.012315
0.517374 0.672754 0.027803
0.530874 0.674423 0.025566
0.545063 0.676431 0.025263
0.559770 0.678671 0.026121
0.575464 0.680709 0.087775
0.591405 0.682979 0.119623
0.607563 0.685511 0.143614
0.624027 0.688270 0.163334
0.640959 0.691196 0.179886
0.658589 0.694195 0.193649
0.677198 0.697145 0.204725
0.697090 0.699896 0.213136
0.718547 0.702284 0.218948
0.741773 0.704148 0.222370
0.766735 0.705349 0.223844
0.792082 0.706218 0.224604
0.816778 0.707035 0.225248
0.840568 0.707793 0.225776
0.863249 0.708489 0.226191
0.884670 0.709123 0.226503
0.904735 0.709696 0.226725
0.923398 0.710211 0.226870
0.451182 0.690345 0.015361
0.453339 0.690423 0.030037
0.456247 0.690680 0.016037
0.460531 0.690937 0.029841
0.465663 0.691335 0.014574
0.472094 0.691833 0.009711
0.479726 0.692366 0.023930
0.488419 0.693051 0.028128
0.498105 0.693871 0.028929
0.508744 0.694861 0.028229
0.520217 0.695982 0.025892
0.532462 0.697269 0.023011
0.545412 0.698762 0.020356
0.559016 0.700522 0.017904
0.573278 0.702656 0.015273
0.588019 0.705018 0.006008
0.603650 0.707204 0.084914
0.619587 0.709567 0.119278
0.635766 0.712170 0.144277
0.652293 0.714974 0.164462
0.669330 0.717913 0.181189
0.687102 0.720897 0.194955
0.705872 0.723806 0.205941
0.725915 0.726501 0.214225
0.747481 0.728830 0.219914
0.770650 0.730640 0.223235
0.795179 0.731806 0.224636
0.819810 0.732634 0.225305
0.843548 0.733404 0.225868
0.866188 0.734112 0.226326
0.887577 0.734758 0.226688
0.907616 0.735342 0.226964
0.926259 0.735867 0.227166
0.470804 0.714973 0.023009
0.472634 0.715111 0.015780
0.475509 0.715303 0.019620
0.479510 0.715556 0.030417
0.484480 0.715913 0.031333
0.490456 0.716380 0.025063
0.497633 0.716928 0.028800
0.505800 0.717599 0.026767
0.514952 0.718427 0.018827
0.525142 0.719337 0.027011
0.536163 0.720397 0.030456
0.547943 0.721618 0.031989
0.560311 0.723061 0.005023
0.573473 0.724587 0.032428
0.587158 0.726463 0.031498
0.601464 0.728721 0.028743
0.616222 0.731203 0.020831
0.631755 0.733568 0.080652
0.647696 0.736015 0.118118
0.663910 0.738680 0.144261
0.680510 0.741520 0.164974
0.697660 0.744467 0.181922
0.715575 0.747431 0.195733
0.734500 0.750299 0.206669
0.754685 0.752940 0.214866
0.776260 0.755205 0.220455
0.799095 0.756952 0.223696
0.822893 0.758087 0.225080
0.846563 0.758872 0.225701
0.869148 0.759596 0.226227
0.890492 0.760258 0.226663
0.910495 0.760858 0.227017
0.929109 0.761398 0.227301
0.490052 0.739215 0.011334
0.491939 0.739287 0.028567
0.494621 0.739477 0.029237
0.498187 0.739790 0.018290
0.502840 0.740142 0.014553
0.508603 0.740538 0.024664
0.515376 0.741104 0.024858
0.523061 0.741762 0.008996
0.531841 0.742515 0.018799
0.541491 0.743403 0.015748
0.552111 0.744405 0.031194
0.563358 0.745618 0.021564
0.575402 0.746940 0.028389
0.588051 0.748436 0.031576
0.601240 0.750117 0.032608
0.614976 0.752076 0.031346
0.629331 0.754452 0.025896
0.644166 0.757004 0.032278
0.659623 0.759544 0.075649
0.675584 0.762068 0.116660
0.691848 0.764788 0.143985
