color-grading/luts/02_looks/BNC_L03_GoldenHour.cube
TITLE "BNC L03 GoldenHour"
# BNC Grade v1.0 — Warm, golden-hour glow with an amber split-tone and a soft top end.
# Input: Rec.709 Gamma 2.4 | Output: Rec.709 Gamma 2.4
LUT_3D_SIZE 33
DOMAIN_MIN 0.0 0.0 0.0
DOMAIN_MAX 1.0 1.0 1.0
0.011767 0.011709 0.011689
0.019545 0.011382 0.011408
0.038929 0.005040 0.006522
0.069870 0.011866 0.000000
0.102749 0.021292 0.000000
0.135872 0.028053 0.001303
0.169375 0.032143 0.003185
0.202844 0.035433 0.000000
0.236176 0.038312 0.000000
0.269438 0.040452 0.004491
0.302458 0.042722 0.003042
0.335500 0.043767 0.004826
0.368329 0.044767 0.000000
0.400695 0.047246 0.008060
0.433343 0.046884 0.004148
0.465629 0.047457 0.004047
0.497489 0.049821 0.010972
0.529667 0.048528 0.012568
0.561409 0.049136 0.013212
0.593075 0.048947 0.015004
0.624894 0.044959 0.008227
0.655983 0.047442 0.016726
0.687217 0.046203 0.017259
0.718422 0.044096 0.020133
0.749352 0.041838 0.016794
0.780160 0.039500 0.017743
0.810503 0.043287 0.027873
0.839185 0.042666 0.022465
0.863372 0.047943 0.016972
0.881830 0.059477 0.029138
0.895323 0.065034 0.030121
0.905020 0.068968 0.030649
0.907667 0.068694 0.027482
0.012314 0.018916 0.010748
0.019648 0.018776 0.010316
0.039100 0.017155 0.005704
0.069865 0.018019 0.000000
0.102798 0.023741 0.000000
0.135941 0.029411 0.000000
0.169415 0.033259 0.002955
0.202873 0.036385 0.000000
0.236198 0.039149 0.000000
0.269456 0.041214 0.003986
0.302472 0.043421 0.003303
0.335512 0.044434 0.004783
0.368339 0.045406 0.000000
0.400705 0.047837 0.008061
0.433351 0.047475 0.004066
0.465636 0.048035 0.003960
0.497496 0.050361 0.010991
0.529673 0.049082 0.012546
0.561415 0.049682 0.013198
0.593081 0.049496 0.014990
0.624899 0.045570 0.008169
0.655988 0.048017 0.016711
0.687222 0.046803 0.017244
0.718426 0.044726 0.020111
0.749355 0.042565 0.016825
0.780163 0.040298 0.017768
0.810506 0.043966 0.027878
0.839188 0.043354 0.022453
0.863375 0.048504 0.016918
0.881834 0.059869 0.029115
0.895324 0.065360 0.030069
0.905022 0.069264 0.030596
0.907668 0.068991 0.027415
0.021364 0.035836 0.000000
0.024413 0.035808 0.000000
0.040081 0.035559 0.000000
0.070461 0.035332 0.000000
0.103399 0.036799 0.000000
0.136452 0.039428 0.000000
0.169821 0.041746 0.000000
0.203236 0.043781 0.003406
0.236336 0.046346 0.004817
0.269537 0.048067 0.006268
0.302614 0.049457 0.003783
0.335649 0.050208 0.000000
0.368310 0.051733 0.009380
0.400797 0.053086 0.007968
0.433433 0.052732 0.002927
0.465710 0.053193 0.002772
0.497564 0.055223 0.011104
0.529538 0.055336 0.006706
0.561474 0.054591 0.013051
0.593136 0.054420 0.014847
0.624497 0.055289 0.015336
0.656038 0.053138 0.016563
0.687270 0.052106 0.017090
0.718472 0.050268 0.019901
0.749386 0.048793 0.017116
0.780194 0.046997 0.018004
0.810536 0.049852 0.027925
0.839218 0.049300 0.022331
0.863406 0.053516 0.016350
0.881865 0.063513 0.028889
0.895336 0.068423 0.029547
0.905034 0.072064 0.030060
0.907699 0.071539 0.025889
0.043142 0.063884 0.000000
0.044001 0.063887 0.000000
0.051503 0.063919 0.000000
0.075627 0.064047 0.000000
0.106679 0.064457 0.000000
0.138847 0.065332 0.000000
0.171414 0.066559 0.003391
0.204364 0.067666 0.003693
0.237389 0.068698 0.005719
0.270394 0.069614 0.004358
0.303400 0.070221 0.002917
0.336054 0.071347 0.007567
0.368878 0.071537 0.002385
0.401158 0.072901 0.010322
0.433714 0.072713 0.009273
0.465933 0.073108 0.010850
0.497948 0.073645 0.009623
0.529893 0.073718 0.008813
0.561785 0.073116 0.011430
0.593429 0.072964 0.013612
0.625027 0.072057 0.000000
0.656299 0.072093 0.015597
0.687520 0.071408 0.016119
0.718711 0.070111 0.018744
0.749552 0.069921 0.018262
0.780353 0.068877 0.019033
0.810693 0.070341 0.028108
0.839377 0.069853 0.021573
0.863568 0.072203 0.010388
0.882028 0.078758 0.027587
0.895557 0.082249 0.027944
0.905117 0.084370 0.025994
0.907761 0.084176 0.021138
0.061982 0.095800 0.000000
0.062384 0.095823 0.000000
0.066786 0.095871 0.000000
0.084455 0.096186 0.002381
0.111909 0.096712 0.002673
0.142661 0.097230 0.002955
0.174525 0.097748 0.002204
0.206899 0.098257 0.002876
0.239326 0.098940 0.006134
0.271841 0.099642 0.005990
0.304652 0.099910 0.006940
0.337001 0.100777 0.009187
0.369748 0.100721 0.007802
0.402237 0.100843 0.002145
0.434486 0.101170 0.008125
0.466733 0.101044 0.004838
0.498630 0.101450 0.007034
0.530496 0.101539 0.009838
0.562343 0.101210 0.014013
0.594142 0.100303 0.006584
0.625454 0.100621 0.012796
0.656950 0.099593 0.010857
0.688145 0.099096 0.011927
0.719011 0.099400 0.013016
0.749950 0.098815 0.019911
0.780737 0.098105 0.020438
0.811128 0.098803 0.028165
0.839821 0.098277 0.018679
0.863698 0.101915 0.028760
0.882487 0.103454 0.023412
0.895944 0.105670 0.023020
0.904951 0.108816 0.030814
0.907598 0.108680 0.027554
0.073770 0.128729 0.003328
0.074114 0.128733 0.003230
0.077319 0.128826 0.000000
0.092194 0.129010 0.002771
0.117124 0.129463 0.000000
0.146464 0.129940 0.000000
0.177548 0.130385 0.004401
0.209560 0.130661 0.005938
0.241721 0.130965 0.007243
0.274179 0.131127 0.002299
0.306530 0.131387 0.007275
0.338932 0.131561 0.009308
0.371247 0.131748 0.008761
0.403558 0.131779 0.007892
0.435760 0.131777 0.010150
0.467926 0.131587 0.005761
0.499636 0.132026 0.010404
0.531519 0.131787 0.013374
0.563213 0.131620 0.011162
0.594905 0.131091 0.010632
0.626347 0.130741 0.000000
0.657777 0.130028 0.007839
0.688917 0.129674 0.011562
0.719995 0.128991 0.015838
0.750783 0.128860 0.016284
0.781439 0.128714 0.020761
0.811774 0.128957 0.026848
0.840223 0.129915 0.028922
0.864421 0.130585 0.022214
0.882890 0.133170 0.029646
0.896341 0.134623 0.028879
0.905597 0.134895 0.018635
0.907859 0.136251 0.029019
0.083176 0.161664 0.004657
0.083460 0.161668 0.005096
0.086425 0.161663 0.005682
0.099249 0.161826 0.006429
0.121966 0.162245 0.000000
0.149961 0.162714 0.000000
0.180410 0.163167 0.003200
0.211953 0.163524 0.008039
0.243934 0.163769 0.008452
0.276293 0.163802 0.006593
0.308510 0.163881 0.002355
0.340731 0.163932 0.005527
0.372876 0.163985 0.006679
0.405224 0.163733 0.009772
0.437043 0.163953 0.011798
0.469224 0.163572 0.001688
0.501098 0.163405 0.013807
0.533069 0.162813 0.003956
0.564552 0.162797 0.010531
0.595875 0.162941 0.016347
0.627359 0.162360 0.015339
0.658862 0.161386 0.011406
0.689908 0.161167 0.017953
0.720897 0.160670 0.017477
0.751612 0.160614 0.017332
0.782459 0.159741 0.015112
0.812852 0.159680 0.020005
0.841257 0.160093 0.017409
0.865148 0.161542 0.024419
0.883683 0.163323 0.030007
0.897122 0.164311 0.028437
0.906357 0.164455 0.014922
0.908548 0.165433 0.027803
0.090828 0.194457 0.004033
0.091074 0.194460 0.004498
0.093538 0.194488 0.007298
0.105130 0.194604 0.005541
0.126237 0.194960 0.004714
0.152997 0.195412 0.003660
0.182665 0.195921 0.000000
0.213863 0.196365 0.000000
0.245750 0.196682 0.008738
0.278050 0.196800 0.006019
0.310298 0.196829 0.010740
0.342647 0.196691 0.003429
0.374813 0.196559 0.009357
0.406832 0.196468 0.011171
0.438894 0.196210 0.010910
0.470891 0.195892 0.007194
0.502628 0.195685 0.010603
0.534392 0.195320 0.013124
0.565904 0.195049 0.013585
0.597533 0.194428 0.015676
0.629032 0.193740 0.006455
0.660152 0.193481 0.016933
0.691251 0.192943 0.013943
0.722125 0.192626 0.019627
0.752957 0.192044 0.015599
0.783805 0.191160 0.010487
0.814018 0.191342 0.016165
0.842177 0.192325 0.028406
0.866064 0.193317 0.030609
0.884855 0.193629 0.019890
0.898015 0.195297 0.032192
0.907220 0.195369 0.023322
0.909406 0.196110 0.031244
0.096569 0.227146 0.000000
0.096792 0.227149 0.000000
0.099027 0.227174 0.005632
0.109616 0.227295 0.006396
0.129642 0.227591 0.002713
0.155428 0.228016 0.005802
0.184389 0.228533 0.009822
0.215161 0.229064 0.006903
0.246920 0.229498 0.000000
0.279157 0.229784 0.008326
0.311541 0.229903 0.008387
0.343965 0.229837 0.007945
0.376284 0.229658 0.009210
0.408546 0.229360 0.008342
0.440509 0.229123 0.013457
0.472404 0.228798 0.014348
0.504303 0.228347 0.011336
0.536180 0.227727 0.000000
0.567710 0.227318 0.007964
0.599185 0.226785 0.012536
0.630598 0.226169 0.011135
0.661867 0.225474 0.006412
0.692779 0.225172 0.014122
0.723939 0.224198 0.005228
0.754390 0.224227 0.018850
0.785113 0.223487 0.015928
0.815171 0.223915 0.029054
0.843550 0.223918 0.022747
0.867485 0.224599 0.024071
0.885950 0.225503 0.027836
0.899395 0.226010 0.024073
0.908245 0.226822 0.029375
0.910729 0.226600 0.021172
0.100801 0.259659 0.007965
0.101008 0.259661 0.008163
0.103089 0.259684 0.009760
0.113222 0.259764 0.009644
0.132143 0.260082 0.008975
0.157123 0.260489 0.009559
0.185544 0.261003 0.010592
0.215900 0.261577 0.011402
0.247437 0.262130 0.008897
0.279602 0.262562 0.011294
0.312157 0.262828 0.005447
0.344730 0.262919 0.007061
0.377228 0.262842 0.012653
0.409584 0.262618 0.008719
0.441877 0.262247 0.011719
0.474008 0.261774 0.010678
0.506003 0.261238 0.006808
0.537727 0.260750 0.012701
0.569210 0.260309 0.014120
0.600773 0.259657 0.011729
0.632267 0.258883 0.012060
0.663459 0.258247 0.009040
0.694530 0.257574 0.015529
0.725441 0.256914 0.014495
0.756188 0.256296 0.013785
0.786623 0.256060 0.021821
0.817110 0.255434 0.012397
0.845013 0.256217 0.024975
0.868862 0.256698 0.026051
0.887358 0.257416 0.029789
0.900692 0.257782 0.026546
0.909494 0.258426 0.031428
0.911959 0.258239 0.024530
0.102832 0.292075 0.009150
0.103031 0.292077 0.009243
0.105036 0.292098 0.010114
0.114682 0.292204 0.006792
0.133446 0.292446 0.011225
0.157923 0.292843 0.000000
0.185945 0.293354 0.008151
0.216048 0.293927 0.003507
0.247402 0.294520 0.009073
0.279511 0.295088 0.007137
0.312076 0.295524 0.008433
0.344770 0.295802 0.013555
0.377527 0.295879 0.014792
0.410230 0.295749 0.011919
0.442705 0.295476 0.009613
0.474906 0.295120 0.016381
0.507173 0.294530 0.011740
0.538987 0.294015 0.014443
0.570679 0.293431 0.016903
0.602451 0.292581 0.003252
0.633809 0.291929 0.011463
0.664992 0.291286 0.016691
0.696031 0.290624 0.017973
0.727158 0.289683 0.018480
0.757999 0.288861 0.011639
0.788339 0.288650 0.016833
0.818731 0.288131 0.012603
0.846678 0.288512 0.022694
0.870332 0.289113 0.030492
0.889083 0.289207 0.019462
0.902043 0.290022 0.033569
0.911077 0.290023 0.025602
0.913225 0.290411 0.033448
0.103133 0.324326 0.009228
0.103329 0.324328 0.009307
0.106032 0.324266 0.013332
0.115151 0.324397 0.013194
0.133436 0.324663 0.001935
0.157866 0.325013 0.013441
0.185659 0.325525 0.010316
0.215579 0.326117 0.011781
0.246808 0.326744 0.007516
0.278849 0.327393 0.007792
0.311428 0.327944 0.010319
0.344291 0.328378 0.010234
0.377270 0.328643 0.008366
0.410142 0.328716 0.010749
0.442856 0.328607 0.013769
0.475549 0.328253 0.005611
0.507945 0.327799 0.009344
0.540038 0.327249 0.007213
0.571917 0.326644 0.017860
0.603747 0.325867 0.014059
0.635273 0.325113 0.013980
0.666534 0.324372 0.019734
0.697721 0.323593 0.016756
0.728778 0.322706 0.011344
0.759587 0.322004 0.016546
0.790048 0.321537 0.016116
0.820293 0.321091 0.012788
0.848414 0.321108 0.019165
0.872460 0.321015 0.013604
0.890676 0.321647 0.026246
0.903794 0.321991 0.028919
0.912728 0.322021 0.020227
0.914854 0.322353 0.031558
0.101850 0.356358 0.013070
0.102049 0.356360 0.013119
0.104052 0.356379 0.013593
0.114084 0.356428 0.014759
0.132051 0.356732 0.005143
0.156618 0.357063 0.010915
0.184610 0.357527 0.011912
0.214478 0.358119 0.005228
0.245665 0.358778 0.005296
0.277707 0.359458 0.009959
0.310324 0.360090 0.016109
0.343230 0.360668 0.012061
0.376326 0.361108 0.016248
0.409477 0.361363 0.006643
0.442574 0.361422 0.000000
0.475376 0.361316 0.016016
0.508091 0.360975 0.015625
0.540535 0.360492 0.007839
0.572751 0.359870 0.008922
0.604692 0.359178 0.016233
0.636415 0.358404 0.017798
0.667994 0.357550 0.020600
0.699413 0.356565 0.008132
0.730319 0.355907 0.016662
0.761171 0.355120 0.016823
0.791627 0.354637 0.023399
0.821805 0.354244 0.022118
0.850106 0.353997 0.025273
0.874012 0.353936 0.024381
0.892682 0.353881 0.018173
0.905658 0.354141 0.018413
0.914289 0.354470 0.030866
0.916608 0.354454 0.027954
0.098724 0.388216 0.015568
0.098931 0.388218 0.015611
0.101013 0.388235 0.016030
0.110432 0.388374 0.009049
0.130088 0.388531 0.016089
0.154605 0.388892 0.005211
0.182822 0.389345 0.014493
0.212945 0.389892 0.014497
0.244138 0.390577 0.006526
0.276168 0.391294 0.000000
0.308772 0.392012 0.004382
0.341760 0.392684 0.006629
0.374976 0.393260 0.007419
0.408275 0.393683 0.000000
0.441567 0.393943 0.013817
0.474745 0.394006 0.015301
0.507724 0.393875 0.016266
0.540547 0.393510 0.012990
0.573001 0.393048 0.014685
0.605168 0.392444 0.020286
0.637337 0.391624 0.011096
0.669120 0.390759 0.015980
0.700446 0.389991 0.022389
0.731613 0.389184 0.023211
0.762662 0.388327 0.018213
0.793311 0.387645 0.005710
0.823568 0.387151 0.024975
0.852064 0.386602 0.011810
0.875900 0.386561 0.018210
0.894433 0.386518 0.022257
0.907600 0.386519 0.017936
0.916325 0.386490 0.012453
0.918356 0.386793 0.026631
0.092925 0.419926 0.001814
0.093150 0.419928 0.002838
0.095410 0.419944 0.006420
0.106075 0.420031 0.011741
0.126143 0.420211 0.016168
0.151733 0.420527 0.016143
0.180091 0.421014 0.006459
0.210776 0.421500 0.016101
0.242086 0.422192 0.016315
0.274191 0.422926 0.007659
0.306942 0.423668 0.015753
0.339964 0.424416 0.011278
0.373270 0.425080 0.018898
0.406689 0.425666 0.015107
0.440159 0.426103 0.017216
0.473528 0.426365 0.018818
0.506913 0.426417 0.005973
0.539945 0.426283 0.021008
0.572856 0.425906 0.012582
0.605390 0.425421 0.016330
0.637840 0.424687 0.012598
0.669770 0.423942 0.019249
0.701394 0.423182 0.021112
0.732996 0.422212 0.017018
0.764065 0.421428 0.021149
0.794849 0.420701 0.022428
0.825433 0.419954 0.012421
0.853791 0.419518 0.017975
0.877619 0.419374 0.026964
0.896351 0.419084 0.016347
0.909372 0.419052 0.019048
0.918002 0.419031 0.020838
0.920255 0.419029 0.019194
0.084825 0.451415 0.010836
0.085082 0.451417 0.010873
0.087644 0.451433 0.011235
0.100341 0.451456 0.015283
0.121002 0.451701 0.006313
0.148198 0.451950 0.017602
0.177462 0.452375 0.018131
0.207956 0.452947 0.011424
0.239735 0.453588 0.017946
0.272124 0.454305 0.018528
0.304930 0.455056 0.019769
0.337989 0.455877 0.001641
0.371316 0.456649 0.013098
0.404852 0.457321 0.017636
0.438456 0.457906 0.018777
0.472081 0.458329 0.012952
0.505656 0.458563 0.020077
0.539106 0.458579 0.016539
0.572312 0.458403 0.020781
0.605297 0.458007 0.017827
0.637925 0.457478 0.023536
0.670246 0.456805 0.021784
0.702355 0.455991 0.019774
0.734015 0.455172 0.005936
0.765385 0.454316 0.016641
0.796285 0.453625 0.022149
0.826824 0.452979 0.026576
0.855565 0.452265 0.007985
0.879609 0.451960 0.010012
0.898143 0.451792 0.027037
0.911109 0.451713 0.022608
0.919635 0.451631 0.027161
0.921866 0.451624 0.026082
0.075752 0.482644 0.018981
0.076057 0.482645 0.018995
0.079063 0.482660 0.019137
0.092431 0.482736 0.009790
0.115769 0.482918 0.016057
0.144310 0.483151 0.019837
0.173848 0.483623 0.019573
0.204843 0.484181 0.003720
0.237265 0.484755 0.015656
0.269634 0.485524 0.007878
0.302771 0.486232 0.017951
0.335911 0.487083 0.013292
0.369433 0.487881 0.016531
0.403173 0.488597 0.019906
0.436947 0.489282 0.006867
0.470821 0.489806 0.012201
0.504623 0.490155 0.015577
0.538330 0.490334 0.018124
0.571807 0.490339 0.023913
0.605118 0.490100 0.013109
0.638078 0.489713 0.020486
0.670768 0.489166 0.013495
0.703051 0.488504 0.011060
0.734929 0.487800 0.015692
0.766565 0.486973 0.017257
0.797695 0.486273 0.022077
0.828595 0.485504 0.017775
0.857111 0.484996 0.027617
0.881354 0.484548 0.028857
0.900079 0.484215 0.019173
0.913080 0.483996 0.010732
0.921619 0.483866 0.014187
0.923836 0.483838 0.008192
0.067479 0.513604 0.016504
0.067843 0.513605 0.016518
0.071396 0.513619 0.016654
0.086607 0.513694 0.017286
0.111642 0.513867 0.018402
0.140643 0.514143 0.009363
0.171467 0.514536 0.015537
0.203241 0.515037 0.008237
0.235917 0.515585 0.019158
0.268622 0.516280 0.014169
0.301866 0.517016 0.021302
0.335141 0.517820 0.009693
0.368666 0.518656 0.013761
0.402440 0.519401 0.013525
0.436318 0.520111 0.017522
0.470242 0.520725 0.014420
0.504144 0.521190 0.019519
0.537963 0.521526 0.024325
0.571691 0.521680 0.015506
0.605177 0.521636 0.006624
0.638296 0.521435 0.017913
0.671241 0.521055 0.019888
0.703788 0.520530 0.013981
0.735920 0.519938 0.018391
0.767638 0.519317 0.026179
0.799039 0.518632 0.022791
0.830063 0.517898 0.011775
0.858912 0.517290 0.018901
0.883385 0.516784 0.011519
0.902008 0.516484 0.017843
0.914932 0.516278 0.021379
0.923286 0.516197 0.027036
0.925507 0.516138 0.020990
0.078543 0.544061 0.011228
0.078830 0.544062 0.011300
0.081673 0.544076 0.011877
0.094520 0.544147 0.013228
0.117162 0.544309 0.014056
0.144592 0.544603 0.014032
0.174375 0.544976 0.012128
0.205912 0.545389 0.017136
0.237657 0.545973 0.014360
0.270272 0.546612 0.016852
0.302939 0.547359 0.005554
0.336324 0.548075 0.022454
0.369562 0.548922 0.007647
0.403238 0.549672 0.023699
0.436927 0.550431 0.018799
0.470767 0.551111 0.022377
0.504583 0.551695 0.008047
0.538385 0.552132 0.025144
0.572098 0.552462 0.016056
0.605633 0.552601 0.017777
0.638892 0.552599 0.020564
0.671836 0.552421 0.025023
0.704503 0.552110 0.027650
0.736796 0.551695 0.026137
0.768780 0.551157 0.028634
0.800519 0.550517 0.014544
0.831658 0.549913 0.013796
0.860730 0.549357 0.018954
0.885104 0.548935 0.015993
0.903768 0.548620 0.022964
0.916723 0.548337 0.027397
0.925218 0.548170 0.007422
0.927459 0.548065 0.005332
0.103220 0.574078 0.016611
0.103408 0.574080 0.016596
0.105304 0.574092 0.016444
0.114458 0.574159 0.015610
0.132391 0.574312 0.013344
0.156070 0.574562 0.007060
0.183846 0.574844 0.008745
0.213427 0.575269 0.022669
0.243704 0.575830 0.016488
0.275241 0.576450 0.021836
0.307320 0.577147 0.016485
0.339805 0.577908 0.017844
0.372623 0.578707 0.013740
0.405831 0.579470 0.022332
0.439203 0.580254 0.024844
0.472596 0.581013 0.018615
0.506154 0.581690 0.020965
0.539721 0.582270 0.017850
0.573218 0.582715 0.024610
0.606648 0.583061 0.019197
0.639838 0.583228 0.020656
0.672824 0.583272 0.028132
0.705571 0.583149 0.028080
0.738088 0.582887 0.014583
0.770123 0.582575 0.026280
0.801897 0.582118 0.021817
0.833285 0.581563 0.011719
0.862392 0.581120 0.026799
0.886939 0.580760 0.026908
0.905895 0.580287 0.006662
0.918510 0.580210 0.031770
0.926928 0.579999 0.027539
0.929217 0.579897 0.018687
0.133514 0.603596 0.021566
0.133641 0.603597 0.021550
0.134936 0.603609 0.021385
0.141417 0.603672 0.020496
0.155041 0.603817 0.018174
0.174445 0.604055 0.012912
0.198702 0.604354 0.013429
0.225530 0.604725 0.023163
0.253701 0.605301 0.014317
0.283572 0.605868 0.018719
0.314332 0.606554 0.019989
0.345743 0.607308 0.018050
0.377660 0.608112 0.009132
0.410149 0.608922 0.020696
0.442864 0.609711 0.022954
0.475719 0.610559 0.013294
0.508820 0.611316 0.017083
0.542004 0.612003 0.013764
0.575212 0.612572 0.025346
0.608377 0.613052 0.020739
0.641439 0.613418 0.028139
0.674374 0.613616 0.009185
0.707071 0.613703 0.019941
0.739513 0.613656 0.022291
0.771755 0.613477 0.008711
0.803460 0.613251 0.028241
0.834890 0.612899 0.029447
0.864188 0.612515 0.029594
0.889037 0.612068 0.016319
0.907808 0.611794 0.012630
0.920460 0.611642 0.029457
0.928809 0.611441 0.023239
0.930932 0.611423 0.026408
0.164372 0.632703 0.031361
0.164466 0.632704 0.031350
0.165417 0.632716 0.031238
0.170257 0.632776 0.030645
0.180826 0.632916 0.029193
0.196643 0.633145 0.026519
0.216818 0.633510 0.022314
0.240787 0.633859 0.019832
0.267030 0.634351 0.026336
0.294540 0.635008 0.014714
0.323675 0.635645 0.015134
0.353758 0.636393 0.011338
0.384793 0.637175 0.025500
0.416114 0.638024 0.014558
0.447887 0.638893 0.007520
0.480159 0.639739 0.010128
0.512657 0.640565 0.019120
0.545321 0.641344 0.019651
0.578091 0.642051 0.013784
0.610896 0.642645 0.024747
0.643681 0.643154 0.019569
0.676375 0.643561 0.028726
0.708960 0.643808 0.005128
0.741320 0.643960 0.024099
0.773503 0.643947 0.015415
0.805321 0.643890 0.022980
0.836886 0.643649 0.019438
0.866268 0.643394 0.006672
0.890962 0.643223 0.032663
0.909669 0.642978 0.030454
0.922425 0.642768 0.025879
0.930660 0.642623 0.026104
0.932821 0.642618 0.024074
0.192946 0.661656 0.023285
0.193020 0.661657 0.023290
0.193783 0.661667 0.023340
0.197698 0.661718 0.023595
0.206412 0.661837 0.024149
0.219822 0.662033 0.024961
0.237456 0.662355 0.026779
0.258475 0.662724 0.027741
0.281979 0.663261 0.022719
0.307835 0.663793 0.025629
0.335239 0.664455 0.027044
0.363815 0.665197 0.026287
0.393315 0.666005 0.022732
0.423553 0.666862 0.011919
0.454573 0.667731 0.021615
0.485850 0.668635 0.013386
0.517643 0.669513 0.012494
0.549685 0.670367 0.020471
0.581913 0.671173 0.021033
0.614261 0.671908 0.015879
0.646652 0.672535 0.025620
0.679042 0.673082 0.024969
0.711381 0.673508 0.014986
0.743567 0.673849 0.026781
0.775639 0.674023 0.019970
0.807480 0.674100 0.014591
0.838916 0.674126 0.033406
0.868395 0.673976 0.023441
0.893194 0.673857 0.027845
0.911946 0.673658 0.004659
0.924443 0.673554 0.026274
0.932482 0.673535 0.031767
0.934600 0.673485 0.033349
0.221507 0.690294 0.031261
0.221568 0.690295 0.031263
0.222189 0.690305 0.031288
0.225392 0.690354 0.031415
0.232613 0.690470 0.031697
0.243950 0.690660 0.032129
0.259225 0.690977 0.033433
0.277841 0.691335 0.034006
0.299323 0.691826 0.035253
0.323029 0.692360 0.035624
0.348491 0.693040 0.033806
0.375199 0.693844 0.020730
0.403364 0.694648 0.017757
0.432636 0.695445 0.029788
0.462393 0.696351 0.022760
0.492928 0.697265 0.029386
0.523745 0.698206 0.023019
0.555081 0.699119 0.024423
0.586679 0.700007 0.029635
0.618437 0.700809 0.030181
0.650362 0.701582 0.029558
0.682356 0.702269 0.025439
0.714363 0.702858 0.026123
0.746363 0.703374 0.025109
0.778236 0.703735 0.017946
0.809866 0.703997 0.031720
0.841392 0.704140 0.016625
0.870790 0.704195 0.018029
0.895524 0.704166 0.027486
0.914026 0.704095 0.027262
0.926452 0.704066 0.032669
0.934455 0.704010 0.028845
0.936524 0.703982 0.023169
0.248530 0.718810 0.021074
0.248581 0.718810 0.021080
0.249104 0.718820 0.021134
0.251809 0.718868 0.021410
0.257959 0.718979 0.022009
0.267739 0.719164 0.022882
0.281147 0.719476 0.025735
0.297755 0.719824 0.026704
0.317196 0.720260 0.027623
0.339072 0.720829 0.029712
0.362907 0.721482 0.031315
0.388292 0.722167 0.031140
0.414982 0.722980 0.029163
0.442770 0.723846 0.027183
0.471422 0.724764 0.021792
0.500831 0.725759 0.008882
0.530910 0.726677 0.030121
0.561328 0.727651 0.013507
0.592254 0.728601 0.015619
0.623445 0.729524 0.029282
0.654796 0.730361 0.032545
0.686327 0.731198 0.013185
0.717948 0.731925 0.014225
0.749586 0.732562 0.023667
0.781186 0.733098 0.018830
0.812704 0.733528 0.022262
0.844002 0.733851 0.023484
0.873331 0.734056 0.020288
0.898056 0.734168 0.018349
0.916289 0.734198 0.027156
0.928629 0.734231 0.028995
0.936499 0.734212 0.020904
0.938508 0.734218 0.023960
0.274935 0.747093 0.018597
0.274979 0.747094 0.018606
0.275428 0.747103 0.018697
0.277829 0.747201 0.022495
0.283151 0.747310 0.023168
0.291695 0.747489 0.024164
0.303495 0.747746 0.025400
0.318377 0.748087 0.026764
0.336097 0.748563 0.029870
0.356167 0.749076 0.031011
0.378351 0.749722 0.033386
0.402254 0.750448 0.035286
0.427536 0.751200 0.035411
0.454062 0.752066 0.036202
0.481532 0.753002 0.033546
0.509856 0.753974 0.030687
0.538867 0.754976 0.024726
0.568499 0.756036 0.013839
0.598643 0.756999 0.032235
0.629071 0.757994 0.017065
0.659890 0.758956 0.031809
0.690862 0.759830 0.032773
0.722024 0.760713 0.022580
0.753268 0.761493 0.030775
0.784491 0.762148 0.033284
0.815801 0.762754 0.025813
0.846881 0.763259 0.030481
0.876108 0.763590 0.017239
0.900592 0.763834 0.031420
0.918657 0.763988 0.033145
0.930790 0.764093 0.032821
0.938442 0.764105 0.033946
0.940382 0.764152 0.036789
0.300790 0.775216 0.036044
0.300828 0.775217 0.036047
0.301221 0.775226 0.036080
0.303256 0.775271 0.036249
0.308005 0.775432 0.037952
0.315551 0.775607 0.038527
0.326068 0.775858 0.039308
0.339469 0.776192 0.040266
0.355041 0.776700 0.013996
0.373627 0.777256 0.024186
0.394238 0.777844 0.026955
0.416711 0.778566 0.031252
0.440711 0.779364 0.034501
0.465944 0.780180 0.035409
0.492324 0.781110 0.037284
0.519621 0.782090 0.038367
0.547652 0.783125 0.035505
0.576364 0.784177 0.032937
0.605627 0.785238 0.028080
0.635398 0.786342 0.022149
0.665549 0.787332 0.031646
0.695928 0.788336 0.030097
