color-grading/luts/02_looks/BNC_L05_Chrome.cube
TITLE "BNC L05 Chrome"
# BNC Grade v1.0 - Muted, cross-processed 'chrome' look: rotated primaries, reduced saturation and cool highlights.
# Input: Rec.709 Gamma 2.4 | Output: Rec.709 Gamma 2.4
LUT_3D_SIZE 33
DOMAIN_MIN 0.0 0.0 0.0
DOMAIN_MAX 1.0 1.0 1.0
0.001307 0.001311 0.001316
0.003780 0.001895 0.001516
0.011430 0.004885 0.003152
0.029454 0.013036 0.009717
0.055790 0.026254 0.022319
0.084386 0.041087 0.037140
0.115507 0.055981 0.050299
0.149109 0.069891 0.059205
0.182992 0.083513 0.067200
0.216273 0.096625 0.074388
0.248153 0.108962 0.080704
0.278739 0.120608 0.086269
0.309203 0.132035 0.091352
0.339561 0.143261 0.095978
0.369809 0.154297 0.100166
0.399943 0.165151 0.103933
0.429958 0.175833 0.107300
0.459851 0.186353 0.110285
0.489617 0.196719 0.112912
0.519253 0.206941 0.115203
0.548755 0.217029 0.117187
0.578118 0.226993 0.118895
0.607340 0.236845 0.120363
0.636417 0.246594 0.121634
0.665346 0.256253 0.122755
0.694122 0.265833 0.123783
0.722664 0.275296 0.124650
0.749325 0.284084 0.125194
0.771778 0.291454 0.125483
0.789068 0.297116 0.125623
0.801487 0.301177 0.125688
0.809970 0.303949 0.125720
0.815567 0.305778 0.125737
0.002741 0.004002 0.001854
0.004176 0.004222 0.002191
0.011628 0.005848 0.003513
0.029506 0.013312 0.009731
0.055821 0.026347 0.022343
0.084403 0.041137 0.037153
0.115520 0.056011 0.050302
0.149119 0.069913 0.059206
0.183000 0.083530 0.067200
0.216279 0.096639 0.074387
0.248158 0.108973 0.080703
0.278744 0.120618 0.086268
0.309207 0.132043 0.091351
0.339564 0.143268 0.095977
0.369812 0.154303 0.100165
0.399946 0.165157 0.103932
0.429961 0.175839 0.107299
0.459853 0.186357 0.110284
0.489619 0.196723 0.112911
0.519255 0.206945 0.115202
0.548756 0.217033 0.117186
0.578120 0.226997 0.118894
0.607342 0.236848 0.120362
0.636418 0.246597 0.121633
0.665347 0.256256 0.122754
0.694124 0.265835 0.123782
0.722665 0.275299 0.124649
0.749326 0.284087 0.125193
0.771779 0.291457 0.125482
0.789069 0.297118 0.125622
0.801488 0.301179 0.125687
0.809971 0.303951 0.125719
0.815568 0.305780 0.125736
0.007585 0.012261 0.005324
0.008096 0.012299 0.005418
0.012416 0.013021 0.006756
0.030134 0.016702 0.011496
0.056122 0.027802 0.022820
0.084664 0.041851 0.037332
0.115711 0.056458 0.050354
0.149262 0.070230 0.059215
0.183110 0.083772 0.067199
0.216367 0.096833 0.074381
0.248232 0.109135 0.080694
0.278806 0.120756 0.086257
0.309261 0.132164 0.091338
0.339612 0.143375 0.095963
0.369855 0.154398 0.100150
0.399984 0.165242 0.103917
0.429996 0.175916 0.107284
0.459885 0.186428 0.110269
0.489648 0.196788 0.112895
0.519282 0.207005 0.115187
0.548781 0.217088 0.117170
0.578142 0.227049 0.118878
0.607363 0.236897 0.120347
0.636438 0.246643 0.121618
0.665365 0.256299 0.122739
0.694141 0.265876 0.123767
0.722681 0.275337 0.124634
0.749342 0.284123 0.125178
0.771794 0.291492 0.125468
0.789083 0.297152 0.125607
0.801502 0.301212 0.125672
0.809985 0.303984 0.125704
0.815581 0.305812 0.125721
0.016796 0.032450 0.017379
0.016961 0.032461 0.017406
0.019085 0.032630 0.017814
0.030334 0.034642 0.021649
0.058017 0.038884 0.030293
0.085867 0.049035 0.041070
0.116955 0.061117 0.051711
0.150434 0.073451 0.059644
0.184216 0.086065 0.067150
0.217248 0.098693 0.074295
0.248962 0.110695 0.080585
0.279429 0.122098 0.086133
0.309802 0.133334 0.091204
0.340087 0.144409 0.095822
0.370277 0.155322 0.100004
0.400363 0.166074 0.103768
0.430338 0.176671 0.107132
0.460196 0.187118 0.110116
0.489933 0.197422 0.112741
0.519543 0.207590 0.115032
0.549022 0.217632 0.117017
0.578366 0.227555 0.118725
0.607570 0.237371 0.120195
0.636632 0.247088 0.121468
0.665547 0.256718 0.122592
0.694311 0.266272 0.123622
0.722841 0.275712 0.124489
0.749493 0.284479 0.125033
0.771938 0.291834 0.125323
0.789223 0.297484 0.125463
0.801639 0.301538 0.125529
0.810119 0.304305 0.125561
0.815714 0.306130 0.125578
0.026418 0.063306 0.038508
0.026502 0.063311 0.038518
0.027680 0.063380 0.038674
0.036324 0.064116 0.040237
0.055908 0.067712 0.046333
0.088670 0.071382 0.053197
0.121415 0.077446 0.059970
0.153776 0.086735 0.065136
0.186866 0.097004 0.070823
0.219640 0.107639 0.076582
0.251193 0.118126 0.081923
0.281561 0.128340 0.086748
0.311870 0.138586 0.091204
0.342120 0.148817 0.095270
0.372149 0.159191 0.099281
0.402036 0.169580 0.103048
0.431845 0.179868 0.106415
0.461564 0.190050 0.109403
0.491182 0.200125 0.112033
0.520690 0.210094 0.114329
0.550080 0.219961 0.116319
0.579345 0.229730 0.118035
0.608480 0.239409 0.119513
0.637479 0.249004 0.120796
0.666339 0.258524 0.121932
0.695053 0.267980 0.122977
0.723539 0.277329 0.123845
0.750154 0.286019 0.124389
0.772570 0.293313 0.124681
0.789833 0.298920 0.124824
0.802234 0.302944 0.124892
0.810705 0.305691 0.124926
0.816293 0.307503 0.124945
0.044422 0.096623 0.055616
0.044465 0.096626 0.055621
0.045086 0.096661 0.055683
0.050553 0.097022 0.056304
0.066854 0.098789 0.059267
0.089632 0.102996 0.064760
0.124505 0.106198 0.069560
0.160179 0.109770 0.075383
0.192698 0.116614 0.080850
0.224449 0.124978 0.084360
0.255286 0.133585 0.087842
0.285118 0.142241 0.091402
0.314998 0.151149 0.094969
0.344898 0.160231 0.098394
0.374782 0.169422 0.101585
0.404624 0.178674 0.104490
0.434403 0.187950 0.107082
0.464103 0.197225 0.109350
0.493712 0.206479 0.111294
0.523218 0.215700 0.112922
0.552518 0.225030 0.114575
0.581597 0.234485 0.116327
0.610569 0.243881 0.117842
0.639424 0.253222 0.119162
0.668153 0.262513 0.120337
0.696752 0.271760 0.121425
0.725136 0.280916 0.122300
0.751665 0.289441 0.122853
0.774013 0.296606 0.123155
0.791226 0.302119 0.123306
0.803594 0.306078 0.123382
0.812042 0.308783 0.123423
0.817616 0.310567 0.123446
0.068300 0.131174 0.068310
0.068324 0.131175 0.068313
0.068675 0.131198 0.068353
0.071969 0.131422 0.068747
0.083878 0.132459 0.070517
0.102721 0.135132 0.075053
0.126797 0.139729 0.080682
0.162031 0.142775 0.084961
0.197878 0.145726 0.090000
0.232112 0.149360 0.095308
0.262267 0.155639 0.099321
0.291223 0.162632 0.101459
0.320402 0.170032 0.103300
0.349732 0.177733 0.105246
0.379140 0.185672 0.107281
0.408576 0.193795 0.109303
0.438007 0.202056 0.111220
0.467405 0.210418 0.112968
0.496751 0.218850 0.114508
0.526026 0.227329 0.115820
0.555218 0.235839 0.116900
0.584313 0.244366 0.117756
0.613302 0.252902 0.118407
0.642175 0.261442 0.118883
0.670924 0.269984 0.119221
0.699545 0.278527 0.119460
0.727957 0.287014 0.119423
0.754354 0.295231 0.119893
0.776579 0.302191 0.120228
0.793703 0.307554 0.120407
0.806009 0.311410 0.120505
0.814417 0.314046 0.120562
0.819964 0.315787 0.120596
0.092727 0.166466 0.079866
0.092743 0.166467 0.079868
0.092975 0.166483 0.079897
0.095203 0.166639 0.080174
0.103961 0.167343 0.081399
0.119837 0.169077 0.084391
0.140199 0.172488 0.090177
0.165256 0.177251 0.095591
0.200113 0.180177 0.099332
0.235252 0.182704 0.103732
0.268589 0.185212 0.107960
0.299583 0.188422 0.112320
0.328329 0.193898 0.115622
0.356875 0.200222 0.117069
0.385593 0.206916 0.117802
0.414452 0.213864 0.118413
0.443390 0.221022 0.119070
0.472361 0.228356 0.119772
0.501329 0.235837 0.120469
0.530270 0.243437 0.121113
0.559162 0.251135 0.121666
0.587990 0.258914 0.122109
0.616737 0.266758 0.122440
0.645393 0.274659 0.122672
0.673945 0.282610 0.122830
0.702391 0.290598 0.122894
0.730648 0.298567 0.122682
0.757067 0.306047 0.122242
0.779331 0.312376 0.121716
0.796485 0.317270 0.121233
0.808810 0.320798 0.120853
0.817231 0.323213 0.120582
0.822787 0.324810 0.120399
0.117289 0.201679 0.090126
0.117301 0.201680 0.090128
0.117469 0.201692 0.090149
0.119101 0.201809 0.090360
0.125779 0.202331 0.091285
0.138870 0.203579 0.093459
0.157185 0.205978 0.097700
0.178497 0.209940 0.104311
0.204034 0.214695 0.109292
0.237754 0.217505 0.112469
0.271353 0.219696 0.116307
0.303349 0.221775 0.119926
0.335020 0.223880 0.123465
0.365559 0.226813 0.127315
0.394087 0.231768 0.130224
0.422289 0.237535 0.131241
0.450580 0.243660 0.131240
0.478986 0.250015 0.130868
0.507465 0.256556 0.130426
0.535975 0.263260 0.130020
0.564484 0.270109 0.129667
0.592965 0.277088 0.129358
0.621399 0.284181 0.129079
0.649769 0.291376 0.128824
0.678061 0.298665 0.128601
0.706277 0.306019 0.128269
0.734325 0.313393 0.127734
0.760563 0.320351 0.127065
0.782683 0.326262 0.126396
0.799731 0.330848 0.125830
0.811984 0.334162 0.125407
0.820356 0.336434 0.125112
0.825880 0.337937 0.124917
0.141418 0.236017 0.099004
0.141427 0.236017 0.099005
0.141557 0.236027 0.099022
0.142825 0.236120 0.099192
0.148121 0.236531 0.099933
0.158987 0.237498 0.101644
0.175169 0.239309 0.104863
0.194927 0.242302 0.110281
0.216718 0.246615 0.117250
0.242154 0.251218 0.121671
0.273975 0.253906 0.124265
0.306156 0.255860 0.127694
0.338030 0.257731 0.131007
0.369609 0.259550 0.134194
0.400924 0.261367 0.137272
0.430973 0.264136 0.140743
0.459248 0.268696 0.143294
0.487136 0.274018 0.144017
0.515038 0.279694 0.143567
0.543018 0.285588 0.142562
0.571057 0.291653 0.141368
0.599120 0.297872 0.140171
0.627178 0.304234 0.139060
0.655207 0.310729 0.138072
0.683193 0.317342 0.137167
0.711135 0.324043 0.136190
0.738930 0.330802 0.135132
0.764947 0.337213 0.134074
0.786891 0.342684 0.133145
0.803809 0.346943 0.132419
0.815971 0.350027 0.131901
0.824284 0.352146 0.131545
0.829772 0.353545 0.131290
0.164512 0.268708 0.106495
0.164519 0.268709 0.106496
0.164624 0.268717 0.106511
0.165655 0.268794 0.106654
0.170011 0.269133 0.107276
0.179198 0.269923 0.108701
0.193453 0.271375 0.111311
0.211672 0.273735 0.115648
0.232120 0.277216 0.122019
0.253941 0.281677 0.128896
0.278657 0.286009 0.132693
0.308755 0.288614 0.134791
0.340756 0.290460 0.138037
0.372514 0.292193 0.141149
0.403992 0.293830 0.144111
0.435200 0.295410 0.146936
0.466164 0.296973 0.149650
0.495557 0.299792 0.152911
0.523514 0.304114 0.155096
0.551095 0.309115 0.155571
0.578640 0.314454 0.154858
0.606227 0.320005 0.153512
0.633851 0.325721 0.151913
0.661491 0.331583 0.150271
0.689137 0.337562 0.148569
0.716770 0.343651 0.146841
0.744279 0.349823 0.145122
0.770046 0.355706 0.143534
0.791791 0.360748 0.142229
0.808562 0.364687 0.141256
0.820626 0.367540 0.140544
0.828878 0.369494 0.140014
0.834328 0.370786 0.139644
0.186614 0.299910 0.112842
0.186620 0.299910 0.112843
0.186709 0.299917 0.112855
0.187574 0.299983 0.112980
0.191259 0.300272 0.113520
0.199170 0.300940 0.114753
0.211789 0.302156 0.116977
0.228480 0.304100 0.120583
0.247799 0.306948 0.125990
0.268304 0.310754 0.132927
0.289630 0.315158 0.139359
0.313624 0.319239 0.142656
0.343275 0.321855 0.144440
0.375121 0.323620 0.147571
0.406752 0.325256 0.150560
0.438120 0.326769 0.153388
0.469218 0.328189 0.156068
0.500062 0.329554 0.158625
0.530554 0.331001 0.161197
0.559242 0.333990 0.164308
0.586842 0.338182 0.166170
0.614108 0.342963 0.166467
0.641312 0.348057 0.165637
0.668543 0.353339 0.164054
0.695809 0.358760 0.162038
0.723092 0.364304 0.159816
0.750281 0.369946 0.157540
0.775771 0.375344 0.155433
0.797296 0.379986 0.153717
0.813914 0.383610 0.152377
0.825880 0.386229 0.151347
0.834067 0.388026 0.150607
0.839473 0.389215 0.150103
0.208537 0.330848 0.118438
0.208543 0.330849 0.118439
0.208618 0.330854 0.118451
0.209359 0.330912 0.118561
0.212529 0.331163 0.119042
0.219419 0.331742 0.120136
0.230633 0.332785 0.122090
0.245858 0.334433 0.125194
0.263978 0.336818 0.129798
0.283559 0.340019 0.136030
0.303512 0.343933 0.143080
0.324294 0.348215 0.149082
0.348356 0.352223 0.152147
0.377599 0.354864 0.153659
0.409297 0.356571 0.156736
0.440800 0.358138 0.159672
0.472054 0.359565 0.162447
0.503043 0.360876 0.165072
0.533771 0.362102 0.167574
0.564254 0.363276 0.169986
0.594129 0.364777 0.172659
0.622245 0.367865 0.175640
0.649510 0.371932 0.177233
0.676485 0.376502 0.177275
0.703391 0.381352 0.176146
0.730296 0.386383 0.174264
0.757124 0.391539 0.171970
0.782296 0.396492 0.169654
0.803584 0.400746 0.167576
0.820040 0.404058 0.165838
0.831894 0.406455 0.164517
0.840006 0.408101 0.163580
0.845364 0.409190 0.162945
0.230252 0.361563 0.123404
0.230256 0.361563 0.123405
0.230322 0.361568 0.123415
0.230966 0.361619 0.123515
0.233732 0.361841 0.123952
0.239796 0.362350 0.124943
0.249815 0.363263 0.126702
0.263691 0.364692 0.129456
0.280588 0.366737 0.133468
0.299232 0.369464 0.138941
0.318364 0.372844 0.145628
0.337746 0.376774 0.152627
0.358713 0.381066 0.158460
0.382834 0.385013 0.161360
0.411690 0.387689 0.162660
0.443236 0.389360 0.165728
0.474612 0.390881 0.168680
0.505752 0.392253 0.171480
0.536630 0.393493 0.174139
0.567245 0.394627 0.176679
0.597614 0.395680 0.179077
0.627758 0.396674 0.181330
0.656970 0.398319 0.184034
0.684630 0.401425 0.186663
0.711586 0.405359 0.187935
0.738268 0.409750 0.187801
0.764772 0.414395 0.186608
0.789635 0.418899 0.184740
0.810680 0.422771 0.182668
0.826955 0.425794 0.180820
0.838683 0.427985 0.179373
0.846711 0.429490 0.178333
0.852015 0.430488 0.177624
0.251711 0.392069 0.127873
0.251714 0.392069 0.127873
0.251772 0.392074 0.127883
0.252339 0.392119 0.127975
0.254782 0.392318 0.128378
0.260170 0.392773 0.129293
0.269173 0.393584 0.130909
0.281838 0.394845 0.133413
0.297544 0.396635 0.137001
0.315206 0.399000 0.141852
0.333589 0.401929 0.147927
0.352193 0.405404 0.154879
0.371709 0.409446 0.162008
0.392854 0.413739 0.167698
0.417013 0.417637 0.170497
0.445526 0.420349 0.171687
0.476891 0.422013 0.174760
0.508143 0.423509 0.177795
0.539176 0.424847 0.180649
0.569964 0.426032 0.183301
0.600497 0.427087 0.185767
0.630779 0.428038 0.188071
0.660823 0.428912 0.190245
0.690629 0.429742 0.192332
0.719140 0.431613 0.195166
0.746375 0.434733 0.197628
0.772945 0.438535 0.198679
0.797670 0.442442 0.198289
0.818523 0.445896 0.197069
0.834630 0.448625 0.195662
0.846233 0.450615 0.194436
0.854174 0.451987 0.193505
0.859421 0.452897 0.192852
0.272866 0.422384 0.132002
0.272870 0.422384 0.132002
0.272921 0.422388 0.132011
0.273426 0.422430 0.132098
0.275604 0.422610 0.132476
0.280433 0.423020 0.133333
0.288571 0.423751 0.134844
0.300160 0.424881 0.137166
0.314747 0.426473 0.140450
0.331412 0.428561 0.144830
0.349015 0.431131 0.150325
0.366982 0.434192 0.156847
0.385710 0.437842 0.164207
0.405367 0.441975 0.171429
0.426668 0.446266 0.177012
0.450853 0.450123 0.179755
0.479073 0.452867 0.180860
0.510257 0.454536 0.183839
0.541417 0.456006 0.186848
0.572366 0.457310 0.189672
0.603072 0.458457 0.192310
0.633520 0.459462 0.194777
0.663711 0.460350 0.197100
0.693652 0.461147 0.199314
0.723359 0.461873 0.201425
0.752735 0.462653 0.203473
0.780595 0.464647 0.206098
0.805807 0.467447 0.207852
0.826764 0.470238 0.208346
0.842838 0.472563 0.208076
0.854379 0.474301 0.207549
0.862266 0.475514 0.207040
0.867472 0.476324 0.206641
0.293669 0.452525 0.135977
0.293672 0.452525 0.135977
0.293718 0.452529 0.135985
0.294171 0.452566 0.136068
0.296131 0.452731 0.136427
0.300492 0.453106 0.137241
0.307892 0.453771 0.138672
0.318530 0.454797 0.140862
0.332083 0.456233 0.143926
0.347775 0.458104 0.147959
0.364570 0.460393 0.152977
0.381903 0.463109 0.158983
0.400051 0.466372 0.166050
0.418912 0.470169 0.173689
0.438723 0.474366 0.180886
0.460189 0.478639 0.186269
0.484411 0.482454 0.188881
0.512381 0.485221 0.189884
0.543368 0.486910 0.192748
0.574432 0.488369 0.195797
0.605289 0.489662 0.198682
0.635905 0.490795 0.201404
0.666265 0.491779 0.203970
0.696384 0.492618 0.206297
0.726274 0.493326 0.208367
0.755945 0.493921 0.210188
0.785315 0.494417 0.211762
0.812413 0.495091 0.213337
0.834325 0.496544 0.215068
0.850813 0.498100 0.216128
0.862528 0.499391 0.216609
0.870488 0.500340 0.216779
0.875722 0.500990 0.216818
0.314101 0.482501 0.139886
0.314104 0.482501 0.139887
0.314146 0.482505 0.139895
0.314557 0.482540 0.139973
0.316335 0.482691 0.140313
0.320303 0.483036 0.141084
0.327071 0.483646 0.142438
0.336880 0.484585 0.144499
0.349498 0.485893 0.147359
0.364274 0.487587 0.151077
0.380273 0.489646 0.155654
0.396960 0.492079 0.161135
0.414566 0.495002 0.167713
0.432877 0.498439 0.175200
0.451866 0.502357 0.183019
0.471823 0.506603 0.190161
0.493428 0.510860 0.195394
0.517666 0.514644 0.197954
0.545399 0.517442 0.198949
0.576166 0.519171 0.201756
0.607134 0.520634 0.204911
0.637921 0.521918 0.207824
0.668493 0.523019 0.210469
0.698833 0.523945 0.212837
0.728934 0.524706 0.214928
0.758800 0.525321 0.216747
0.788344 0.525803 0.218299
0.815870 0.526152 0.219526
0.839006 0.526378 0.220397
0.856749 0.526565 0.221031
0.869199 0.526972 0.221736
0.877548 0.527397 0.222278
0.882973 0.527735 0.222633
0.334248 0.512299 0.143422
0.334251 0.512299 0.143423
0.334289 0.512302 0.143431
0.334664 0.512334 0.143505
0.336288 0.512475 0.143829
0.339920 0.512794 0.144563
0.346142 0.513358 0.145851
0.355216 0.514223 0.147807
0.366985 0.515426 0.150509
0.380894 0.516976 0.153993
0.396103 0.518850 0.158243
0.412119 0.521055 0.163306
0.429160 0.523695 0.169417
0.446977 0.526809 0.176548
0.465415 0.530406 0.184421
0.484515 0.534429 0.192405
0.504599 0.538718 0.199524
0.526323 0.542963 0.204665
0.550579 0.546720 0.207173
0.578131 0.549534 0.208083
0.608720 0.551284 0.210624
0.639663 0.552715 0.213616
0.670426 0.553962 0.216353
0.700978 0.555020 0.218815
0.731298 0.555893 0.220991
0.761378 0.556591 0.222880
0.791123 0.557126 0.224483
0.818822 0.557498 0.225740
0.842091 0.557723 0.226623
0.859978 0.557845 0.227195
0.872812 0.557908 0.227550
0.881542 0.557939 0.227765
0.887248 0.557955 0.227896
0.354055 0.541933 0.146767
0.354057 0.541933 0.146768
0.354092 0.541936 0.146775
0.354436 0.541966 0.146847
0.355927 0.542097 0.147159
0.359269 0.542395 0.147867
0.365014 0.542920 0.149108
0.373435 0.543725 0.150990
0.384430 0.544839 0.153579
0.397528 0.546271 0.156896
0.411971 0.547996 0.160908
0.427309 0.550015 0.165653
0.443761 0.552425 0.171370
0.461082 0.555261 0.178093
0.479072 0.558549 0.185699
0.497640 0.562279 0.193829
0.516882 0.566380 0.201817
0.537142 0.570679 0.208721
0.559036 0.574882 0.213554
0.583355 0.578590 0.215831
0.610772 0.581397 0.216532
0.641181 0.583164 0.218736
0.672092 0.584566 0.221583
0.702827 0.585781 0.224170
0.733353 0.586801 0.226477
0.763648 0.587630 0.228493
0.793606 0.588274 0.230211
0.821497 0.588723 0.231562
0.844920 0.588994 0.232513
0.862918 0.589142 0.233131
0.875825 0.589216 0.233515
0.884578 0.589252 0.233748
0.890281 0.589270 0.233890
0.373470 0.571420 0.150135
0.373472 0.571420 0.150135
0.373504 0.571423 0.150142
0.373822 0.571451 0.150211
0.375199 0.571574 0.150512
0.378291 0.571852 0.151192
0.383622 0.572344 0.152383
0.391470 0.573095 0.154185
0.401777 0.574133 0.156652
0.414141 0.575462 0.159789
0.427876 0.577056 0.163546
0.442575 0.578913 0.167944
0.458465 0.581119 0.173205
0.475311 0.583708 0.179404
0.492898 0.586710 0.186528
0.511071 0.590137 0.194404
0.529792 0.593969 0.202621
0.549193 0.598120 0.210500
0.569625 0.602415 0.217154
0.591669 0.606574 0.221705
0.616036 0.610233 0.223770
0.643323 0.613033 0.224283
0.673534 0.614820 0.226154
0.704408 0.616196 0.228881
0.735108 0.617383 0.231345
0.765602 0.618372 0.233527
0.795770 0.619163 0.235411
0.823861 0.619734 0.236911
0.847448 0.620093 0.237981
0.865571 0.620297 0.238685
0.878556 0.620407 0.239127
0.887332 0.620465 0.239398
0.893036 0.620495 0.239564
0.392751 0.600706 0.152751
0.392753 0.600706 0.152751
0.392783 0.600709 0.152758
0.393078 0.600735 0.152823
0.394358 0.600850 0.153108
0.397234 0.601111 0.153753
0.402204 0.601571 0.154882
0.409548 0.602273 0.156589
0.419239 0.603242 0.158922
0.430930 0.604479 0.161879
0.443999 0.605958 0.165404
0.458077 0.607677 0.169507
0.473396 0.609711 0.174394
0.489743 0.612090 0.180147
0.506905 0.614843 0.186806
0.524705 0.617993 0.194307
0.543034 0.621544 0.202422
0.561891 0.625460 0.210702
0.581438 0.629648 0.218469
0.602028 0.633933 0.224891
0.624202 0.638048 0.229188
0.648602 0.641661 0.231065
0.675764 0.644452 0.231411
0.705761 0.646263 0.232958
0.736594 0.647617 0.235592
0.767255 0.648780 0.237963
0.797614 0.649742 0.240047
0.825897 0.650464 0.241738
0.849651 0.650942 0.242968
0.867902 0.651230 0.243792
0.880965 0.651395 0.244319
0.889766 0.651489 0.244647
0.895473 0.651542 0.244851
0.411972 0.629777 0.154334
0.411974 0.629777 0.154335
0.412002 0.629780 0.154341
0.412277 0.629805 0.154404
0.413469 0.629913 0.154677
0.416153 0.630158 0.155294
0.420800 0.630590 0.156376
0.427688 0.631249 0.158010
0.436815 0.632157 0.160241
0.447879 0.633314 0.163061
0.460315 0.634695 0.166409
0.473788 0.636295 0.170286
0.488535 0.638182 0.174879
0.504365 0.640382 0.180271
0.521079 0.642923 0.186521
0.538494 0.645828 0.193631
0.556469 0.649113 0.201488
0.574930 0.652771 0.209817
0.593913 0.656758 0.218144
0.613595 0.660973 0.225801
0.634327 0.665242 0.232012
0.656613 0.669314 0.236085
0.681035 0.672884 0.237799
0.708075 0.675666 0.238003
0.737846 0.677505 0.239238
0.768634 0.678842 0.241810
0.799153 0.679983 0.244114
0.827608 0.680874 0.246025
0.851520 0.681491 0.247445
0.869896 0.681882 0.248418
0.883033 0.682118 0.249052
0.891860 0.682258 0.249453
0.897572 0.682341 0.249704
0.431112 0.658639 0.154883
0.431114 0.658639 0.154884
0.431140 0.658642 0.154890
0.431397 0.658665 0.154951
0.432512 0.658767 0.155215
0.435024 0.658998 0.155813
0.439380 0.659406 0.156861
0.445854 0.660026 0.158443
0.454463 0.660881 0.160600
0.464944 0.661969 0.163321
0.476782 0.663264 0.166538
0.489671 0.664760 0.170248
0.503853 0.666521 0.174620
0.519159 0.668569 0.179730
0.535406 0.670927 0.185644
0.552416 0.673619 0.192395
0.570037 0.676664 0.199946
0.588157 0.680070 0.208141
0.606735 0.683822 0.216666
0.625832 0.687868 0.225031
0.645640 0.692102 0.232587
0.666500 0.696353 0.238611
0.688883 0.700383 0.242492
0.713317 0.703915 0.244071
0.740239 0.706689 0.244162
0.769772 0.708561 0.245100
0.800412 0.709880 0.247635
0.829011 0.710945 0.249783
0.853062 0.711711 0.251416
0.871554 0.712216 0.252557
0.884757 0.712533 0.253314
0.893609 0.712728 0.253800
0.899329 0.712847 0.254107
0.450149 0.687299 0.154397
0.450151 0.687299 0.154397
0.450175 0.687301 0.154403
0.450416 0.687323 0.154463
0.451462 0.687420 0.154722
0.453819 0.687639 0.155308
0.457913 0.688024 0.156334
0.464012 0.688611 0.157884
0.472146 0.689418 0.159994
0.482086 0.690444 0.162649
0.493360 0.691664 0.165779
0.505690 0.693071 0.169373
0.519320 0.694723 0.173588
0.534102 0.696639 0.178489
0.549870 0.698840 0.184141
0.566457 0.701347 0.190594
0.583710 0.704180 0.197851
0.601499 0.707354 0.205836
0.619742 0.710870 0.214353
0.638424 0.714705 0.223061
0.657627 0.718801 0.231461
0.677551 0.723048 0.238929
0.698526 0.727279 0.244794
0.720992 0.731271 0.248517
0.745430 0.734768 0.249992
0.772235 0.737536 0.250002
0.801440 0.739437 0.250689
0.830131 0.740677 0.253050
0.854295 0.741593 0.254907
0.872887 0.742217 0.256231
0.886148 0.742620 0.257123
0.895023 0.742874 0.257703
0.900751 0.743031 0.258073
0.469062 0.715763 0.152875
0.469063 0.715763 0.152875
0.469087 0.715765 0.152881
0.469313 0.715786 0.152940
0.470296 0.715878 0.153197
0.472514 0.716085 0.153778
0.476371 0.716451 0.154796
0.482127 0.717008 0.156331
0.489826 0.717772 0.158419
0.499264 0.718744 0.161042
0.510009 0.719897 0.164126
0.521805 0.721226 0.167652
0.534901 0.722783 0.171767
0.549166 0.724585 0.176527
0.564450 0.726649 0.181992
0.580600 0.728996 0.188215
0.597468 0.731644 0.195223
0.614919 0.734610 0.202989
0.632848 0.737904 0.211401
0.651197 0.741519 0.220230
0.669974 0.745429 0.229112
0.689275 0.749566 0.237550
0.709305 0.753822 0.244946
0.730384 0.758033 0.250681
0.752920 0.761990 0.254283
0.777354 0.765458 0.255690
0.803958 0.768214 0.255658
0.831081 0.770057 0.256055
0.855243 0.771142 0.257971
0.873915 0.771884 0.259485
0.887223 0.772374 0.260520
0.896119 0.772688 0.261200
0.901856 0.772885 0.261637
0.487768 0.743949 0.150329
0.487770 0.743949 0.150329
0.487791 0.743951 0.150335
0.488005 0.743971 0.150395
0.488932 0.744058 0.150653
0.491024 0.744256 0.151237
0.494666 0.744604 0.152258
0.500111 0.745133 0.153799
0.507411 0.745861 0.155892
0.516385 0.746784 0.158516
0.526635 0.747878 0.161592
0.537928 0.749138 0.165096
0.550510 0.750611 0.169166
0.564270 0.752313 0.173850
0.579074 0.754260 0.179199
0.594780 0.756468 0.185266
0.611250 0.758955 0.192087
0.628350 0.761737 0.199665
0.645967 0.764829 0.207943
0.664015 0.768234 0.216774
0.682458 0.771942 0.225904
