color-grading/luts/02_looks/BNC_L08_Bleach.cube
TITLE "BNC L08 Bleach"
# BNC Grade v1.0 — Bleach-bypass emulation: heavy contrast, a crushed toe, and cool-leaning desaturation.
# Input: Rec.709 Gamma 2.4 | Output: Rec.709 Gamma 2.4
LUT_3D_SIZE 9
DOMAIN_MIN 0.0 0.0 0.0
DOMAIN_MAX 1.0 1.0 1.0
0.000176 0.000176 0.000176
0.022198 0.012540 0.011335
0.144051 0.084674 0.078205
0.274044 0.152103 0.137117
0.395028 0.212751 0.189477
0.513690 0.270848 0.239291
0.629806 0.326820 0.287158
0.718279 0.369111 0.323256
0.740206 0.379532 0.332026
0.014761 0.026462 0.017855
0.025421 0.028334 0.020562
0.144517 0.086711 0.079126
0.274267 0.152976 0.137495
0.395173 0.213282 0.189703
0.513794 0.271219 0.239448
0.629887 0.327101 0.287278
0.718347 0.369345 0.323355
0.740272 0.379756 0.332121
0.099299 0.174248 0.115232
0.100513 0.174389 0.115426
0.174020 0.186594 0.131480
0.292533 0.217800 0.168127
0.408033 0.258333 0.209911
0.523429 0.304480 0.254014
0.637427 0.352930 0.298516
0.724763 0.391132 0.332685
0.746456 0.400698 0.341032
0.198650 0.320024 0.202706
0.199119 0.320086 0.202789
0.238648 0.325861 0.210491
0.334874 0.343760 0.233807
0.442594 0.368155 0.264322
0.552117 0.397307 0.298367
0.661319 0.431049 0.334737
0.745767 0.459776 0.363412
0.766804 0.467234 0.370597
0.288922 0.453492 0.280728
0.289197 0.453531 0.280780
0.314228 0.457285 0.285743
0.387325 0.469841 0.302259
0.483423 0.489062 0.327174
0.588700 0.512108 0.356133
0.694868 0.537139 0.386018
0.776991 0.558117 0.409423
0.797486 0.563595 0.415299
0.373772 0.583331 0.354817
0.373961 0.583360 0.354854
0.391592 0.586138 0.358362
0.447742 0.595732 0.370421
0.529787 0.611397 0.389890
0.627823 0.631740 0.414805
0.732054 0.654104 0.441782
0.813612 0.671784 0.462684
0.833934 0.676237 0.467862
0.454748 0.709700 0.422439
0.454889 0.709722 0.422466
0.468280 0.711914 0.425090
0.512915 0.719596 0.434271
0.582484 0.732574 0.449734
0.670924 0.750389 0.470901
0.770178 0.771315 0.495782
0.850563 0.788372 0.516161
0.870676 0.792637 0.521276
0.516215 0.805464 0.471051
0.516332 0.805483 0.471074
0.527482 0.807365 0.473278
0.565439 0.814011 0.481069
0.626634 0.825429 0.494475
0.707273 0.841533 0.513456
0.800909 0.861190 0.536844
0.878519 0.877588 0.556957
0.897117 0.881676 0.562134
0.531317 0.829114 0.482855
0.531429 0.829133 0.482877
0.542115 0.830950 0.485002
0.578642 0.837381 0.492526
0.637936 0.848464 0.505527
0.716668 0.864138 0.524062
0.808775 0.882989 0.547119
0.885273 0.898324 0.567159
0.903277 0.902094 0.572350
0.004964 0.009587 0.019556
0.022979 0.014123 0.023786
0.144172 0.084668 0.080377
0.274097 0.152105 0.138064
0.395062 0.212754 0.190055
0.513714 0.270851 0.239694
0.629825 0.326824 0.287461
0.718294 0.369115 0.323507
0.740221 0.379536 0.332267
0.015755 0.027028 0.027721
0.026087 0.028835 0.029762
0.144638 0.086707 0.081262
0.274321 0.152978 0.138438
0.395206 0.213286 0.190281
0.513818 0.271223 0.239851
0.629905 0.327104 0.287580
0.718362 0.369349 0.323605
0.740286 0.379760 0.332361
0.099475 0.174311 0.116435
0.100687 0.174453 0.116627
0.174143 0.186658 0.132525
0.292597 0.217827 0.168852
0.408071 0.258346 0.210420
0.523455 0.304488 0.254389
0.637447 0.352936 0.298806
0.724779 0.391137 0.332928
0.746471 0.400703 0.341265
0.198734 0.320066 0.203233
0.199202 0.320128 0.203316
0.238723 0.325904 0.211001
0.334941 0.343803 0.234266
0.442645 0.368187 0.264707
0.552151 0.397326 0.298680
0.661343 0.431061 0.334993
0.745787 0.459785 0.363633
0.766823 0.467243 0.370811
0.288978 0.453525 0.281054
0.289253 0.453564 0.281107
0.314281 0.457318 0.286066
0.387375 0.469876 0.302567
0.483471 0.489096 0.327459
0.588740 0.512137 0.356386
0.694899 0.537160 0.386237
0.777016 0.558133 0.409618
0.797509 0.563610 0.415489
0.373815 0.583358 0.355048
0.374003 0.583387 0.355084
0.391633 0.586166 0.358591
0.447782 0.595760 0.370645
0.529826 0.611426 0.390104
0.627861 0.631769 0.415007
0.732088 0.654130 0.441967
0.813642 0.671806 0.462854
0.833963 0.676258 0.468029
0.454783 0.709724 0.422615
0.454924 0.709747 0.422642
0.468315 0.711938 0.425265
0.512949 0.719620 0.434443
0.582517 0.732599 0.449903
0.670957 0.750414 0.471064
0.770210 0.771341 0.495937
0.850593 0.788396 0.516308
0.870706 0.792660 0.521421
0.516246 0.805486 0.471199
0.516363 0.805506 0.471222
0.527512 0.807387 0.473426
0.565469 0.814034 0.481215
0.626664 0.825452 0.494619
0.707302 0.841557 0.513596
0.800938 0.861213 0.536980
0.878546 0.877611 0.557088
0.897142 0.881698 0.562264
0.531347 0.829136 0.482997
0.531459 0.829155 0.483019
0.542145 0.830972 0.485144
0.578671 0.837403 0.492667
0.637964 0.848486 0.505666
0.716697 0.864161 0.524197
0.808803 0.883011 0.547250
0.885300 0.898345 0.567286
0.903301 0.902114 0.572476
0.009426 0.063155 0.133837
0.024384 0.063501 0.134387
0.149304 0.093349 0.159337
0.277392 0.153824 0.196146
0.397530 0.213426 0.233650
0.515654 0.271291 0.273214
0.631397 0.327196 0.314007
0.719657 0.369463 0.346058
0.741539 0.379880 0.353968
0.017261 0.065852 0.135090
0.027452 0.066190 0.135607
0.149724 0.095081 0.159865
0.277619 0.154692 0.196418
0.397679 0.213962 0.233833
0.515761 0.271666 0.273351
0.631479 0.327478 0.314116
0.719725 0.369698 0.346150
0.741605 0.380105 0.354056
0.109441 0.179581 0.182739
0.110566 0.179725 0.182895
0.182707 0.192837 0.196275
0.296868 0.220092 0.219557
0.410957 0.259488 0.250467
0.525610 0.305209 0.286137
0.639142 0.353475 0.324405
0.726228 0.391600 0.354868
0.747868 0.401152 0.362418
0.205627 0.323762 0.245061
0.206086 0.323825 0.245135
0.245072 0.329734 0.251985
0.340772 0.347767 0.272367
0.447008 0.370986 0.297581
0.555100 0.398996 0.326148
0.663492 0.432156 0.357993
0.747542 0.460635 0.383815
0.768499 0.468048 0.390367
0.294003 0.456553 0.309802
0.294276 0.456593 0.309851
0.319129 0.460392 0.314517
0.391966 0.473083 0.330024
0.487862 0.492311 0.353144
0.592473 0.514823 0.379430
0.697734 0.539079 0.406348
0.779301 0.559591 0.427666
0.799681 0.564977 0.433064
0.377745 0.585968 0.376181
0.377933 0.585997 0.376217
0.395494 0.588796 0.379601
0.451509 0.598459 0.391226
0.533492 0.614207 0.409950
0.631431 0.634526 0.433769
0.735312 0.656585 0.459251
0.816437 0.673876 0.478823
0.836644 0.678228 0.483667
0.458076 0.712027 0.439056
0.458216 0.712050 0.439083
0.471576 0.714252 0.441648
0.516137 0.721971 0.450623
0.585652 0.735008 0.465734
0.674068 0.752875 0.486388
0.773251 0.773772 0.510567
0.853478 0.790693 0.530249
0.873473 0.794907 0.535170
0.519170 0.807605 0.485165
0.519287 0.807624 0.485188
0.530417 0.809513 0.487357
0.568324 0.816185 0.495025
0.629473 0.827645 0.508217
0.710090 0.843800 0.526888
0.803708 0.863467 0.549858
0.881157 0.879768 0.569555
0.899558 0.883813 0.574614
0.534190 0.831214 0.496452
0.534302 0.831233 0.496474
0.544971 0.833057 0.498567
0.581450 0.839511 0.505982
0.640701 0.850633 0.518794
0.719412 0.866332 0.537052
0.811505 0.885121 0.559738
0.887805 0.900316 0.579411
0.905599 0.904036 0.584497
0.043630 0.115712 0.245143
0.047540 0.115843 0.245352
0.157018 0.128406 0.260141
0.282944 0.167937 0.289350
0.401915 0.219237 0.319955
0.519555 0.274073 0.351253
0.634981 0.328865 0.383366
0.723026 0.370768 0.408940
0.744856 0.381129 0.415309
0.045529 0.116825 0.245611
0.049229 0.116955 0.245817
0.157354 0.129429 0.260488
0.283149 0.168676 0.289575
0.402063 0.219751 0.320112
0.519665 0.274446 0.351371
0.635066 0.329150 0.383461
0.723097 0.371005 0.409021
0.744925 0.381356 0.415387
0.119842 0.193456 0.277664
0.120826 0.193551 0.277779
0.186420 0.202103 0.287275
0.301544 0.227422 0.309183
0.415615 0.263984 0.334466
0.529914 0.307962 0.362430
0.643045 0.355356 0.392472
0.729851 0.393126 0.416735
0.751422 0.402618 0.422815
0.219729 0.333020 0.333855
0.220172 0.333086 0.333926
0.258256 0.339352 0.340608
0.356205 0.360563 0.362049
0.456178 0.377764 0.377336
0.561719 0.403273 0.397925
0.668802 0.435183 0.422250
0.752156 0.463089 0.442644
0.772965 0.470392 0.447905
0.307762 0.465481 0.385815
0.308030 0.465523 0.385862
0.332538 0.469537 0.390296
0.405204 0.483030 0.404984
0.501252 0.502839 0.425818
0.603465 0.523184 0.446194
0.705853 0.544790 0.466145
0.785904 0.563942 0.482597
0.805983 0.569068 0.486861
0.389829 0.594252 0.438936
0.390015 0.594283 0.438969
0.407408 0.597177 0.442164
0.463188 0.607168 0.453099
0.545238 0.623393 0.470570
0.643114 0.643819 0.492141
0.745807 0.664774 0.513790
0.825404 0.680649 0.529681
0.845222 0.684647 0.533591
0.468826 0.719652 0.491144
0.468966 0.719675 0.491169
0.482241 0.721924 0.493615
0.526616 0.729809 0.502171
0.596051 0.743118 0.516548
0.684516 0.761266 0.536065
0.783570 0.782146 0.558496
0.863239 0.798600 0.576232
0.882728 0.802630 0.580586
0.528974 0.814771 0.530830
0.529090 0.814791 0.530852
0.540164 0.816710 0.532942
0.577929 0.823489 0.540329
0.638975 0.835130 0.553029
0.719589 0.851513 0.570960
0.813221 0.871229 0.592872
0.890004 0.887177 0.611430
0.907672 0.891070 0.616150
0.543770 0.838273 0.540721
0.543882 0.838292 0.540742
0.554499 0.840144 0.542764
0.590848 0.846694 0.549924
0.649993 0.857974 0.562290
0.728691 0.873757 0.579878
0.820804 0.892334 0.601619
0.896289 0.907037 0.620286
0.913314 0.910585 0.625074
0.071538 0.163143 0.347272
0.073553 0.163218 0.347397
0.165140 0.170408 0.357486
0.289029 0.195322 0.381000
0.406319 0.234456 0.407929
0.522979 0.282180 0.436161
0.638080 0.333358 0.464720
0.726108 0.373801 0.486919
0.747946 0.383915 0.492383
0.072539 0.163806 0.347549
0.074514 0.163882 0.347673
0.165447 0.171055 0.357723
0.289203 0.195888 0.381183
0.406453 0.234907 0.408070
0.523087 0.282532 0.436271
0.638166 0.333637 0.464809
0.726181 0.374037 0.486994
0.748017 0.384142 0.492456
0.130913 0.217682 0.370045
0.131774 0.217748 0.370134
0.192366 0.223838 0.377809
0.305273 0.243581 0.397483
0.418991 0.274600 0.421032
0.533148 0.314468 0.446601
0.646270 0.359402 0.473276
0.733137 0.396068 0.494200
0.754720 0.405365 0.499393
0.228271 0.341835 0.421386
0.228682 0.341887 0.421446
0.264290 0.346793 0.426932
0.355167 0.361971 0.442735
0.459047 0.382343 0.461009
0.565777 0.407822 0.480374
0.673127 0.438954 0.501388
0.756452 0.466305 0.518580
0.777250 0.473483 0.522977
0.321808 0.475818 0.474332
0.322070 0.475862 0.474379
0.346162 0.480050 0.478889
0.418970 0.494681 0.494185
0.519854 0.519608 0.518850
0.614610 0.532616 0.530025
0.714148 0.551233 0.544205
0.793050 0.569121 0.556810
0.812908 0.574002 0.560142
0.405711 0.605816 0.522012
0.405895 0.605848 0.522046
0.423171 0.608930 0.525249
0.478999 0.619665 0.536269
0.562017 0.637354 0.553983
0.660842 0.658835 0.574799
0.760951 0.677220 0.591733
0.837706 0.690345 0.602929
0.856904 0.693755 0.605721
0.484660 0.731224 0.566158
0.484799 0.731248 0.566183
0.497991 0.733599 0.568592
0.542246 0.741859 0.577021
0.611862 0.755844 0.591176
0.700872 0.774846 0.610216
0.800100 0.796012 0.631246
0.878536 0.811593 0.646629
0.896868 0.815250 0.650221
0.544164 0.826091 0.599700
0.544279 0.826112 0.599722
0.555291 0.828096 0.601771
0.592922 0.835112 0.609012
0.653960 0.847175 0.621456
0.734810 0.864094 0.638961
0.828747 0.883906 0.660078
0.903926 0.899214 0.677467
0.920214 0.902828 0.681785
0.558761 0.849513 0.608130
0.558872 0.849533 0.608150
0.569431 0.851444 0.610132
0.605648 0.858199 0.617150
0.664761 0.869758 0.629263
0.743641 0.885681 0.646444
0.836037 0.903911 0.667470
0.909614 0.917788 0.685133
0.925235 0.921044 0.689577
0.097723 0.208525 0.446953
0.099011 0.208577 0.447038
0.174922 0.213421 0.454424
0.295261 0.230211 0.473657
0.411047 0.258807 0.497205
0.526269 0.297604 0.522963
0.640463 0.342740 0.549547
0.728229 0.380174 0.570048
0.750041 0.389719 0.575068
0.098372 0.208981 0.447142
0.099649 0.209032 0.447227
0.175205 0.213872 0.454597
0.295414 0.230638 0.473802
0.411165 0.259184 0.497327
0.526367 0.297921 0.523064
0.640545 0.343002 0.549632
0.728301 0.380402 0.570121
0.750111 0.389939 0.575138
0.144442 0.248761 0.463682
0.145183 0.248809 0.463752
0.200212 0.253285 0.469959
0.309694 0.268249 0.487076
0.422269 0.292984 0.508667
0.535668 0.326914 0.532618
0.648379 0.367429 0.557680
0.735204 0.401764 0.577037
0.756796 0.410608 0.581813
0.234714 0.354409 0.507814
0.235097 0.354450 0.507864
0.268499 0.358267 0.512455
0.355645 0.370645 0.526262
0.458821 0.389452 0.544358
0.566627 0.414066 0.564178
0.674904 0.444079 0.584546
0.758702 0.470585 0.600603
0.779610 0.477563 0.604628
0.329664 0.483415 0.561177
0.329913 0.483453 0.561218
0.352853 0.487016 0.565155
0.422049 0.499007 0.577982
0.515140 0.516739 0.595695
0.615915 0.535461 0.612131
0.717585 0.555440 0.626733
0.797115 0.573340 0.638263
0.817066 0.578171 0.641222
0.419926 0.616985 0.611607
0.420108 0.617018 0.611641
0.437176 0.620196 0.614901
0.492801 0.631446 0.626264
0.577140 0.650973 0.645386
0.682947 0.679365 0.672037
0.774212 0.688977 0.679416
0.848081 0.699181 0.686540
0.866742 0.702102 0.688503
0.502296 0.744679 0.653830
0.502434 0.744705 0.653856
0.515573 0.747207 0.656345
0.559868 0.756060 0.665101
0.630184 0.771301 0.679995
0.721039 0.792469 0.700344
0.821761 0.815166 0.721760
0.896951 0.828779 0.734238
0.913162 0.831616 0.736757
0.562559 0.840213 0.683964
0.562674 0.840235 0.683985
0.573645 0.842329 0.686077
0.611248 0.849754 0.693484
0.672557 0.862573 0.706260
0.754231 0.880373 0.724296
0.849321 0.900490 0.745829
0.921120 0.914907 0.762683
0.935325 0.918088 0.766636
0.577196 0.863680 0.691423
0.577307 0.863701 0.691444
0.587826 0.865691 0.693461
0.624001 0.872708 0.700615
0.683319 0.884620 0.713000
0.762876 0.900770 0.730609
0.856280 0.918664 0.751991
0.926012 0.931484 0.769314
0.939586 0.934337 0.773495
0.122461 0.251985 0.544430
0.123382 0.252024 0.544494
0.186547 0.255614 0.550189
0.301477 0.267895 0.566237
0.415728 0.289119 0.586955
0.529579 0.319718 0.610336
0.642529 0.357846 0.635062
0.729665 0.391120 0.654218
0.751360 0.399799 0.658941
0.122928 0.252324 0.544570
0.123844 0.252363 0.544633
0.186804 0.255951 0.550321
0.301616 0.268224 0.566354
0.415831 0.289427 0.587059
0.529667 0.319994 0.610427
0.642606 0.358086 0.635141
0.729734 0.391334 0.654287
0.751427 0.400007 0.659008
0.159799 0.283044 0.557295
0.160431 0.283081 0.557351
0.209690 0.286519 0.562425
0.314671 0.298116 0.577225
0.425674 0.317622 0.596797
0.538018 0.345496 0.619051
0.649897 0.380533 0.642618
0.736319 0.411482 0.660874
0.757840 0.419609 0.665397
0.241812 0.372298 0.594713
0.242169 0.372330 0.594755
0.273589 0.375418 0.598734
0.357374 0.385697 0.611095
0.458801 0.402076 0.628261
0.566335 0.424364 0.647753
0.674901 0.452164 0.667800
0.759014 0.477113 0.683440
0.780018 0.483731 0.687319
0.333525 0.491113 0.644878
0.333761 0.491143 0.644914
0.355513 0.494026 0.648239
0.421438 0.503723 0.659047
0.511363 0.518776 0.674611
0.612373 0.537430 0.691650
0.716197 0.558527 0.707867
0.797117 0.576830 0.719946
0.817351 0.581696 0.722936
0.427515 0.624135 0.697790
0.427690 0.624165 0.697821
0.444134 0.627000 0.700784
0.497707 0.636883 0.710945
0.578190 0.653161 0.727114
0.674921 0.672999 0.745727
0.774140 0.690306 0.760138
0.850465 0.702578 0.768764
0.869448 0.705754 0.770824
0.516775 0.756333 0.743896
0.516912 0.756360 0.743922
0.529913 0.758920 0.746468
0.573939 0.768050 0.755485
0.644498 0.784105 0.771117
0.737520 0.807792 0.793729
0.846948 0.839067 0.822957
0.911211 0.844031 0.826675
0.925022 0.845545 0.827755
0.580421 0.854442 0.774648
0.580535 0.854465 0.774671
0.591472 0.856673 0.776861
0.629090 0.864525 0.784659
0.690873 0.878097 0.798286
0.774119 0.897005 0.818029
0.872239 0.918366 0.842481
0.938840 0.932342 0.860644
0.950426 0.934889 0.864196
0.595603 0.878063 0.781958
0.595713 0.878085 0.781980
0.606206 0.880132 0.784093
0.642408 0.887338 0.791622
0.702155 0.899538 0.804798
0.783059 0.916028 0.823913
0.878739 0.934109 0.847734
0.942792 0.946236 0.866453
0.953941 0.948640 0.870507
0.140680 0.284524 0.618859
0.141425 0.284556 0.618911
0.196570 0.287524 0.623695
0.306395 0.297610 0.637806
0.419137 0.314908 0.656712
0.532027 0.340336 0.678438
0.644034 0.373241 0.701646
0.730536 0.402975 0.719762
0.752089 0.410865 0.724265
0.141058 0.284804 0.618974
0.141800 0.284836 0.619026
0.196806 0.287802 0.623805
0.306525 0.297885 0.637907
0.419232 0.315172 0.656803
0.532107 0.340581 0.678521
0.644105 0.373462 0.701720
0.730601 0.403176 0.719827
0.752153 0.411061 0.724329
0.172440 0.310581 0.629630
0.172998 0.310611 0.629678
0.217953 0.313492 0.634066
0.318840 0.323236 0.647318
0.428294 0.339633 0.665435
0.539750 0.363403 0.686397
0.650894 0.394168 0.708682
0.736824 0.422134 0.726093
0.758237 0.429586 0.730434
0.247954 0.389128 0.662598
0.248291 0.389156 0.662637
0.278204 0.391817 0.666226
0.359350 0.400784 0.677600
0.459148 0.415339 0.693889
0.566010 0.435525 0.712700
0.674347 0.461125 0.732298
0.758462 0.484420 0.747612
0.779484 0.490646 0.751406
0.335966 0.499163 0.709351
0.336193 0.499189 0.709382
0.357156 0.501690 0.712366
0.421059 0.510177 0.722153
0.509071 0.523721 0.736653
0.609336 0.541368 0.753407
0.713646 0.562105 0.770122
0.795266 0.580231 0.782655
0.815679 0.585044 0.785733
0.429678 0.628089 0.761736
0.429846 0.628115 0.761764
0.445716 0.630582 0.764405
0.497412 0.639109 0.773377
0.575001 0.652980 0.787441
0.669110 0.670506 0.804124
0.769263 0.688683 0.819669
0.847582 0.702605 0.830024
0.867061 0.706131 0.832437
0.523294 0.762145 0.811174
0.523427 0.762170 0.811199
0.536143 0.764587 0.813635
0.579214 0.773165 0.822215
0.648130 0.788029 0.836859
0.738003 0.808942 0.856999
0.838263 0.831463 0.877656
0.910279 0.843845 0.887763
0.924914 0.846284 0.889536
0.591169 0.863331 0.844848
0.591282 0.863354 0.844871
0.602126 0.865564 0.847095
0.639501 0.873413 0.855030
0.701150 0.886970 0.868905
0.784876 0.905955 0.888748
0.885168 0.928271 0.912839
0.951511 0.945798 0.932522
0.959726 0.946233 0.932972
0.607238 0.887229 0.852688
0.607347 0.887250 0.852711
0.617774 0.889277 0.854874
0.653826 0.896406 0.862583
0.713600 0.908473 0.876004
0.795222 0.924871 0.895068
0.892785 0.943408 0.917954
0.954343 0.956954 0.935752
0.963935 0.959348 0.939004
0.145097 0.292504 0.637315
0.145806 0.292534 0.637365
0.199173 0.295376 0.641960
0.307645 0.305027 0.655645
0.419951 0.321531 0.674142
0.532604 0.345839 0.695488
0.644392 0.377524 0.718311
0.730729 0.406376 0.736166
0.752243 0.414062 0.740613
0.145457 0.292771 0.637425
0.146163 0.292801 0.637475
0.199403 0.295643 0.642065
0.307774 0.305290 0.655741
0.420044 0.321786 0.674230
0.532682 0.346077 0.695569
0.644462 0.377740 0.718383
0.730793 0.406573 0.736231
0.752305 0.414255 0.740676
0.175648 0.317514 0.647652
0.176190 0.317543 0.647697
0.220115 0.320309 0.651936
0.319919 0.329668 0.664834
0.428935 0.345406 0.682609
0.540160 0.368257 0.703262
0.651122 0.398004 0.725212
0.736916 0.425212 0.742408
0.758298 0.432487 0.746703
0.249564 0.393651 0.679615
0.249897 0.393678 0.679652
0.279435 0.396247 0.683152
0.359911 0.404923 0.694294
0.459278 0.419054 0.710350
0.565934 0.438720 0.728958
0.674171 0.463743 0.748416
0.758258 0.486585 0.763633
0.779278 0.492701 0.767404
0.336580 0.501503 0.725468
0.336805 0.501529 0.725499
0.357582 0.503949 0.728410
0.421015 0.512179 0.737980
0.508574 0.525385 0.752246
0.608606 0.542733 0.768884
0.712930 0.563273 0.785643
0.794656 0.581280 0.798254
0.815100 0.586064 0.801352
0.429945 0.629098 0.777485
0.430112 0.629123 0.777512
0.445847 0.631507 0.780080
0.497119 0.639739 0.788798
0.574117 0.653142 0.802468
0.667725 0.670237 0.818825
0.767883 0.688403 0.834472
0.846512 0.702553 0.845129
0.866094 0.706142 0.847621
0.524255 0.763162 0.827492
0.524387 0.763186 0.827517
0.537011 0.765546 0.829905
0.579764 0.773902 0.838301
0.648100 0.788300 0.852542
0.736961 0.808302 0.871715
0.836116 0.829801 0.890843
0.908969 0.842777 0.900980
0.923934 0.845460 0.902856
0.593208 0.865073 0.862001
0.593321 0.865096 0.862024
0.604123 0.867287 0.864223
0.641366 0.875060 0.872014
0.702816 0.888463 0.885408
0.786274 0.907170 0.904063
0.886011 0.928978 0.925855
0.950085 0.944326 0.941300
0.959510 0.946033 0.942992
0.609545 0.889068 0.869951
0.609654 0.889089 0.869973
0.620050 0.891097 0.872096
0.656007 0.898156 0.879602
0.715658 0.910092 0.892469
0.797186 0.926299 0.910325
0.894654 0.944656 0.931193
0.956061 0.958608 0.947623
0.964235 0.962045 0.957207
