color-grading/luts/02_looks/BNC_L13_Airy.cube
TITLE "BNC L13 Airy"
# BNC Grade v1.0 — Bright, airy, lifted-shadow look with a soft top end and gentle overall desaturation.
# Input: Rec.709 Gamma 2.4 | Output: Rec.709 Gamma 2.4
LUT_3D_SIZE 5
DOMAIN_MIN 0.0 0.0 0.0
DOMAIN_MAX 1.0 1.0 1.0
0.059876 0.069349 0.074186
0.282974 0.097406 0.093747
0.506851 0.139253 0.122471
0.731102 0.184143 0.153633
0.911943 0.221479 0.180742
0.118787 0.292425 0.133086
0.291779 0.299481 0.125069
0.512772 0.309675 0.140210
0.735001 0.326836 0.166448
0.915470 0.344372 0.190459
0.218576 0.516322 0.207954
0.333979 0.519388 0.211338
0.527385 0.528132 0.183785
0.746739 0.535277 0.196832
0.926458 0.542711 0.214101
0.333045 0.738732 0.284716
0.411305 0.740310 0.287185
0.570142 0.746064 0.279986
0.771618 0.753261 0.236868
0.947571 0.756943 0.244142
0.435372 0.916915 0.343573
0.493247 0.918038 0.345244
0.626531 0.922021 0.343651
0.803600 0.929423 0.315665
0.969775 0.934350 0.278092
0.056920 0.081329 0.287975
0.285099 0.099813 0.294957
0.508268 0.138623 0.304259
0.732027 0.183235 0.315169
0.912681 0.220535 0.326364
0.094991 0.296548 0.300096
0.293763 0.299787 0.302938
0.513939 0.309539 0.309657
0.735819 0.326510 0.319958
0.916175 0.343899 0.330547
0.215875 0.517606 0.329596
0.337894 0.519177 0.335751
0.528525 0.528090 0.325621
0.747522 0.535117 0.332906
0.927130 0.542487 0.341575
0.335297 0.738904 0.378073
0.414477 0.740132 0.381366
0.572652 0.745551 0.380511
0.772454 0.753191 0.352293
0.948176 0.756848 0.357421
0.437760 0.916896 0.420748
0.495853 0.917880 0.422847
0.628945 0.921635 0.423943
0.804594 0.929244 0.404429
0.970332 0.934326 0.377394
0.045830 0.114520 0.503125
0.287391 0.122598 0.507612
0.510911 0.148749 0.515235
0.734103 0.187162 0.523716
0.914536 0.221717 0.531257
0.102781 0.301704 0.511350
0.296625 0.304222 0.513766
0.516249 0.312533 0.519263
0.737740 0.328085 0.526821
0.917974 0.344419 0.533691
0.180429 0.524221 0.523859
0.323496 0.525405 0.525206
0.531054 0.529040 0.528842
0.749519 0.535564 0.534452
0.928930 0.542597 0.539688
0.320373 0.743156 0.544480
0.410271 0.743104 0.547672
0.579437 0.745039 0.556661
0.774641 0.753358 0.544094
0.949849 0.756903 0.548162
0.437441 0.918448 0.574179
0.498393 0.918850 0.577024
0.634954 0.921225 0.583239
0.807744 0.928822 0.576602
0.971836 0.934440 0.558715
0.030531 0.156026 0.717748
0.288866 0.159525 0.720811
0.513699 0.174303 0.727239
0.736699 0.202434 0.735333
0.917230 0.230481 0.742198
0.107897 0.313694 0.723667
0.299148 0.315445 0.725796
0.518793 0.321830 0.730960
0.740365 0.334734 0.738071
0.920663 0.348854 0.744236
0.188951 0.528477 0.735005
0.328040 0.529445 0.736249
0.534273 0.532504 0.739609
0.752465 0.538160 0.744518
0.931712 0.544475 0.748930
0.291095 0.749825 0.746280
0.388032 0.750302 0.746948
0.569693 0.751771 0.748842
0.777843 0.754530 0.751961
0.952505 0.757864 0.755300
0.402815 0.926509 0.756209
0.473927 0.926364 0.757430
0.629839 0.925878 0.762403
0.814704 0.928436 0.772470
0.974062 0.935153 0.763053
0.017897 0.191771 0.890692
0.289721 0.193653 0.893088
0.515660 0.202718 0.898728
0.739017 0.222816 0.906401
0.919849 0.244547 0.912947
0.110837 0.328256 0.895476
0.300757 0.329508 0.897377
0.520647 0.334420 0.902245
0.742826 0.344706 0.908927
0.923358 0.356506 0.914780
0.196141 0.534519 0.905869
0.332070 0.535291 0.907061
0.537313 0.537789 0.910263
0.755389 0.542560 0.914874
0.934536 0.548092 0.919072
0.300234 0.752587 0.916311
0.394494 0.752999 0.916955
0.573965 0.754285 0.918785
0.781068 0.756764 0.921799
0.955212 0.759844 0.925016
0.390104 0.930792 0.924046
0.461270 0.931095 0.924564
0.616337 0.932055 0.926111
0.809346 0.933991 0.928904
0.976266 0.936567 0.932209
