color-grading/luts/02_looks/BNC_L01_Clean.cube
TITLE "BNC L01 Clean"
# BNC Grade v1.0 - A neutral, true-to-life grade with a light punch -- the default 'just make it look intentional' pass.
# Input: Rec.709 Gamma 2.4 | Output: Rec.709 Gamma 2.4
LUT_3D_SIZE 33
DOMAIN_MIN 0.0 0.0 0.0
DOMAIN_MAX 1.0 1.0 1.0
0.007440 0.007440 0.007440
0.019994 0.007092 0.007200
0.044954 0.003633 0.005726
0.076925 0.000000 0.005127
0.109239 0.000000 0.005293
0.141544 0.002151 0.005431
0.173823 0.000000 0.004761
0.205929 0.006125 0.006719
0.238091 0.000000 0.005256
0.270083 0.006232 0.006760
0.301985 0.009592 0.008670
0.333921 0.007298 0.007303
0.365663 0.011457 0.009884
0.397462 0.008700 0.008105
0.429046 0.013705 0.011434
0.460714 0.010625 0.009318
0.492147 0.016069 0.013127
0.523688 0.012657 0.010689
0.554974 0.018471 0.014889
0.586389 0.015003 0.012294
0.617753 0.004800 0.006052
0.648831 0.016924 0.013739
0.680077 0.006918 0.007035
0.711018 0.018836 0.015149
0.742041 0.018333 0.014772
0.772946 0.021042 0.016796
0.803783 0.023784 0.018865
0.834554 0.026567 0.020983
0.865575 0.001779 0.005180
0.896175 0.013935 0.011548
0.923342 0.021491 0.017123
0.942369 0.019587 0.015691
0.952957 0.019788 0.015841
0.006680 0.019836 0.006805
0.019790 0.019767 0.006579
0.044900 0.019176 0.004833
0.077182 0.018259 0.000000
0.109419 0.018204 0.000000
0.141714 0.017970 0.000000
0.173904 0.018135 0.001136
0.206020 0.018561 0.004529
0.238105 0.018730 0.005242
0.270194 0.017848 0.000000
0.302109 0.018387 0.004132
0.333934 0.019414 0.007224
0.365805 0.018179 0.003307
0.397471 0.019844 0.008179
0.429209 0.018107 0.003136
0.460721 0.020510 0.009524
0.492330 0.018180 0.004367
0.523694 0.021386 0.010843
0.555179 0.018387 0.004803
0.586398 0.022427 0.012240
0.617762 0.018695 0.005884
0.648840 0.023583 0.013688
0.680086 0.019063 0.006890
0.711026 0.024804 0.015101
0.742046 0.024581 0.014866
0.772951 0.026455 0.016877
0.803788 0.028507 0.018937
0.834558 0.030717 0.021048
0.865580 0.018463 0.005605
0.896180 0.021881 0.011698
0.923346 0.026739 0.017213
0.942369 0.025279 0.015693
0.952957 0.025419 0.015842
0.000047 0.044472 0.002673
0.018805 0.044487 0.000000
0.044427 0.044389 0.000000
0.076957 0.044143 0.000000
0.109437 0.043923 0.000000
0.141775 0.043749 0.000000
0.173956 0.043764 0.003548
0.206130 0.043669 0.003361
0.238209 0.043652 0.004387
0.270194 0.043753 0.006237
0.302201 0.043427 0.002516
0.334022 0.043685 0.006665
0.365888 0.043250 0.000000
0.397551 0.043716 0.007659
0.429285 0.043121 0.000000
0.460794 0.043837 0.008945
0.492400 0.043038 0.000000
0.523762 0.044048 0.010377
0.555244 0.043000 0.002903
0.586462 0.044343 0.011861
0.617823 0.042998 0.004539
0.648900 0.044710 0.013340
0.680144 0.043019 0.005797
0.711082 0.045136 0.014778
0.742080 0.045365 0.015469
0.772983 0.046162 0.017406
0.803820 0.047111 0.019406
0.834589 0.048218 0.021468
0.865610 0.043005 0.007701
0.896209 0.044137 0.012633
0.923375 0.046154 0.017795
0.942369 0.045213 0.015701
0.952958 0.045276 0.015851
0.000081 0.076570 0.002922
0.018670 0.076586 0.000000
0.044061 0.076611 0.000000
0.076649 0.076634 0.001563
0.109376 0.076556 0.000000
0.141844 0.076411 0.002925
0.174157 0.076248 0.003042
0.206337 0.076118 0.004313
0.238407 0.076039 0.006088
0.270472 0.075839 0.003702
0.302361 0.075848 0.007019
0.334279 0.075625 0.004394
0.366009 0.075727 0.008386
0.397792 0.075456 0.005500
0.429365 0.075688 0.010126
0.461019 0.075349 0.007149
0.492442 0.075723 0.011976
0.523972 0.075293 0.008847
0.555250 0.075828 0.013860
0.586659 0.075284 0.010521
0.617795 0.075998 0.015735
0.649086 0.075317 0.012137
0.680084 0.076229 0.017574
0.711259 0.075385 0.013675
0.742184 0.075989 0.017203
0.773086 0.076331 0.018956
0.803920 0.076758 0.020803
0.834992 0.074312 0.007077
0.865705 0.074686 0.011648
0.896302 0.075169 0.015107
0.923467 0.076106 0.019490
0.942369 0.075202 0.015729
0.952958 0.075233 0.015878
0.004163 0.108951 0.005012
0.018729 0.108972 0.002576
0.043905 0.109012 0.000000
0.076404 0.109094 0.003537
0.109170 0.109162 0.003839
0.141836 0.109134 0.001693
0.174307 0.109005 0.002476
0.206583 0.108842 0.004772
0.238772 0.108624 0.000000
0.270777 0.108487 0.005855
0.302768 0.108263 0.002441
0.334577 0.108195 0.007735
0.366416 0.107964 0.005235
0.398055 0.107984 0.009967
0.429757 0.107734 0.007748
0.461241 0.107850 0.012334
0.492820 0.107554 0.009851
0.524340 0.107203 0.003814
0.555610 0.107436 0.012033
0.587009 0.107020 0.007041
0.618137 0.107369 0.014113
0.649419 0.106871 0.009303
0.680409 0.107346 0.016099
0.711577 0.106750 0.011215
0.742428 0.107384 0.018139
0.773551 0.106302 0.007703
0.804393 0.106363 0.010791
0.835168 0.106476 0.013498
0.865878 0.106648 0.016062
0.896472 0.106888 0.018587
0.923634 0.107415 0.022169
0.942369 0.106344 0.015779
0.952958 0.106363 0.015927
0.003252 0.141260 0.004484
0.018919 0.141266 0.004519
0.043865 0.141303 0.003947
0.076199 0.141405 0.002695
0.108922 0.141524 0.004287
0.141625 0.141618 0.001933
0.174232 0.141620 0.006029
0.206677 0.141523 0.007104
0.238992 0.141330 0.004191
0.271084 0.141151 0.007763
0.303121 0.140908 0.006114
0.335065 0.140645 0.000000
0.366805 0.140517 0.008714
0.398576 0.140255 0.006277
0.430141 0.140196 0.011339
0.461770 0.139926 0.009298
0.493340 0.139624 0.004099
0.524672 0.139667 0.012087
0.556116 0.139336 0.008312
0.587302 0.139466 0.014642
0.618626 0.139095 0.011149
0.649672 0.139319 0.017045
0.680881 0.138895 0.013562
0.712038 0.138395 0.004615
0.742885 0.138730 0.015731
0.773824 0.138551 0.015446
0.804661 0.138532 0.017038
0.835432 0.138550 0.018774
0.866137 0.138610 0.020631
0.896727 0.138718 0.022609
0.924220 0.137413 0.008610
0.942558 0.138134 0.019684
0.952959 0.137729 0.016002
0.005377 0.173462 0.005823
0.019159 0.173467 0.005888
0.043859 0.173501 0.005485
0.076061 0.173601 0.003867
0.108713 0.173733 0.006852
0.141343 0.173891 0.005342
0.174006 0.174001 0.000000
0.206578 0.174022 0.007750
0.239011 0.173944 0.008649
0.271321 0.173759 0.005580
0.303404 0.173563 0.009044
0.335421 0.173293 0.006924
0.367328 0.173000 0.000000
0.399019 0.172819 0.009977
0.430741 0.172516 0.007214
0.462236 0.172396 0.012900
0.493802 0.172095 0.010939
0.525304 0.171769 0.006960
0.556560 0.171739 0.014069
0.587933 0.171397 0.010927
0.619041 0.171445 0.016921
0.650293 0.171078 0.014133
0.681497 0.170653 0.007473
0.712400 0.170794 0.016484
0.743486 0.170334 0.011079
0.774250 0.170573 0.019097
0.805307 0.169814 0.006628
0.836084 0.169679 0.009359
0.866795 0.169572 0.011885
0.897391 0.169498 0.014375
0.924556 0.169593 0.018437
0.942892 0.170089 0.024829
0.953233 0.169672 0.021415
0.008787 0.205561 0.008532
0.018512 0.205592 0.000000
0.044029 0.205598 0.008248
0.076018 0.205692 0.007406
0.108483 0.205844 0.005708
0.141044 0.206028 0.000000
0.173691 0.206190 0.006937
0.206316 0.206314 0.004820
0.238884 0.206346 0.002999
0.271319 0.206275 0.004540
0.303576 0.206124 0.007999
0.335651 0.205924 0.011186
0.367657 0.205640 0.008827
0.399544 0.205321 0.004097
0.431202 0.205094 0.011427
0.462880 0.204759 0.008803
0.494323 0.204582 0.014608
0.525835 0.204244 0.012632
0.557279 0.203887 0.009083
0.588471 0.203784 0.015811
0.619781 0.203417 0.012875
0.651033 0.203021 0.006421
0.682001 0.203009 0.016189
0.713132 0.202589 0.011399
0.743960 0.202651 0.019122
0.774976 0.202199 0.014770
0.805751 0.202147 0.018742
0.836523 0.201973 0.019801
0.867229 0.201822 0.021053
0.897820 0.201697 0.022499
0.924980 0.201712 0.025119
0.943650 0.201074 0.018168
0.953992 0.200699 0.011079
0.007340 0.237592 0.007329
0.019482 0.237596 0.007276
0.043840 0.237625 0.007110
0.075831 0.237713 0.005813
0.108243 0.237862 0.000000
0.140822 0.238030 0.008399
0.173356 0.238242 0.005510
0.205969 0.238421 0.009930
0.238558 0.238559 0.008688
0.271092 0.238608 0.008064
0.303505 0.238559 0.009051
0.335755 0.238422 0.011017
0.367914 0.238179 0.005338
0.399829 0.237936 0.011157
0.431704 0.237601 0.007000
0.463334 0.237342 0.013471
0.494984 0.236976 0.010794
0.526545 0.236590 0.005004
0.557853 0.236376 0.014481
0.589252 0.235979 0.010813
0.620382 0.235822 0.017745
0.651634 0.235424 0.014935
0.682827 0.235002 0.009772
0.713727 0.234924 0.018405
0.744795 0.234486 0.014229
0.775551 0.234478 0.021527
0.806503 0.234017 0.017673
0.837333 0.233656 0.015601
0.868048 0.233405 0.016463
0.898647 0.233174 0.017620
0.925814 0.233069 0.020530
0.944486 0.232474 0.005272
0.954493 0.232944 0.022763
0.001003 0.269534 0.003692
0.018657 0.269539 0.003532
0.043504 0.269566 0.002012
0.075958 0.269615 0.010652
0.108194 0.269759 0.009521
0.140551 0.269955 0.007104
0.173091 0.270157 0.011463
0.205601 0.270393 0.009411
0.238170 0.270600 0.006074
0.270732 0.270739 0.012404
0.303233 0.270805 0.012065
0.335623 0.270775 0.012776
0.367936 0.270625 0.004004
0.400017 0.270425 0.010065
0.431927 0.270180 0.014159
0.463797 0.269837 0.010420
0.495411 0.269554 0.015907
0.527040 0.269162 0.013165
0.558577 0.268744 0.007917
0.589846 0.268484 0.016340
0.621202 0.268057 0.012983
0.652485 0.267612 0.005271
0.683484 0.267414 0.017005
0.714624 0.266961 0.012394
0.745463 0.266824 0.020561
0.776473 0.266360 0.016696
0.807428 0.265867 0.008920
0.838054 0.265806 0.020236
0.868931 0.265223 0.010716
0.899541 0.264908 0.011383
0.926717 0.264708 0.015227
0.945065 0.264795 0.022671
0.955405 0.264485 0.017649
0.011250 0.301353 0.010640
0.020757 0.301357 0.010604
0.044123 0.301382 0.010359
0.075765 0.301461 0.009529
0.107962 0.301599 0.007707
0.140270 0.301790 0.003113
0.172782 0.301994 0.011011
0.205223 0.302251 0.008009
0.237780 0.302481 0.013136
0.270317 0.302703 0.011079
0.302858 0.302860 0.009282
0.335348 0.302932 0.007981
0.367733 0.302909 0.008574
0.399976 0.302795 0.010671
0.432052 0.302608 0.013961
0.464068 0.302309 0.006520
0.495826 0.302021 0.013658
0.527570 0.301626 0.007182
0.559045 0.301310 0.015636
0.590559 0.300870 0.011218
0.621797 0.300571 0.018652
0.653121 0.300113 0.015336
0.684366 0.299637 0.009293
0.715318 0.299388 0.019170
0.746413 0.298903 0.014851
0.777443 0.298397 0.001352
0.808155 0.298216 0.019037
0.839060 0.297691 0.012190
0.869623 0.297569 0.022459
0.900186 0.297300 0.024943
0.927678 0.296546 0.006628
0.946035 0.296544 0.019016
0.956377 0.296243 0.010694
0.008271 0.333123 0.008078
0.019655 0.333127 0.008019
0.043729 0.333150 0.007918
0.075495 0.333224 0.006462
0.107695 0.333356 0.000000
0.140202 0.333505 0.012277
0.172471 0.333741 0.009912
0.204842 0.334008 0.004813
0.237366 0.334260 0.012525
0.269861 0.334529 0.009438
0.302395 0.334758 0.000969
0.334907 0.334914 0.014245
0.367363 0.335002 0.013588
0.399723 0.334997 0.014008
0.431948 0.334902 0.015598
0.464113 0.334688 0.004876
0.496030 0.334442 0.012547
0.527784 0.334154 0.017329
0.559524 0.333754 0.012195
0.590988 0.333420 0.018655
0.622487 0.332962 0.014531
0.653889 0.332476 0.005581
0.685000 0.332144 0.017909
0.716215 0.331638 0.012583
0.747128 0.331344 0.021480
0.778187 0.330822 0.017045
0.809174 0.330285 0.008487
0.839835 0.330050 0.021147
0.870686 0.329503 0.015241
0.901178 0.329277 0.023358
0.928373 0.328972 0.025107
0.947051 0.328459 0.014974
0.957077 0.328640 0.026388
0.015591 0.364765 0.014487
0.022911 0.364768 0.014460
0.044801 0.364791 0.014281
0.075903 0.364862 0.013693
0.107840 0.364988 0.012719
0.139933 0.365171 0.010684
0.172147 0.365404 0.007030
0.204599 0.365639 0.014338
0.236950 0.365938 0.011458
0.269385 0.366239 0.005376
0.301915 0.366496 0.014516
0.334417 0.366738 0.012123
0.366912 0.366913 0.009190
0.399358 0.367007 0.006589
0.431712 0.367008 0.006457
0.463938 0.366920 0.009406
0.496015 0.366749 0.012935
0.527927 0.366514 0.017066
0.559809 0.366161 0.008073
0.591416 0.365830 0.016225
0.623034 0.365378 0.007058
0.654363 0.365011 0.017683
0.685750 0.364506 0.010957
0.716839 0.364142 0.020469
0.748029 0.363609 0.015432
0.778908 0.363274 0.023761
0.809929 0.362726 0.019640
0.840880 0.362158 0.012548
0.871494 0.361875 0.023543
0.902254 0.361297 0.018035
0.929407 0.361009 0.023521
0.948095 0.360500 0.009185
0.958133 0.360615 0.024644
0.013496 0.396369 0.012612
0.021740 0.396372 0.012576
0.044304 0.396394 0.012336
0.075587 0.396462 0.011531
0.107540 0.396583 0.009820
0.139628 0.396758 0.006519
0.172063 0.396942 0.015596
0.204245 0.397217 0.013179
0.236525 0.397524 0.008641
0.268994 0.397811 0.016186
0.301408 0.398132 0.013175
0.333878 0.398427 0.008104
0.366377 0.398658 0.017367
0.398839 0.398847 0.015701
0.431253 0.398955 0.014651
0.463580 0.398973 0.014713
0.495786 0.398903 0.016092
0.527849 0.398750 0.018538
0.559875 0.398476 0.006154
0.591636 0.398185 0.015047
0.623240 0.397855 0.020472
0.654855 0.397401 0.013865
0.686175 0.397020 0.021285
0.717552 0.396501 0.015548
0.748622 0.396111 0.023502
0.779794 0.395555 0.018742
0.810880 0.394975 0.009748
0.841638 0.394607 0.022379
0.872557 0.394010 0.016041
0.903082 0.393683 0.026033
0.930483 0.393107 0.019512
0.948894 0.392928 0.025468
0.959202 0.392701 0.022779
0.008458 0.427895 0.008214
0.019634 0.427898 0.008143
0.043518 0.427918 0.007650
0.075138 0.427983 0.005672
0.107876 0.428046 0.017361
0.139743 0.428217 0.016145
0.171749 0.428442 0.013958
0.203870 0.428715 0.010227
0.236274 0.428981 0.017911
0.268538 0.429318 0.015081
0.300890 0.429663 0.010299
0.333370 0.429967 0.018288
0.365812 0.430277 0.015319
0.398277 0.430536 0.012072
0.430729 0.430729 0.007412
0.463088 0.430843 0.020265
0.495388 0.430878 0.020386
0.527658 0.430802 0.000000
0.559726 0.430654 0.010261
0.591641 0.430433 0.015600
0.623400 0.430152 0.020114
0.655153 0.429745 0.009411
0.686611 0.429374 0.018989
0.718108 0.428869 0.007196
0.749296 0.428454 0.019793
0.780563 0.427888 0.010183
0.811508 0.427468 0.022160
0.842576 0.426866 0.014866
0.873307 0.426463 0.025286
0.904149 0.425840 0.019391
0.931316 0.425509 0.027788
0.950036 0.425010 0.017314
0.960240 0.424891 0.021743
0.018553 0.459285 0.017146
0.024713 0.459288 0.017120
0.045379 0.459308 0.016949
0.075933 0.459370 0.016391
0.107555 0.459482 0.015297
0.139410 0.459648 0.013411
0.171400 0.459866 0.010414
0.203777 0.460084 0.019104
0.235875 0.460396 0.016623
0.268073 0.460740 0.012513
0.300366 0.461100 0.000000
0.332819 0.461426 0.016742
0.365219 0.461776 0.012484
0.397662 0.462092 0.001877
0.430119 0.462341 0.018685
0.462538 0.462546 0.016541
0.494910 0.462673 0.015351
0.527202 0.462713 0.014968
0.559386 0.462667 0.016079
0.591440 0.462535 0.018136
0.623346 0.462330 0.021413
0.655239 0.461998 0.007005
0.686850 0.461665 0.017362
0.718308 0.461294 0.023457
0.749803 0.460787 0.015210
0.780984 0.460362 0.023693
0.812244 0.459784 0.016016
0.843170 0.459345 0.025714
0.874223 0.458724 0.019245
0.904882 0.458291 0.028357
0.932371 0.457689 0.021541
0.950846 0.457436 0.027326
0.961349 0.457044 0.006513
0.014935 0.490654 0.013884
0.022453 0.490656 0.013847
0.044413 0.490675 0.013597
0.075393 0.490735 0.012762
0.107137 0.490843 0.010997
0.139023 0.491003 0.007130
0.171488 0.491157 0.019671
0.203415 0.491423 0.017343
0.235455 0.491734 0.013752
0.267600 0.492079 0.006843
0.299992 0.492403 0.018761
0.332261 0.492789 0.014405
0.364610 0.493169 0.006094
0.397064 0.493499 0.019090
0.429479 0.493828 0.015590
0.461906 0.494105 0.010476
0.494289 0.494306 0.022934
0.526630 0.494446 0.021979
0.558895 0.494502 0.021815
0.591056 0.494473 0.022618
0.623092 0.494360 0.024371
0.655114 0.494122 0.010782
0.686876 0.493853 0.017700
0.718486 0.493528 0.022977
0.750111 0.493072 0.011063
0.781432 0.492659 0.021185
0.812811 0.492100 0.002720
0.843862 0.491641 0.021244
0.875015 0.491017 0.005229
0.905774 0.490544 0.023081
0.933334 0.489930 0.008127
0.951856 0.489648 0.020589
0.962108 0.489491 0.024215
0.003103 0.521947 0.004222
0.018530 0.521950 0.004005
0.043004 0.521968 0.001557
0.076553 0.521960 0.021146
0.107750 0.522065 0.020324
0.139339 0.522221 0.018989
0.171114 0.522430 0.016925
0.203020 0.522689 0.013949
0.235017 0.522995 0.007335
0.267366 0.523286 0.020135
0.299483 0.523665 0.016194
0.331696 0.524063 0.009640
0.364099 0.524424 0.020597
0.396425 0.524823 0.016544
0.428806 0.525198 0.010157
0.461238 0.525508 0.022132
0.493633 0.525797 0.019294
0.526011 0.526018 0.016871
0.558343 0.526163 0.014564
0.590601 0.526224 0.013449
0.622759 0.526200 0.014247
0.654797 0.526092 0.016797
0.686697 0.525906 0.020369
0.718454 0.525650 0.024102
0.750216 0.525264 0.008343
0.781684 0.524888 0.019346
0.813002 0.524477 0.026195
0.844376 0.523921 0.016587
0.875421 0.523454 0.026085
0.906518 0.522822 0.016185
0.933915 0.522384 0.026263
0.952494 0.522088 0.031108
0.963032 0.521732 0.015371
0.020224 0.553099 0.018648
0.025816 0.553102 0.018622
0.045791 0.553118 0.018664
0.075901 0.553174 0.018095
0.107265 0.553275 0.016984
0.138909 0.553426 0.015080
0.170694 0.553629 0.011749
0.202584 0.553882 0.003058
0.234937 0.554121 0.020767
0.266900 0.554468 0.017198
0.298967 0.554849 0.011554
0.331311 0.555201 0.022449
0.363501 0.555625 0.018267
0.395774 0.556049 0.011994
0.428183 0.556422 0.022942
0.460538 0.556810 0.019303
0.492921 0.557158 0.014138
0.525311 0.557450 0.005137
0.557650 0.557666 0.024118
0.589952 0.557824 0.022791
0.622182 0.557900 0.022270
0.654317 0.557892 0.022791
0.686336 0.557801 0.024386
0.718224 0.557632 0.026884
0.750114 0.557335 0.011539
0.781731 0.557019 0.019446
0.813196 0.556652 0.025564
0.844701 0.556144 0.010986
0.875884 0.555691 0.023002
0.906875 0.555218 0.030514
0.934601 0.554638 0.021285
0.953250 0.554331 0.027187
0.963563 0.554162 0.030098
0.013925 0.584242 0.012964
0.021838 0.584245 0.012918
0.044028 0.584262 0.012600
0.075018 0.584314 0.011950
0.106641 0.584412 0.009613
0.138386 0.584559 0.000000
0.170962 0.584685 0.022622
0.202666 0.584935 0.020381
0.234495 0.585233 0.017334
0.266415 0.585576 0.011728
0.298719 0.585895 0.023663
0.330760 0.586309 0.019772
0.362896 0.586743 0.014088
0.395249 0.587136 0.024431
0.427501 0.587579 0.020449
0.459815 0.588005 0.014798
0.492213 0.588369 0.025802
0.524568 0.588728 0.022830
0.556927 0.589032 0.019283
0.589265 0.589269 0.015443
0.621558 0.589431 0.011475
0.653780 0.589512 0.009546
0.685911 0.589510 0.009757
0.717932 0.589423 0.012203
0.749823 0.589258 0.016971
0.781575 0.589021 0.021913
0.813185 0.588718 0.026510
0.844824 0.588278 0.006525
0.876151 0.587862 0.020874
0.907277 0.587414 0.028911
0.935115 0.586861 0.014715
0.953841 0.586554 0.022709
0.964196 0.586384 0.026185
0.025548 0.615237 0.023481
0.029838 0.615239 0.023460
0.047572 0.615256 0.023323
0.076645 0.615308 0.022879
0.107575 0.615402 0.022234
0.138933 0.615545 0.020877
0.170504 0.615738 0.018790
0.202205 0.615981 0.015506
0.234014 0.616273 0.009824
0.266317 0.616544 0.024188
0.298213 0.616925 0.020837
0.330199 0.617341 0.015365
0.362497 0.617721 0.026119
0.394611 0.618182 0.021994
0.426809 0.618645 0.016347
0.459173 0.619056 0.026806
0.491463 0.619498 0.023057
0.523792 0.619907 0.017889
0.556145 0.620271 0.010319
0.588487 0.620559 0.026822
0.620794 0.620808 0.024862
0.653057 0.620984 0.023077
0.685252 0.621079 0.022110
0.717359 0.621092 0.022283
0.749358 0.621022 0.023701
0.781234 0.620874 0.026190
0.812978 0.620651 0.029126
0.844744 0.620296 0.010111
0.876216 0.619936 0.020697
0.907487 0.619530 0.028129
0.935437 0.619023 0.000000
0.954242 0.618731 0.018871
0.964643 0.618566 0.022946
0.027002 0.646200 0.024803
0.031061 0.646202 0.024839
0.048357 0.646216 0.025075
0.077271 0.646259 0.025806
0.106210 0.646419 0.003762
0.138252 0.646537 0.012916
0.170251 0.646697 0.018274
0.202242 0.646900 0.022947
0.234080 0.647169 0.023990
0.265828 0.647505 0.020615
0.297675 0.647884 0.015344
0.329937 0.648231 0.027177
0.361903 0.648679 0.023269
0.393964 0.649147 0.017931
0.426105 0.649627 0.003432
0.458450 0.650054 0.024244
0.490695 0.650527 0.018885
0.522989 0.650978 0.007908
0.555359 0.651358 0.026274
0.587682 0.651734 0.022214
0.620004 0.652053 0.017385
0.652303 0.652305 0.011914
0.684502 0.652482 0.030542
0.716670 0.652591 0.029935
0.748753 0.652619 0.030130
0.780732 0.652566 0.031199
0.812726 0.652393 0.008218
0.844472 0.652175 0.016999
0.876083 0.651887 0.022978
0.907496 0.651542 0.028901
0.935360 0.651189 0.033555
0.954452 0.650828 0.015818
0.964900 0.650674 0.020381
0.027868 0.677093 0.025590
0.031767 0.677095 0.025625
0.048705 0.677108 0.025860
0.077393 0.677150 0.026585
0.108192 0.677226 0.027847
0.138013 0.677427 0.011462
0.169993 0.677583 0.017598
0.201957 0.677782 0.022626
0.233924 0.678025 0.027219
0.265350 0.678390 0.016346
0.297457 0.678714 0.024503
0.329384 0.679112 0.024132
0.361298 0.679562 0.018841
0.393305 0.680036 0.008717
0.425593 0.680465 0.025620
0.457718 0.680966 0.020235
0.489911 0.681465 0.009518
0.522259 0.681901 0.026791
0.554529 0.682365 0.021605
0.586835 0.682792 0.014536
0.619164 0.683144 0.029885
0.651457 0.683474 0.027176
0.683726 0.683738 0.024285
0.715952 0.683929 0.021766
0.748113 0.684043 0.020068
0.780191 0.684075 0.019716
0.812168 0.684027 0.020978
0.844030 0.683899 0.023632
0.875764 0.683697 0.027221
0.907311 0.683426 0.031350
0.935299 0.683131 0.034980
0.954463 0.682821 0.015991
0.964958 0.682684 0.020068
0.028841 0.707913 0.026474
0.032573 0.707915 0.026509
0.049118 0.707928 0.026740
0.077552 0.707968 0.027457
0.108224 0.708043 0.028707
0.137781 0.708245 0.009849
0.169741 0.708397 0.016955
0.201677 0.708591 0.022344
0.233612 0.708829 0.027163
0.264928 0.709194 0.013397
0.297006 0.709514 0.023273
0.329086 0.709872 0.029982
0.360821 0.710341 0.022003
0.392916 0.710780 0.026691
0.424904 0.711282 0.021487
0.456975 0.711796 0.012491
0.489273 0.712256 0.027945
0.521449 0.712772 0.022699
0.553679 0.713271 0.013867
0.586016 0.713699 0.029817
0.618293 0.714139 0.025406
0.650585 0.714529 0.020472
0.682871 0.714863 0.013010
0.715095 0.715118 0.032381
0.747290 0.715322 0.031071
0.779424 0.715449 0.030108
0.811477 0.715496 0.029993
0.843433 0.715464 0.030839
0.875276 0.715352 0.032628
0.906949 0.715165 0.034902
0.935221 0.714878 0.013657
0.954281 0.714688 0.019821
0.964823 0.714573 0.022600
0.029938 0.738660 0.027472
0.033495 0.738662 0.027507
0.049609 0.738674 0.027733
0.077754 0.738714 0.028437
0.108283 0.738786 0.029669
0.137559 0.738989 0.008113
0.169497 0.739138 0.016410
0.201405 0.739328 0.022143
0.233306 0.739561 0.027168
0.264508 0.739926 0.008895
0.296559 0.740241 0.021900
0.328607 0.740595 0.029296
0.360256 0.741068 0.019151
0.392394 0.741488 0.028879
0.424255 0.742010 0.019721
0.456448 0.742480 0.029155
0.488501 0.743018 0.023867
0.520624 0.743556 0.014941
0.552930 0.744028 0.030476
0.585140 0.744541 0.025588
0.617390 0.745026 0.018398
0.649699 0.745433 0.033420
0.681961 0.745835 0.029867
0.714218 0.746179 0.026095
0.746449 0.746458 0.022675
0.778638 0.746666 0.018938
0.810766 0.746796 0.015792
0.842814 0.746848 0.014289
0.874768 0.746820 0.015435
0.906561 0.746713 0.018773
0.934782 0.746555 0.022696
0.953921 0.746413 0.025094
0.964506 0.746324 0.026789
0.031172 0.769334 0.028596
0.034549 0.769336 0.028630
0.050192 0.769348 0.028851
0.078009 0.769387 0.029539
0.108377 0.769457 0.030746
0.137350 0.769662 0.006390
0.169264 0.769807 0.016041
0.201142 0.769994 0.022067
0.233010 0.770222 0.027266
0.264883 0.770493 0.032076
0.296117 0.770897 0.020389
0.328133 0.771247 0.028579
0.359693 0.771722 0.015294
0.391800 0.772141 0.027305
0.423586 0.772669 0.014399
0.455764 0.773139 0.028137
0.487720 0.773700 0.017274
0.519955 0.774197 0.030118
0.552079 0.774746 0.026327
0.584244 0.775290 0.018261
0.616545 0.775762 0.033385
0.648770 0.776258 0.028711
0.681021 0.776713 0.023339
0.713280 0.777119 0.015156
0.745511 0.777444 0.034922
0.777714 0.777735 0.032407
0.809874 0.777954 0.030282
0.841975 0.778098 0.028809
0.873999 0.778164 0.028265
0.905879 0.778151 0.028841
0.934190 0.778074 0.030304
0.953393 0.777987 0.031757
0.964018 0.777927 0.032700
0.022117 0.800528 0.020336
0.027117 0.800528 0.020336
0.046058 0.800528 0.020338
0.075618 0.800528 0.020345
0.106599 0.800528 0.020356
0.137892 0.800528 0.020374
0.169309 0.800528 0.020399
0.200891 0.800588 0.022162
0.232724 0.800812 0.027488
0.264560 0.801078 0.032402
0.295680 0.801482 0.018754
0.327666 0.801828 0.027859
0.359134 0.802304 0.008714
0.391211 0.802721 0.025503
0.423292 0.803170 0.034127
0.455066 0.803727 0.025651
0.486954 0.804299 0.005833
0.519161 0.804805 0.027491
0.551190 0.805390 0.013613
0.583441 0.805904 0.029686
0.615624 0.806447 0.029102
