color-grading/luts/02_looks/BNC_L10_Faded.cube
TITLE "BNC L10 Faded"
# BNC Grade v1.0 - Faded, lifted-black low-contrast look with a soft highlight shoulder, like a sun-faded print.
# Input: Rec.709 Gamma 2.4 | Output: Rec.709 Gamma 2.4
LUT_3D_SIZE 5
DOMAIN_MIN 0.0 0.0 0.0
DOMAIN_MAX 1.0 1.0 1.0
0.080566 0.062900 0.053219
0.288257 0.078132 0.060158
0.495879 0.127840 0.098896
0.700548 0.184555 0.148389
0.880857 0.230424 0.185796
0.194886 0.275393 0.008397
0.302102 0.289363 0.102757
0.503484 0.301722 0.134384
0.706544 0.321843 0.172535
0.887300 0.342308 0.197650
0.307802 0.487699 0.020120
0.381302 0.493756 0.059038
0.517813 0.513727 0.191153
0.721514 0.524046 0.210372
0.904100 0.531302 0.217687
0.451182 0.690345 0.015361
0.498105 0.693871 0.028929
0.603650 0.707204 0.084914
0.747481 0.728830 0.219914
0.926259 0.735867 0.227166
0.588715 0.863930 0.012289
0.620746 0.866752 0.031680
0.701314 0.876212 0.023256
0.815734 0.896191 0.100235
0.948683 0.915320 0.226853
0.086798 0.088907 0.255663
0.289405 0.092885 0.266484
0.496907 0.131319 0.282114
0.701613 0.185079 0.300990
0.881991 0.230262 0.316921
0.148988 0.288875 0.280507
0.306821 0.294855 0.288530
0.506050 0.303784 0.298388
0.708319 0.322666 0.313445
0.888858 0.342677 0.323500
0.267077 0.499875 0.267557
0.371484 0.501505 0.277187
0.520755 0.518020 0.326119
0.725192 0.526552 0.333917
0.906703 0.532914 0.335101
0.418890 0.701262 0.206354
0.480712 0.702809 0.221481
0.605069 0.711451 0.277260
0.750229 0.732440 0.337040
0.929660 0.738626 0.339896
0.557848 0.873254 0.028179
0.596278 0.875825 0.012705
0.693617 0.882980 0.158822
0.817899 0.899620 0.281443
0.951134 0.918508 0.338629
0.093228 0.128052 0.459280
0.289082 0.128343 0.467729
0.496463 0.148088 0.481950
0.701709 0.190170 0.497164
0.883005 0.231196 0.506979
0.148048 0.294977 0.480406
0.303692 0.298299 0.486337
0.505560 0.307344 0.496676
0.709214 0.324539 0.507476
0.890640 0.343490 0.512142
0.206141 0.512236 0.510262
0.330418 0.516329 0.514819
0.529292 0.527647 0.525945
0.731104 0.530829 0.525037
0.911123 0.535795 0.522191
0.354209 0.719881 0.478415
0.437586 0.720808 0.477310
0.602341 0.723796 0.488090
0.758248 0.741488 0.528334
0.938015 0.745580 0.527718
0.519899 0.890648 0.413165
0.570465 0.891464 0.417329
0.688048 0.895111 0.437741
0.824332 0.908722 0.490076
0.958290 0.927056 0.526545
0.094382 0.167159 0.662861
0.286590 0.167620 0.669259
0.494477 0.177178 0.681276
0.700159 0.204760 0.694485
0.882645 0.237269 0.701539
0.141948 0.306243 0.678854
0.299059 0.308501 0.683801
0.501964 0.315480 0.693636
0.707515 0.329586 0.703259
0.890456 0.346312 0.706435
0.207982 0.514895 0.707133
0.330263 0.517833 0.710474
0.524824 0.524676 0.716899
0.730900 0.531661 0.719572
0.912481 0.537625 0.717470
0.307337 0.731663 0.717822
0.394776 0.734479 0.720223
0.567776 0.742562 0.726856
0.771610 0.754201 0.735275
0.946714 0.753397 0.729756
0.436088 0.913505 0.685150
0.500633 0.914822 0.683827
0.651028 0.917670 0.681456
0.831778 0.923357 0.700278
0.970747 0.939885 0.733219
0.088751 0.200019 0.841731
0.282723 0.200572 0.846474
0.491516 0.206591 0.856614
0.698285 0.224824 0.867309
0.883768 0.251926 0.873782
0.133368 0.319796 0.853786
0.294070 0.321614 0.857911
0.498016 0.327111 0.866579
0.705267 0.338368 0.874074
0.889124 0.352508 0.876304
0.206142 0.517752 0.877029
0.327853 0.519980 0.879480
0.521175 0.525462 0.884415
0.727590 0.532522 0.887747
0.910568 0.539181 0.887171
0.313331 0.734380 0.890534
0.398607 0.736794 0.892688
0.568479 0.743318 0.898202
0.767880 0.751378 0.903667
0.946762 0.754659 0.902687
0.408055 0.923405 0.892995
0.472042 0.925659 0.895068
0.617479 0.932264 0.901126
0.805559 0.943656 0.911407
0.984196 0.953730 0.920558
