color-grading/luts/02_looks/BNC_L11_Acros.cube
TITLE "BNC L11 Acros"
# BNC Grade v1.0 — Fujifilm Acros-style fine-grain black & white with punchy contrast and a gentle toe.
# Input: Rec.709 Gamma 2.4 | Output: Rec.709 Gamma 2.4
LUT_3D_SIZE 9
DOMAIN_MIN 0.0 0.0 0.0
DOMAIN_MAX 1.0 1.0 1.0
0.001404 0.001404 0.001404
0.032439 0.032439 0.032439
0.134978 0.134978 0.134978
0.244669 0.244669 0.244669
0.347762 0.347762 0.347762
0.450827 0.450827 0.450827
0.553893 0.553893 0.553893
0.656958 0.656958 0.656958
0.760024 0.760024 0.760023
0.032439 0.032439 0.032439
0.063926 0.063926 0.063926
0.151660 0.151660 0.151660
0.253735 0.253735 0.253735
0.353865 0.353865 0.353865
0.455312 0.455312 0.455312
0.557374 0.557374 0.557374
0.659767 0.659767 0.659767
0.762355 0.762355 0.762355
0.134978 0.134978 0.134978
0.151660 0.151660 0.151660
0.209347 0.209347 0.209347
0.288880 0.288880 0.288880
0.378669 0.378669 0.378669
0.473912 0.473912 0.473912
0.571970 0.571970 0.571970
0.671617 0.671616 0.671616
0.772229 0.772229 0.772229
0.244669 0.244669 0.244669
0.253735 0.253735 0.253735
0.288880 0.288880 0.288880
0.348228 0.348228 0.348228
0.423824 0.423824 0.423824
0.509152 0.509152 0.509151
0.600254 0.600254 0.600254
0.694894 0.694894 0.694894
0.791796 0.791796 0.791796
0.347762 0.347762 0.347762
0.353865 0.353865 0.353865
0.378669 0.378669 0.378669
0.423824 0.423824 0.423824
0.485803 0.485803 0.485803
0.559908 0.559908 0.559908
0.642260 0.642260 0.642260
0.730160 0.730160 0.730160
0.821838 0.821838 0.821838
0.450827 0.450827 0.450827
0.455312 0.455312 0.455312
0.473912 0.473912 0.473912
0.509152 0.509152 0.509151
0.559908 0.559908 0.559908
0.623379 0.623379 0.623379
0.696526 0.696526 0.696526
0.776784 0.776784 0.776784
0.862187 0.862187 0.862187
0.553893 0.553893 0.553893
0.557374 0.557374 0.557374
0.571970 0.571970 0.571970
0.600254 0.600254 0.600254
0.642260 0.642260 0.642260
0.696526 0.696526 0.696526
0.760955 0.760955 0.760955
0.833436 0.833436 0.833436
0.908279 0.908278 0.908278
0.656958 0.656958 0.656958
0.659767 0.659767 0.659767
0.671617 0.671616 0.671616
0.694894 0.694894 0.694894
0.730160 0.730160 0.730160
0.776784 0.776784 0.776784
0.833436 0.833436 0.833436
0.896795 0.896795 0.896795
0.942935 0.942935 0.942935
0.760024 0.760024 0.760023
0.762355 0.762355 0.762355
0.772229 0.772229 0.772229
0.791796 0.791796 0.791796
0.821838 0.821838 0.821838
0.862187 0.862187 0.862187
0.908279 0.908278 0.908278
0.942935 0.942935 0.942935
0.960157 0.960157 0.960157
0.008324 0.008324 0.008324
0.039918 0.039918 0.039918
0.138825 0.138825 0.138825
0.246726 0.246726 0.246726
0.349129 0.349129 0.349129
0.451828 0.451828 0.451828
0.554669 0.554669 0.554669
0.657584 0.657584 0.657584
0.760543 0.760543 0.760542
0.039918 0.039918 0.039918
0.070008 0.070008 0.070008
0.155162 0.155162 0.155162
0.255695 0.255695 0.255695
0.355204 0.355204 0.355204
0.456301 0.456301 0.456301
0.558144 0.558144 0.558144
0.660390 0.660389 0.660389
0.762872 0.762872 0.762872
0.138825 0.138825 0.138825
0.155162 0.155162 0.155162
0.211887 0.211887 0.211887
0.290575 0.290575 0.290575
0.379905 0.379905 0.379905
0.474854 0.474854 0.474854
0.572715 0.572715 0.572715
0.672225 0.672225 0.672225
0.772738 0.772738 0.772738
0.246726 0.246726 0.246726
0.255695 0.255695 0.255695
0.290575 0.290575 0.290575
0.349593 0.349593 0.349592
0.424903 0.424903 0.424903
0.510013 0.510013 0.510013
0.600955 0.600955 0.600955
0.695476 0.695476 0.695476
0.792288 0.792288 0.792288
0.349129 0.349129 0.349129
0.355204 0.355204 0.355204
0.379905 0.379905 0.379905
0.424903 0.424903 0.424903
0.486717 0.486717 0.486717
0.560674 0.560674 0.560674
0.642904 0.642904 0.642904
0.730707 0.730707 0.730707
0.822307 0.822307 0.822307
0.451828 0.451828 0.451828
0.456301 0.456301 0.456301
0.474854 0.474854 0.474854
0.510013 0.510013 0.510013
0.560674 0.560674 0.560674
0.624048 0.624048 0.624048
0.697107 0.697107 0.697107
0.777288 0.777288 0.777288
0.862625 0.862624 0.862624
0.554669 0.554669 0.554669
0.558144 0.558144 0.558144
0.572715 0.572715 0.572715
0.600955 0.600955 0.600955
0.642904 0.642904 0.642904
0.697107 0.697107 0.697107
0.761473 0.761473 0.761473
0.833897 0.833897 0.833896
0.908605 0.908605 0.908605
0.657584 0.657584 0.657584
0.660390 0.660389 0.660389
0.672225 0.672225 0.672225
0.695476 0.695476 0.695476
0.730707 0.730707 0.730707
0.777288 0.777288 0.777288
0.833897 0.833897 0.833896
0.897164 0.897164 0.897164
0.943087 0.943087 0.943087
0.760543 0.760543 0.760542
0.762872 0.762872 0.762872
0.772738 0.772738 0.772738
0.792288 0.792288 0.792288
0.822307 0.822307 0.822307
0.862625 0.862624 0.862624
0.908605 0.908605 0.908605
0.943087 0.943087 0.943087
0.960211 0.960211 0.960211
0.038265 0.038265 0.038265
0.068683 0.068683 0.068683
0.154391 0.154391 0.154391
0.255262 0.255262 0.255262
0.354907 0.354907 0.354907
0.456081 0.456081 0.456081
0.557973 0.557973 0.557973
0.660251 0.660251 0.660251
0.762758 0.762758 0.762758
0.068683 0.068683 0.068683
0.093316 0.093316 0.093316
0.169413 0.169413 0.169413
0.263898 0.263898 0.263898
0.360867 0.360867 0.360867
0.460503 0.460503 0.460503
0.561423 0.561423 0.561423
0.663043 0.663043 0.663043
0.765079 0.765079 0.765079
0.154391 0.154391 0.154391
0.169413 0.169413 0.169413
0.222350 0.222350 0.222350
0.297699 0.297699 0.297699
0.385139 0.385139 0.385139
0.478857 0.478857 0.478857
0.575891 0.575891 0.575890
0.674819 0.674819 0.674819
0.774908 0.774908 0.774908
0.255262 0.255262 0.255262
0.263898 0.263898 0.263898
0.297699 0.297699 0.297699
0.355362 0.355362 0.355362
0.429484 0.429484 0.429484
0.513681 0.513681 0.513681
0.603944 0.603944 0.603944
0.697960 0.697960 0.697960
0.794390 0.794390 0.794390
0.354907 0.354907 0.354907
0.360867 0.360867 0.360867
0.385139 0.385139 0.385139
0.429484 0.429484 0.429484
0.490601 0.490601 0.490601
0.563935 0.563935 0.563934
0.645649 0.645649 0.645649
0.733039 0.733039 0.733039
0.824310 0.824310 0.824310
0.456081 0.456081 0.456081
0.460503 0.460503 0.460503
0.478857 0.478857 0.478857
0.513681 0.513681 0.513681
0.563935 0.563935 0.563934
0.626899 0.626899 0.626898
0.699584 0.699584 0.699584
0.779442 0.779442 0.779442
0.864491 0.864491 0.864491
0.557973 0.557973 0.557973
0.561423 0.561423 0.561423
0.575891 0.575891 0.575890
0.603944 0.603944 0.603944
0.645649 0.645649 0.645649
0.699584 0.699584 0.699584
0.763685 0.763685 0.763685
0.835863 0.835863 0.835863
0.909988 0.909988 0.909988
0.660251 0.660251 0.660251
0.663043 0.663043 0.663043
0.674819 0.674819 0.674819
0.697960 0.697960 0.697960
0.733039 0.733039 0.733039
0.779442 0.779442 0.779442
0.835863 0.835863 0.835863
0.898728 0.898728 0.898728
0.943727 0.943727 0.943727
0.762758 0.762758 0.762758
0.765079 0.765079 0.765079
0.774908 0.774908 0.774908
0.794390 0.794390 0.794390
0.824310 0.824310 0.824310
0.864491 0.864491 0.864491
0.909988 0.909988 0.909988
0.943727 0.943727 0.943727
0.960441 0.960441 0.960441
0.091742 0.091742 0.091742
0.113063 0.113063 0.113063
0.182348 0.182348 0.182348
0.271661 0.271661 0.271661
0.366312 0.366312 0.366312
0.464573 0.464573 0.464573
0.564611 0.564611 0.564611
0.665628 0.665628 0.665628
0.767231 0.767231 0.767231
0.113063 0.113063 0.113063
0.131898 0.131898 0.131898
0.195277 0.195277 0.195277
0.279730 0.279730 0.279730
0.372056 0.372056 0.372056
0.468896 0.468896 0.468896
0.568010 0.568010 0.568010
0.668391 0.668391 0.668390
0.769535 0.769535 0.769535
0.182348 0.182348 0.182348
0.195277 0.195277 0.195277
0.241783 0.241783 0.241783
0.311596 0.311596 0.311596
0.395515 0.395514 0.395514
0.486863 0.486863 0.486863
0.582272 0.582272 0.582272
0.680049 0.680049 0.680049
0.779292 0.779292 0.779292
0.271661 0.271661 0.271661
0.279730 0.279730 0.279730
0.311596 0.311596 0.311596
0.366750 0.366750 0.366750
0.438608 0.438608 0.438608
0.521030 0.521030 0.521030
0.609959 0.609959 0.609959
0.702971 0.702971 0.702971
0.798636 0.798636 0.798636
0.366312 0.366312 0.366312
0.372056 0.372056 0.372056
0.395515 0.395514 0.395514
0.438608 0.438608 0.438608
0.498375 0.498375 0.498375
0.570485 0.570485 0.570485
0.651180 0.651180 0.651180
0.737746 0.737746 0.737746
0.828359 0.828359 0.828358
0.464573 0.464573 0.464573
0.468896 0.468896 0.468896
0.486863 0.486863 0.486863
0.521030 0.521030 0.521030
0.570485 0.570485 0.570485
0.632638 0.632638 0.632638
0.704580 0.704580 0.704579
0.783793 0.783793 0.783793
0.868252 0.868252 0.868252
0.564611 0.564611 0.564611
0.568010 0.568010 0.568010
0.582272 0.582272 0.582272
0.609959 0.609959 0.609959
0.651180 0.651180 0.651180
0.704580 0.704580 0.704579
0.768152 0.768152 0.768152
0.839840 0.839840 0.839840
0.912720 0.912720 0.912720
0.665628 0.665628 0.665628
0.668391 0.668391 0.668390
0.680049 0.680049 0.680049
0.702971 0.702971 0.702971
0.737746 0.737746 0.737746
0.783793 0.783793 0.783793
0.839840 0.839840 0.839840
0.901837 0.901837 0.901837
0.944980 0.944980 0.944980
0.767231 0.767231 0.767231
0.769535 0.769535 0.769535
0.779292 0.779292 0.779292
0.798636 0.798636 0.798636
0.828359 0.828359 0.828358
0.868252 0.868252 0.868252
0.912720 0.912720 0.912720
0.944980 0.944980 0.944980
0.960892 0.960892 0.960892
0.150263 0.150263 0.150263
0.165622 0.165622 0.165622
0.219547 0.219547 0.219547
0.295768 0.295768 0.295768
0.383714 0.383714 0.383714
0.477765 0.477765 0.477765
0.575023 0.575023 0.575023
0.674110 0.674110 0.674110
0.774314 0.774314 0.774314
0.165622 0.165622 0.165622
0.179767 0.179767 0.179767
0.230066 0.230066 0.230066
0.303110 0.303110 0.303110
0.389153 0.389153 0.389153
0.481944 0.481944 0.481943
0.578346 0.578346 0.578346
0.676828 0.676828 0.676828
0.776591 0.776591 0.776591
0.219547 0.219547 0.219547
0.230066 0.230066 0.230066
0.268990 0.268990 0.268990
0.332428 0.332428 0.332427
0.411453 0.411453 0.411453
0.499335 0.499335 0.499335
0.592296 0.592296 0.592296
0.688305 0.688305 0.688305
0.786235 0.786235 0.786235
0.295768 0.295768 0.295768
0.303110 0.303110 0.303110
0.332428 0.332428 0.332427
0.384129 0.384129 0.384129
0.452733 0.452733 0.452733
0.532519 0.532519 0.532519
0.619421 0.619421 0.619421
0.710888 0.710888 0.710888
0.805364 0.805364 0.805364
0.383714 0.383714 0.383714
0.389153 0.389153 0.389153
0.411453 0.411453 0.411453
0.452733 0.452733 0.452733
0.510500 0.510500 0.510500
0.580765 0.580765 0.580765
0.659899 0.659899 0.659899
0.745192 0.745192 0.745192
0.834778 0.834778 0.834778
0.477765 0.477765 0.477765
0.481944 0.481944 0.481943
0.499335 0.499335 0.499335
0.532519 0.532519 0.532519
0.580765 0.580765 0.580765
0.641679 0.641679 0.641678
0.712474 0.712474 0.712474
0.790685 0.790685 0.790685
0.874171 0.874171 0.874171
0.575023 0.575023 0.575023
0.578346 0.578346 0.578346
0.592296 0.592296 0.592296
0.619421 0.619421 0.619421
0.659899 0.659899 0.659899
0.712474 0.712474 0.712474
0.775224 0.775224 0.775224
0.846146 0.846146 0.846146
0.916876 0.916876 0.916876
0.674110 0.674110 0.674110
0.676828 0.676828 0.676828
0.688305 0.688305 0.688305
0.710888 0.710888 0.710888
0.745192 0.745192 0.745192
0.790685 0.790685 0.790685
0.846146 0.846146 0.846146
0.906605 0.906605 0.906605
0.946859 0.946859 0.946859
0.774314 0.774314 0.774314
0.776591 0.776591 0.776591
0.786235 0.786235 0.786235
0.805364 0.805364 0.805364
0.834778 0.834778 0.834778
0.874171 0.874171 0.874171
0.916876 0.916876 0.916876
0.946859 0.946859 0.946859
0.961570 0.961570 0.961570
0.209575 0.209575 0.209575
0.220707 0.220707 0.220707
0.261464 0.261464 0.261464
0.326562 0.326562 0.326562
0.406921 0.406921 0.406921
0.495768 0.495768 0.495768
0.589419 0.589419 0.589419
0.685930 0.685930 0.685930
0.784235 0.784235 0.784235
0.220707 0.220707 0.220707
0.231156 0.231156 0.231156
0.269878 0.269878 0.269878
0.333124 0.333124 0.333124
0.411993 0.411993 0.411993
0.499761 0.499761 0.499761
0.592641 0.592641 0.592641
0.688589 0.688589 0.688589
0.786475 0.786475 0.786475
0.261464 0.261464 0.261464
0.269878 0.269878 0.269878
0.302927 0.302927 0.302927
0.359625 0.359625 0.359625
0.432887 0.432887 0.432887
0.516415 0.516415 0.516415
0.606178 0.606178 0.606178
0.699820 0.699820 0.699820
0.795964 0.795964 0.795964
0.326562 0.326562 0.326562
0.333124 0.333124 0.333124
0.359625 0.359625 0.359625
0.407307 0.407307 0.407307
0.471916 0.471916 0.471916
0.548327 0.548327 0.548327
0.632556 0.632556 0.632556
0.721945 0.721944 0.721944
0.814799 0.814799 0.814799
0.406921 0.406921 0.406921
0.411993 0.411993 0.411993
0.432887 0.432887 0.432887
0.471916 0.471916 0.471916
0.527133 0.527133 0.527133
0.594987 0.594987 0.594987
0.672039 0.672039 0.672039
0.755608 0.755608 0.755608
0.843789 0.843789 0.843789
0.495768 0.495768 0.495768
0.499761 0.499761 0.499761
0.516415 0.516415 0.516415
0.548327 0.548327 0.548327
0.594987 0.594987 0.594987
0.654250 0.654250 0.654250
0.723499 0.723499 0.723499
0.800345 0.800345 0.800345
0.882356 0.882356 0.882356
0.589419 0.589419 0.589419
0.592641 0.592641 0.592641
0.606178 0.606178 0.606178
0.632556 0.632556 0.632556
0.672039 0.672039 0.672039
0.723499 0.723499 0.723499
0.785130 0.785130 0.785130
0.855000 0.855000 0.855000
0.922334 0.922334 0.922334
0.685930 0.685930 0.685930
0.688589 0.688589 0.688589
0.699820 0.699820 0.699820
0.721945 0.721944 0.721944
0.755608 0.755608 0.755608
0.800345 0.800345 0.800345
0.855000 0.855000 0.855000
0.912938 0.912938 0.912938
0.949282 0.949282 0.949282
0.784235 0.784235 0.784235
0.786475 0.786475 0.786475
0.795964 0.795964 0.795964
0.814799 0.814799 0.814799
0.843789 0.843789 0.843789
0.882356 0.882356 0.882356
0.922334 0.922334 0.922334
0.949282 0.949282 0.949282
0.962451 0.962451 0.962451
0.265940 0.265940 0.265940
0.274200 0.274200 0.274200
0.306721 0.306721 0.306721
0.362735 0.362735 0.362735
0.435379 0.435379 0.435379
0.518423 0.518423 0.518423
0.607821 0.607821 0.607821
0.701189 0.701189 0.701188
0.797124 0.797124 0.797124
0.274200 0.274200 0.274200
0.282187 0.282187 0.282187
0.313768 0.313768 0.313768
0.368546 0.368546 0.368546
0.440057 0.440057 0.440057
0.522202 0.522202 0.522202
0.610921 0.610921 0.610920
0.703774 0.703774 0.703774
0.799317 0.799317 0.799317
0.306721 0.306721 0.306721
0.313768 0.313768 0.313768
0.342032 0.342032 0.342032
0.392254 0.392254 0.392254
0.459415 0.459415 0.459415
0.537999 0.537999 0.537999
0.623960 0.623960 0.623960
0.714700 0.714700 0.714700
0.808612 0.808612 0.808612
0.362735 0.362735 0.362735
0.368546 0.368546 0.368546
0.392254 0.392254 0.392254
0.435735 0.435735 0.435735
0.495922 0.495922 0.495922
0.568414 0.568414 0.568414
0.649429 0.649429 0.649429
0.736255 0.736255 0.736255
0.827075 0.827075 0.827075
0.435379 0.435379 0.435379
0.440057 0.440057 0.440057
0.459415 0.459415 0.459415
0.495922 0.495922 0.495922
0.548195 0.548195 0.548195
0.613179 0.613179 0.613179
0.687692 0.687692 0.687692
0.769120 0.769120 0.769119
0.855527 0.855526 0.855526
0.518423 0.518423 0.518423
0.522202 0.522202 0.522202
0.537999 0.537999 0.537999
0.568414 0.568414 0.568414
0.613179 0.613179 0.613179
0.670434 0.670434 0.670434
0.737771 0.737771 0.737771
0.812905 0.812905 0.812905
0.892686 0.892686 0.892686
0.607821 0.607821 0.607821
0.610921 0.610921 0.610920
0.623960 0.623960 0.623960
0.649429 0.649429 0.649429
0.687692 0.687692 0.687692
0.737771 0.737771 0.737771
0.798000 0.798000 0.798000
0.866478 0.866478 0.866478
0.928782 0.928782 0.928782
0.701189 0.701189 0.701188
0.703774 0.703774 0.703774
0.714700 0.714700 0.714700
0.736255 0.736255 0.736255
0.769120 0.769120 0.769119
0.812905 0.812905 0.812905
0.866478 0.866478 0.866478
0.920514 0.920514 0.920514
0.952097 0.952097 0.952096
0.797124 0.797124 0.797124
0.799317 0.799317 0.799317
0.808612 0.808612 0.808612
0.827075 0.827075 0.827075
0.855527 0.855526 0.855526
0.892686 0.892686 0.892686
0.928782 0.928782 0.928782
0.952097 0.952097 0.952096
0.963484 0.963484 0.963484
0.321013 0.321013 0.321013
0.327705 0.327705 0.327705
0.354681 0.354681 0.354681
0.403056 0.403056 0.403056
0.468370 0.468370 0.468370
0.545388 0.545388 0.545387
0.630104 0.630104 0.630104
0.719875 0.719875 0.719875
0.813029 0.813029 0.813029
0.327705 0.327705 0.327705
0.334241 0.334241 0.334241
0.360646 0.360646 0.360646
0.408187 0.408187 0.408186
0.472651 0.472651 0.472651
0.548937 0.548937 0.548937
0.633066 0.633066 0.633066
0.722375 0.722375 0.722375
0.815167 0.815167 0.815167
0.354681 0.354681 0.354681
0.360646 0.360646 0.360646
0.384934 0.384934 0.384934
0.429304 0.429304 0.429304
0.490449 0.490449 0.490449
0.563806 0.563806 0.563806
0.645541 0.645541 0.645541
0.732947 0.732947 0.732947
0.824231 0.824231 0.824231
0.403056 0.403056 0.403056
0.408187 0.408187 0.408186
0.429304 0.429304 0.429304
0.468695 0.468695 0.468695
0.524328 0.524328 0.524328
0.592579 0.592579 0.592579
0.669977 0.669977 0.669977
0.753836 0.753836 0.753836
0.842253 0.842253 0.842253
0.468370 0.468370 0.468370
0.472651 0.472651 0.472651
0.490449 0.490449 0.490449
0.524328 0.524328 0.524328
0.573431 0.573431 0.573431
0.635225 0.635225 0.635225
0.706835 0.706835 0.706835
0.785761 0.785761 0.785760
0.869947 0.869947 0.869947
0.545388 0.545388 0.545387
0.548937 0.548937 0.548937
0.563806 0.563806 0.563806
0.592579 0.592579 0.592579
0.635225 0.635225 0.635225
0.690190 0.690190 0.690190
0.755306 0.755306 0.755306
0.828419 0.828419 0.828419
0.904650 0.904650 0.904650
0.630104 0.630104 0.630104
0.633066 0.633066 0.633066
0.645541 0.645541 0.645541
0.669977 0.669977 0.669977
0.706835 0.706835 0.706835
0.755306 0.755306 0.755306
0.813883 0.813883 0.813883
0.880418 0.880418 0.880418
0.935753 0.935753 0.935753
0.719875 0.719875 0.719875
0.722375 0.722375 0.722375
0.732947 0.732947 0.732947
0.753836 0.753836 0.753836
0.785761 0.785761 0.785760
0.828419 0.828419 0.828419
0.880418 0.880418 0.880418
0.928801 0.928801 0.928801
0.955101 0.955101 0.955101
0.813029 0.813029 0.813029
0.815167 0.815167 0.815167
0.824231 0.824231 0.824231
0.842253 0.842253 0.842253
0.869947 0.869947 0.869947
0.904650 0.904650 0.904650
0.935753 0.935753 0.935753
0.955101 0.955101 0.955101
0.964604 0.964604 0.964603
0.376086 0.376086 0.376086
0.381656 0.381656 0.381656
0.404452 0.404452 0.404452
0.446513 0.446513 0.446513
0.505147 0.505147 0.505147
0.576218 0.576218 0.576218
0.656036 0.656036 0.656036
0.741890 0.741889 0.741889
0.831928 0.831928 0.831928
0.381656 0.381656 0.381656
0.387129 0.387129 0.387129
0.409561 0.409561 0.409561
0.451050 0.451050 0.451050
0.509050 0.509050 0.509050
0.579532 0.579532 0.579532
0.658850 0.658850 0.658850
0.744295 0.744295 0.744295
0.834004 0.834004 0.834003
0.404452 0.404452 0.404452
0.409561 0.409561 0.409561
0.430598 0.430598 0.430598
0.469857 0.469857 0.469857
0.525340 0.525340 0.525340
0.593447 0.593447 0.593447
0.670720 0.670720 0.670720
0.754474 0.754474 0.754474
0.842806 0.842806 0.842806
0.446513 0.446513 0.446513
0.451050 0.451050 0.451050
0.469857 0.469857 0.469857
0.505444 0.505444 0.505443
0.556618 0.556618 0.556618
0.620508 0.620508 0.620508
0.694036 0.694036 0.694036
0.774620 0.774620 0.774620
0.860309 0.860309 0.860309
0.505147 0.505147 0.505147
0.509050 0.509050 0.509050
0.525340 0.525340 0.525340
0.556618 0.556618 0.556618
0.602480 0.602480 0.602480
0.660902 0.660902 0.660902
0.729355 0.729355 0.729355
0.805491 0.805491 0.805491
0.886643 0.886643 0.886642
0.576218 0.576218 0.576218
0.579532 0.579532 0.579532
0.593447 0.593447 0.593447
0.620508 0.620508 0.620508
0.660902 0.660902 0.660902
0.713384 0.713384 0.713384
0.776040 0.776040 0.776040
0.846875 0.846875 0.846875
0.917342 0.917342 0.917341
0.656036 0.656036 0.656036
0.658850 0.658850 0.658850
0.670720 0.670720 0.670720
0.694036 0.694036 0.694036
0.729355 0.729355 0.729355
0.776040 0.776040 0.776040
0.832757 0.832757 0.832757
0.896249 0.896249 0.896249
0.942710 0.942710 0.942710
0.741890 0.741889 0.741889
0.744295 0.744295 0.744295
0.754474 0.754474 0.754474
0.774620 0.774620 0.774620
0.805491 0.805491 0.805491
0.846875 0.846875 0.846875
0.896249 0.896249 0.896249
0.937150 0.937150 0.937150
0.958088 0.958088 0.958088
0.831928 0.831928 0.831928
0.834004 0.834004 0.834003
0.842806 0.842806 0.842806
0.860309 0.860309 0.860309
0.886643 0.886643 0.886642
0.917342 0.917342 0.917341
0.942710 0.942710 0.942710
0.958088 0.958088 0.958088
0.965738 0.965738 0.965738
