color-grading/luts/02_looks/BNC_L09_Nocturne.cube
TITLE "BNC L09 Nocturne"
# BNC Grade v1.0 - Cool, blue-leaning night grade with deep, protected shadows.
# Input: Rec.709 Gamma 2.4 | Output: Rec.709 Gamma 2.4
LUT_3D_SIZE 33
DOMAIN_MIN 0.0 0.0 0.0
DOMAIN_MAX 1.0 1.0 1.0
0.001297 0.001315 0.001329
0.003966 0.001556 0.001540
0.011690 0.003599 0.003579
0.029026 0.011228 0.012814
0.052785 0.025896 0.033454
0.077106 0.042827 0.059327
0.105565 0.058785 0.081705
0.141022 0.070937 0.093502
0.176694 0.081332 0.102743
0.210734 0.090225 0.110405
0.243692 0.097958 0.116828
0.276627 0.104867 0.122320
0.309518 0.110975 0.126916
0.342344 0.116292 0.130640
0.375085 0.120825 0.133511
0.407724 0.124573 0.135542
0.440242 0.127535 0.136742
0.472623 0.129703 0.137116
0.504849 0.131070 0.136668
0.536905 0.131625 0.135396
0.568776 0.131354 0.133297
0.600447 0.130243 0.130364
0.631903 0.128272 0.126585
0.663132 0.125419 0.121948
0.694119 0.121658 0.116432
0.724853 0.116956 0.110015
0.755320 0.111272 0.102670
0.785020 0.104548 0.094332
0.811595 0.097113 0.085316
0.833208 0.089837 0.076558
0.849464 0.083450 0.068821
0.860985 0.078322 0.062508
0.868743 0.075557 0.058545
0.002064 0.004143 0.002365
0.003942 0.004296 0.002314
0.011644 0.005228 0.003962
0.028974 0.011698 0.012987
0.052747 0.026056 0.033541
0.077083 0.042906 0.059374
0.105557 0.058832 0.081725
0.141020 0.070971 0.093510
0.176694 0.081360 0.102749
0.210734 0.090248 0.110409
0.243692 0.097978 0.116831
0.276628 0.104885 0.122323
0.309519 0.110991 0.126918
0.342345 0.116307 0.130642
0.375086 0.120838 0.133512
0.407725 0.124586 0.135543
0.440243 0.127547 0.136742
0.472623 0.129715 0.137117
0.504849 0.131082 0.136668
0.536906 0.131636 0.135397
0.568776 0.131366 0.133297
0.600447 0.130254 0.130364
0.631904 0.128283 0.126585
0.663132 0.125431 0.121948
0.694120 0.121671 0.116432
0.724853 0.116969 0.110015
0.755321 0.111286 0.102670
0.785020 0.104563 0.094332
0.811595 0.097129 0.085316
0.833209 0.089856 0.076558
0.849464 0.083470 0.068822
0.860986 0.078345 0.062508
0.868744 0.075582 0.058546
0.005971 0.012638 0.008689
0.006092 0.012761 0.008619
0.010580 0.013487 0.009098
0.028140 0.016874 0.015410
0.052168 0.028302 0.034828
0.076737 0.044065 0.060068
0.105442 0.059531 0.082012
0.141002 0.071473 0.093637
0.176692 0.081763 0.102837
0.210740 0.090589 0.110473
0.243701 0.098276 0.116879
0.276638 0.105151 0.122360
0.309530 0.111232 0.126947
0.342356 0.116529 0.130664
0.375098 0.121045 0.133530
0.407737 0.124781 0.135556
0.440254 0.127733 0.136753
0.472634 0.129894 0.137125
0.504860 0.131256 0.136674
0.536916 0.131807 0.135401
0.568786 0.131535 0.133300
0.600456 0.130424 0.130366
0.631912 0.128455 0.126587
0.663141 0.125607 0.121948
0.694128 0.121853 0.116432
0.724861 0.117161 0.110015
0.755328 0.111491 0.102671
0.785027 0.104785 0.094333
0.811601 0.097375 0.085317
0.833215 0.090128 0.076559
0.849470 0.083771 0.068824
0.860991 0.078674 0.062511
0.868748 0.075948 0.058566
0.011300 0.033234 0.028685
0.011311 0.033265 0.028710
0.011465 0.033692 0.029062
0.012769 0.037496 0.032297
0.045543 0.043628 0.046021
0.073247 0.053924 0.066427
0.104410 0.065983 0.084600
0.140811 0.076295 0.094889
0.176669 0.085701 0.103707
0.210791 0.093946 0.111111
0.243790 0.101221 0.117363
0.276746 0.107785 0.122732
0.309647 0.113627 0.127236
0.342476 0.118737 0.130890
0.375218 0.123106 0.133706
0.407855 0.126727 0.135693
0.440369 0.129589 0.136859
0.472745 0.131683 0.137205
0.504967 0.132996 0.136734
0.537018 0.133517 0.135444
0.568883 0.133231 0.133330
0.600549 0.132123 0.130384
0.632000 0.130175 0.126597
0.663224 0.127367 0.121953
0.694206 0.123676 0.116433
0.724935 0.119074 0.110016
0.755398 0.113530 0.102675
0.785093 0.106993 0.094338
0.811665 0.099805 0.085324
0.833276 0.092820 0.076572
0.849530 0.086737 0.068845
0.861050 0.081897 0.062542
0.868792 0.079516 0.058769
0.020791 0.064237 0.061005
0.020794 0.064249 0.061019
0.020847 0.064411 0.061208
0.021353 0.065974 0.063051
0.023440 0.072385 0.071149
0.058314 0.080474 0.083523
0.101499 0.087156 0.092013
0.139932 0.093909 0.099847
0.176536 0.100761 0.107270
0.210995 0.107160 0.113775
0.244162 0.113049 0.119406
0.277206 0.118519 0.124318
0.310150 0.123489 0.128475
0.342997 0.127902 0.131861
0.375741 0.131713 0.134467
0.408371 0.134889 0.136287
0.440872 0.137402 0.137316
0.473232 0.139230 0.137553
0.505434 0.140351 0.136992
0.537466 0.140748 0.135629
0.569311 0.140405 0.133457
0.600956 0.139305 0.130465
0.632387 0.137436 0.126642
0.663591 0.134782 0.121973
0.694553 0.131331 0.116441
0.725263 0.127074 0.110023
0.755707 0.122002 0.102696
0.785388 0.116087 0.094361
0.811947 0.109692 0.085358
0.833548 0.103609 0.076632
0.849794 0.098436 0.068942
0.861309 0.094414 0.062681
0.868988 0.093147 0.059658
0.031640 0.099191 0.089336
0.031642 0.099197 0.089341
0.031672 0.099290 0.089409
0.031970 0.100193 0.090065
0.033376 0.104185 0.092763
0.037621 0.112683 0.096785
0.096875 0.116942 0.103654
0.138183 0.122393 0.107631
0.176175 0.126797 0.113869
0.211324 0.131063 0.119013
0.244900 0.135122 0.123539
0.278166 0.139038 0.127588
0.311227 0.142699 0.131067
0.344127 0.146016 0.133914
0.376887 0.148919 0.136087
0.409507 0.151352 0.137556
0.441986 0.153267 0.138299
0.474312 0.154630 0.138302
0.506476 0.155409 0.137549
0.538466 0.155581 0.136029
0.570268 0.155126 0.133729
0.601868 0.154030 0.130637
0.633255 0.152282 0.126738
0.664414 0.149878 0.122018
0.695334 0.146819 0.116459
0.726001 0.143114 0.110043
0.756404 0.138784 0.102754
0.786053 0.133801 0.094418
0.812584 0.128547 0.085444
0.834162 0.123689 0.076783
0.850390 0.119672 0.069182
0.861892 0.116629 0.063021
0.869431 0.116774 0.061623
0.047791 0.135867 0.113011
0.047794 0.135871 0.113013
0.047838 0.135930 0.113033
0.048281 0.136510 0.113222
0.050436 0.139113 0.113917
0.056323 0.144827 0.114313
0.092049 0.150345 0.116305
0.135581 0.154606 0.123290
0.174560 0.159236 0.122075
0.213048 0.161299 0.123233
0.246971 0.163978 0.127723
0.280102 0.166811 0.131613
0.313120 0.169401 0.134601
0.346021 0.171699 0.136876
0.378779 0.173681 0.138504
0.411384 0.175311 0.139488
0.443830 0.176553 0.139814
0.476110 0.177373 0.139463
0.508218 0.177740 0.138414
0.540144 0.177629 0.136649
0.571878 0.177020 0.134150
0.603408 0.175902 0.130900
0.634723 0.174267 0.126883
0.665811 0.172117 0.122085
0.696659 0.169464 0.116490
0.727256 0.166329 0.110089
0.757592 0.162740 0.102859
0.787189 0.158652 0.094520
0.813673 0.154452 0.085608
0.835212 0.150665 0.077070
0.851411 0.147604 0.069635
0.862677 0.146616 0.065999
0.870202 0.146734 0.064864
0.068368 0.172491 0.134279
0.068372 0.172494 0.134279
0.068417 0.172535 0.134277
0.068867 0.172939 0.134262
0.070975 0.174769 0.134084
0.076103 0.178878 0.132929
0.091179 0.184970 0.129370
0.137758 0.187730 0.136199
0.173364 0.192582 0.136293
0.210848 0.195808 0.132545
0.247658 0.197364 0.132540
0.283619 0.198049 0.132378
0.317142 0.199421 0.135164
0.349798 0.201011 0.137831
0.382240 0.202429 0.139631
0.414585 0.203550 0.140576
0.446825 0.204333 0.140745
0.478936 0.204757 0.140185
0.510897 0.204806 0.138918
0.542690 0.204467 0.136945
0.574299 0.203731 0.134262
0.605710 0.202591 0.130862
0.636910 0.201049 0.126733
0.667885 0.199113 0.121869
0.698625 0.196800 0.116263
0.729115 0.194137 0.109918
0.759356 0.191129 0.102742
0.788874 0.187741 0.094422
0.815286 0.184340 0.085621
0.836765 0.181336 0.077278
0.852742 0.179731 0.071828
0.863800 0.179776 0.070398
0.871335 0.179745 0.069325
0.089308 0.208012 0.152876
0.089310 0.208014 0.152875
0.089349 0.208045 0.152862
0.089726 0.208350 0.152737
0.091461 0.209737 0.152083
0.095472 0.212901 0.150012
0.102168 0.218319 0.143865
0.141829 0.221109 0.147491
0.177822 0.224696 0.150789
0.210743 0.228857 0.144912
0.246913 0.231154 0.139912
0.282805 0.232537 0.140594
0.319232 0.232478 0.136747
0.354023 0.232304 0.135711
0.387093 0.232638 0.136898
0.419360 0.233163 0.138200
0.451311 0.233586 0.138811
0.483105 0.233766 0.138571
0.514772 0.233645 0.137493
0.546303 0.233199 0.135622
0.577679 0.232423 0.132990
0.608881 0.231317 0.129620
0.639889 0.229889 0.125526
0.670686 0.228152 0.120723
0.701258 0.226129 0.115227
0.731591 0.223848 0.109058
0.761707 0.221258 0.101922
0.791108 0.218393 0.093693
0.817416 0.215571 0.085089
0.838616 0.213777 0.078744
0.854187 0.213705 0.077072
0.865264 0.213561 0.075715
0.872810 0.213415 0.074704
0.108718 0.241457 0.168434
0.108720 0.241458 0.168432
0.108751 0.241483 0.168413
0.109048 0.241728 0.168214
0.110398 0.242846 0.167235
0.113444 0.245418 0.164495
0.118326 0.249881 0.157636
0.148729 0.252902 0.157671
0.184003 0.255726 0.161282
0.215245 0.259406 0.159334
0.247650 0.262623 0.149845
0.283516 0.264302 0.144495
0.318785 0.265413 0.145263
0.354623 0.265214 0.140385
0.390006 0.264186 0.135425
0.423779 0.263375 0.133530
0.456289 0.262933 0.133324
0.488108 0.262634 0.133287
0.519571 0.262272 0.132701
0.550821 0.261728 0.131330
0.581903 0.260946 0.129132
0.612822 0.259907 0.126131
0.643567 0.258610 0.122364
0.674121 0.257068 0.117876
0.704467 0.255303 0.112717
0.734607 0.253307 0.106793
0.764559 0.251040 0.099801
0.793804 0.248574 0.091795
0.819633 0.247095 0.086219
0.840291 0.246855 0.084426
0.855893 0.246557 0.082820
0.866990 0.246269 0.081529
0.874550 0.246033 0.080570
0.126937 0.274065 0.181614
0.126939 0.274067 0.181612
0.126962 0.274088 0.181586
0.127188 0.274291 0.181327
0.128207 0.275225 0.180082
0.130469 0.277380 0.176771
0.133995 0.281142 0.169177
0.158404 0.284024 0.167082
0.191818 0.286386 0.170343
0.222105 0.289464 0.170196
0.251862 0.292759 0.163746
0.284856 0.295187 0.151983
0.320299 0.296417 0.146726
0.355062 0.297269 0.147241
0.390163 0.297043 0.142356
0.425486 0.295664 0.134560
0.459734 0.294062 0.128875
0.492642 0.292742 0.125923
0.524563 0.291706 0.124399
0.555873 0.290792 0.123118
0.586807 0.289855 0.121433
0.617485 0.288806 0.119078
0.647954 0.287601 0.115982
0.678228 0.286228 0.112164
0.708312 0.284675 0.107602
0.738232 0.282898 0.102029
0.767953 0.280952 0.095549
0.796178 0.280583 0.094077
0.821531 0.280128 0.092348
0.842239 0.279629 0.090602
0.857877 0.279151 0.089054
0.868999 0.278747 0.087819
0.876570 0.278448 0.086911
0.144224 0.306499 0.192659
0.144225 0.306501 0.192657
0.144242 0.306518 0.192626
0.144408 0.306691 0.192315
0.145155 0.307485 0.190831
0.146790 0.309323 0.186999
0.149270 0.312536 0.178666
0.170485 0.315040 0.175893
0.201422 0.317086 0.178663
0.230459 0.319703 0.179181
0.258700 0.322691 0.175231
0.288767 0.325494 0.165148
0.322080 0.327280 0.151989
0.357036 0.328197 0.146864
0.391347 0.328834 0.146990
0.425748 0.328621 0.142555
0.460659 0.327169 0.133002
0.495043 0.325133 0.123545
0.528286 0.323147 0.116749
0.560422 0.321443 0.112513
0.591733 0.319988 0.109729
0.622479 0.318666 0.107395
0.652835 0.317378 0.104908
0.682487 0.316638 0.104511
0.711844 0.316001 0.104031
0.740983 0.315390 0.103253
0.769943 0.314763 0.102135
0.798271 0.314076 0.100656
0.823705 0.313349 0.098950
0.844472 0.312640 0.097249
0.860145 0.312027 0.095758
0.871270 0.311578 0.094588
0.878836 0.311269 0.093735
0.160563 0.338738 0.201578
0.160564 0.338739 0.201576
0.160576 0.338754 0.201540
0.160694 0.338903 0.201181
0.161224 0.339587 0.199481
0.162365 0.341169 0.195169
0.164041 0.343936 0.186120
0.184330 0.345927 0.184137
0.212599 0.347740 0.186430
0.240076 0.350017 0.187139
0.267060 0.352664 0.184673
0.295169 0.355432 0.177204
0.325682 0.357717 0.164296
0.359058 0.359026 0.150204
0.393515 0.359731 0.145180
0.427398 0.360209 0.144933
0.461178 0.360029 0.141160
0.495522 0.358655 0.130775
0.529746 0.356473 0.118100
0.562596 0.354579 0.110597
0.593657 0.353671 0.111221
0.624232 0.352776 0.111560
0.654402 0.351906 0.111626
0.684227 0.351065 0.111422
0.713763 0.350243 0.110937
0.743057 0.349418 0.110150
0.772152 0.348556 0.109031
0.800594 0.347635 0.107568
0.826117 0.346698 0.105896
0.846932 0.345857 0.104253
0.862609 0.345206 0.102838
0.873733 0.344736 0.101732
0.881299 0.344411 0.100930
0.176007 0.370753 0.208511
0.176008 0.370754 0.208508
0.176016 0.370767 0.208467
0.176097 0.370897 0.208065
0.176456 0.371489 0.206171
0.177215 0.372861 0.201427
0.178275 0.375254 0.191710
0.199305 0.376684 0.191922
0.224987 0.378315 0.193807
0.250749 0.380334 0.194530
0.276458 0.382691 0.192937
0.303110 0.385279 0.187516
0.331451 0.387734 0.176988
0.362305 0.389568 0.161882
0.395561 0.390546 0.147065
0.429534 0.391118 0.142094
0.463002 0.391502 0.141650
0.496241 0.391375 0.138669
0.529970 0.390170 0.128295
0.563409 0.388401 0.116853
0.594768 0.387679 0.117721
0.625621 0.386883 0.118239
0.656037 0.386039 0.118435
0.686081 0.385164 0.118322
0.715809 0.384259 0.117901
0.745272 0.383312 0.117164
0.774512 0.382304 0.116091
0.803081 0.381222 0.114676
0.828677 0.380179 0.113073
0.849515 0.379298 0.111513
0.865206 0.378616 0.110173
0.876339 0.378122 0.109130
0.883908 0.377782 0.108373
0.190653 0.402522 0.213767
0.190653 0.402523 0.213764
0.190658 0.402534 0.213719
0.190710 0.402647 0.213280
0.190939 0.403162 0.211218
0.191406 0.404355 0.206099
0.194269 0.406223 0.197726
0.214854 0.407319 0.199431
0.238171 0.408804 0.200995
0.262203 0.410622 0.201688
0.286596 0.412744 0.200655
0.311984 0.415131 0.196720
0.338688 0.417569 0.188584
0.367331 0.419708 0.175512
0.398362 0.421196 0.158676
0.431384 0.421964 0.143224
0.464900 0.422469 0.138271
0.497968 0.422820 0.137890
0.530743 0.422769 0.135848
0.563900 0.421764 0.126164
0.595895 0.421022 0.123715
0.627010 0.420430 0.124521
0.657675 0.419719 0.124949
0.687947 0.418913 0.125021
0.717880 0.418023 0.124748
0.747526 0.417048 0.124132
0.776928 0.415979 0.123163
0.805609 0.414850 0.121855
0.831273 0.413779 0.120358
0.852158 0.412868 0.118894
0.867879 0.412161 0.117635
0.879032 0.411648 0.116655
0.886608 0.411295 0.115944
0.204629 0.434030 0.217864
0.204629 0.434031 0.217860
0.204632 0.434040 0.217813
0.204662 0.434139 0.217344
0.204792 0.434588 0.215149
0.205043 0.435628 0.209735
0.212271 0.436837 0.205487
0.230507 0.437852 0.206913
0.251736 0.439215 0.208249
0.274115 0.440873 0.208930
0.297198 0.442807 0.208313
0.321401 0.445012 0.205495
0.346776 0.447359 0.199368
0.373671 0.449619 0.188918
0.402553 0.451494 0.173834
0.433625 0.452740 0.155627
0.466380 0.453382 0.139491
0.499523 0.453848 0.134332
0.532282 0.454180 0.134007
0.564716 0.454182 0.132719
0.596945 0.453737 0.129070
0.628289 0.453426 0.130242
0.659189 0.452939 0.130994
0.689691 0.452297 0.131344
0.719841 0.451517 0.131308
0.749688 0.450603 0.130893
0.779257 0.449570 0.130103
0.808074 0.448459 0.128957
0.833842 0.447387 0.127602
0.854801 0.446466 0.126256
0.870571 0.445747 0.125090
0.881756 0.445223 0.124179
0.889340 0.444861 0.123518
0.218086 0.465277 0.221551
0.218086 0.465278 0.221547
0.218087 0.465287 0.221498
0.218102 0.465373 0.221010
0.218161 0.465766 0.218726
0.218256 0.466674 0.213128
0.229521 0.467359 0.213438
0.245857 0.468304 0.214676
0.265285 0.469567 0.215873
0.286150 0.471096 0.216581
0.307982 0.472876 0.216306
0.331077 0.474922 0.214351
0.355323 0.477153 0.209809
0.380855 0.479420 0.201701
0.407999 0.481503 0.189240
0.437086 0.483157 0.172387
0.468150 0.484224 0.152880
0.500648 0.484788 0.135932
0.533459 0.485247 0.130481
0.565856 0.485662 0.131685
0.597797 0.485900 0.133706
0.629315 0.485915 0.135289
0.660424 0.485716 0.136432
0.691161 0.485308 0.137139
0.721564 0.484698 0.137419
0.751645 0.483912 0.137284
0.781422 0.482974 0.136743
0.810417 0.481928 0.135819
0.836324 0.480893 0.134651
0.857383 0.479990 0.133454
0.873223 0.479277 0.132400
0.884451 0.478755 0.131569
0.892045 0.478393 0.130964
0.231160 0.496275 0.225366
0.231160 0.496276 0.225363
0.231160 0.496284 0.225312
0.231163 0.496359 0.224813
0.231172 0.496704 0.222482
0.235293 0.497202 0.220849
0.246000 0.497790 0.221702
0.260807 0.498672 0.222792
0.278708 0.499846 0.223880
0.298224 0.501264 0.224608
0.318894 0.502915 0.224593
0.340947 0.504823 0.223297
0.364180 0.506936 0.219999
0.388581 0.509157 0.213861
0.414319 0.511335 0.204049
0.441669 0.513270 0.189987
0.470917 0.514787 0.172966
0.501857 0.515803 0.154218
0.533970 0.516434 0.138883
0.566309 0.517036 0.135167
0.598284 0.517612 0.137585
0.629961 0.517944 0.139590
0.661319 0.518024 0.141155
0.692341 0.517858 0.142268
0.723020 0.517463 0.142930
0.753363 0.516861 0.143145
0.783379 0.516075 0.142923
0.812586 0.515146 0.142285
0.838665 0.514192 0.141356
0.859851 0.513340 0.140345
0.875778 0.512656 0.139427
0.887059 0.512151 0.138693
0.894664 0.511798 0.138153
0.243949 0.527038 0.229636
0.243949 0.527039 0.229632
0.243948 0.527046 0.229582
0.243944 0.527112 0.229081
0.246294 0.527259 0.229108
0.252049 0.527574 0.229582
0.261717 0.528127 0.230353
0.275248 0.528955 0.231356
0.291822 0.530057 0.232400
0.310264 0.531372 0.233431
0.329996 0.532906 0.233988
0.351177 0.534689 0.233639
0.373554 0.536692 0.231828
0.397013 0.538854 0.227889
0.421593 0.541075 0.221112
0.447462 0.543211 0.210862
0.474844 0.545097 0.196832
0.503906 0.546577 0.179453
0.534586 0.547586 0.160683
0.566412 0.548235 0.145249
0.598556 0.548841 0.140695
0.630421 0.549431 0.143106
0.662008 0.549779 0.145098
0.693283 0.549878 0.146643
0.724228 0.549735 0.147728
0.754834 0.549362 0.148348
0.785105 0.548777 0.148506
0.814547 0.548015 0.148214
0.840821 0.547188 0.147577
0.862155 0.546422 0.146791
0.878187 0.545794 0.146038
0.889527 0.545323 0.145418
0.897146 0.544992 0.144955
0.261665 0.557294 0.240666
0.261669 0.557295 0.240666
0.261720 0.557297 0.240671
0.262220 0.557325 0.240718
0.264499 0.557453 0.240932
0.269681 0.557751 0.241413
0.278448 0.558275 0.242211
0.290835 0.559058 0.243282
0.306171 0.560100 0.244473
0.323276 0.561357 0.245542
0.341753 0.562825 0.246258
0.361782 0.564534 0.246317
0.383109 0.566463 0.245279
0.405566 0.568570 0.242601
0.429105 0.570783 0.237665
0.453801 0.572996 0.229837
0.479821 0.575072 0.218589
0.507356 0.576860 0.203730
0.536507 0.578239 0.185808
0.567147 0.579177 0.166809
0.598835 0.579795 0.151175
0.630839 0.580380 0.145853
0.662583 0.580984 0.148245
0.694056 0.581350 0.150222
0.725228 0.581474 0.151746
0.756078 0.581358 0.152803
0.786598 0.581011 0.153383
0.816281 0.580460 0.153488
0.842765 0.579801 0.153189
0.864261 0.579155 0.152668
0.880410 0.578608 0.152108
0.891812 0.578190 0.151622
0.899447 0.577892 0.151249
0.278483 0.587468 0.252862
0.278486 0.587469 0.252862
0.278532 0.587471 0.252867
0.278987 0.587498 0.252910
0.281057 0.587619 0.253104
0.285780 0.587902 0.253544
0.293818 0.588398 0.254278
0.305268 0.589140 0.255276
0.319579 0.590125 0.256415
0.335695 0.591311 0.257492
0.353262 0.592695 0.258320
0.372444 0.594307 0.258660
0.392974 0.596136 0.258158
0.414656 0.598151 0.256370
0.437387 0.600303 0.252776
0.461164 0.602514 0.246807
0.486083 0.604677 0.237907
0.512305 0.606665 0.225663
0.539987 0.608347 0.210009
0.569187 0.609630 0.191593
0.599759 0.610506 0.172398
0.631292 0.611099 0.156619
0.663134 0.611671 0.150679
0.694737 0.612288 0.152994
0.726080 0.612676 0.154953
0.757134 0.612827 0.156455
0.787878 0.612740 0.157482
0.817791 0.612431 0.158018
0.844482 0.611971 0.158095
0.866146 0.611475 0.157871
0.882419 0.611033 0.157529
0.893882 0.610684 0.157196
0.901537 0.610431 0.156925
0.295647 0.617424 0.264896
0.295650 0.617425 0.264896
0.295692 0.617427 0.264900
0.296107 0.617452 0.264939
0.298001 0.617567 0.265117
0.302334 0.617835 0.265520
0.309739 0.618304 0.266195
0.320355 0.619006 0.267122
0.333724 0.619938 0.268200
0.348899 0.621059 0.269257
0.365561 0.622368 0.270138
0.383878 0.623895 0.270657
0.403593 0.625632 0.270524
0.424496 0.627558 0.269376
0.446452 0.629637 0.266776
0.469403 0.631812 0.262234
0.493381 0.634001 0.255231
0.518490 0.636102 0.245295
0.544878 0.637998 0.232111
0.572668 0.639578 0.215723
0.601885 0.640774 0.196859
0.632368 0.641595 0.177491
0.663733 0.642168 0.161597
0.695399 0.642732 0.155148
0.726849 0.643363 0.157343
0.758051 0.643776 0.159283
0.788977 0.643954 0.160760
0.819091 0.643902 0.161743
0.845976 0.643664 0.162220
0.867802 0.643340 0.162317
0.884196 0.643021 0.162214
0.895720 0.642756 0.162048
0.903394 0.642558 0.161890
0.313214 0.647162 0.276770
0.313217 0.647162 0.276771
0.313255 0.647164 0.276774
0.313636 0.647188 0.276810
0.315372 0.647297 0.276972
0.319352 0.647551 0.277341
0.326183 0.647997 0.277961
0.336028 0.648664 0.278821
0.348509 0.649548 0.279834
0.362775 0.650612 0.280853
0.378549 0.651854 0.281752
0.396000 0.653306 0.282380
0.414889 0.654960 0.282501
0.435008 0.656802 0.281813
0.456202 0.658805 0.279954
0.478378 0.660926 0.276503
0.501516 0.663104 0.271000
0.525668 0.665257 0.262983
0.550941 0.667288 0.252055
0.577464 0.669091 0.237993
0.605332 0.670575 0.220931
0.634538 0.671691 0.201660
0.664916 0.672466 0.182130
0.696106 0.673023 0.166126
0.727588 0.673584 0.159234
0.758880 0.674231 0.161277
0.789935 0.674668 0.163196
0.820209 0.674874 0.164628
0.847260 0.674868 0.165514
0.869233 0.674729 0.165947
0.885739 0.674546 0.166096
0.897317 0.674375 0.166108
0.905011 0.674240 0.166071
0.331028 0.676698 0.288481
0.331030 0.676698 0.288481
0.331066 0.676700 0.288485
0.331415 0.676723 0.288517
0.333011 0.676827 0.288666
0.336677 0.677069 0.289004
0.342988 0.677493 0.289574
0.352128 0.678128 0.290369
0.363782 0.678969 0.291316
0.377187 0.679983 0.292289
0.392102 0.681166 0.293182
0.408703 0.682549 0.293875
0.426770 0.684129 0.294169
0.446105 0.685892 0.293816
0.466544 0.687821 0.292511
0.487972 0.689881 0.289896
0.510335 0.692025 0.285573
0.533639 0.694190 0.279116
0.557946 0.696296 0.270118
0.583361 0.698251 0.258251
0.609993 0.699964 0.243374
0.637911 0.701359 0.225693
0.667086 0.702406 0.206046
0.697346 0.703141 0.186356
0.728359 0.703687 0.170229
0.759656 0.704247 0.162918
0.790787 0.704909 0.164781
0.821173 0.705366 0.166651
0.848353 0.705592 0.167946
0.870448 0.705642 0.168719
0.887051 0.705601 0.169127
0.898676 0.705530 0.169323
0.906387 0.705462 0.169412
0.348940 0.706048 0.300023
0.348943 0.706048 0.300024
0.348975 0.706050 0.300027
0.349297 0.706072 0.300056
0.350770 0.706171 0.300192
0.354155 0.706402 0.300502
0.360001 0.706808 0.301026
0.368499 0.707413 0.301762
0.379392 0.708217 0.302647
0.391991 0.709184 0.303570
0.406088 0.710314 0.304444
0.421866 0.711636 0.305170
0.439127 0.713147 0.305584
0.457686 0.714839 0.305475
0.477379 0.716696 0.304588
0.498080 0.718692 0.302620
0.519709 0.720792 0.299225
0.542238 0.722944 0.294026
0.565691 0.725084 0.286636
0.590139 0.727135 0.276700
0.615676 0.729013 0.263953
0.642395 0.730638 0.248321
0.670340 0.731953 0.230072
0.699467 0.732939 0.210072
0.729603 0.733642 0.190208
0.760439 0.734180 0.173923
0.791552 0.734742 0.166183
0.822004 0.735410 0.167799
0.849272 0.735858 0.169494
0.871459 0.736095 0.170605
0.888139 0.736196 0.171272
0.899802 0.736227 0.171655
0.907526 0.736228 0.171871
0.366811 0.735228 0.311392
0.366813 0.735228 0.311392
0.366844 0.735230 0.311395
0.367142 0.735251 0.311423
0.368504 0.735346 0.311547
0.371641 0.735567 0.311832
0.377070 0.735955 0.312315
0.384991 0.736534 0.312996
0.395188 0.737303 0.313823
0.407040 0.738229 0.314697
0.420367 0.739310 0.315544
0.435359 0.740576 0.316285
0.451841 0.742025 0.316779
0.469641 0.743651 0.316852
0.488602 0.745440 0.316285
0.508593 0.747374 0.314821
0.529518 0.749422 0.312162
0.551325 0.751546 0.307977
0.574007 0.753692 0.301914
0.597599 0.755798 0.293625
0.622173 0.757790 0.282801
0.647816 0.759592 0.269234
0.674602 0.761137 0.252906
0.702556 0.762379 0.234130
0.731621 0.763314 0.213790
0.761628 0.763991 0.193726
0.792292 0.764525 0.177229
0.822704 0.765079 0.169062
0.850025 0.765699 0.170136
0.872274 0.766115 0.171578
0.889008 0.766355 0.172503
0.900697 0.766485 0.173071
0.908431 0.766555 0.173415
0.384418 0.764103 0.322528
0.384420 0.764104 0.322528
0.384448 0.764106 0.322531
0.384725 0.764125 0.322556
0.385991 0.764217 0.322671
0.388909 0.764428 0.322934
0.393969 0.764800 0.323381
0.401373 0.765356 0.324013
0.410941 0.766093 0.324786
0.422109 0.766981 0.325613
0.434723 0.768019 0.326431
0.448977 0.769235 0.327175
0.464718 0.770628 0.327725
0.481789 0.772192 0.327933
0.500042 0.773919 0.327613
0.519345 0.775792 0.326546
0.539595 0.777788 0.324474
0.560723 0.779874 0.321108
0.582698 0.782009 0.316134
0.605526 0.784140 0.309226
0.629253 0.786205 0.300071
0.653946 0.788136 0.288405
