color-grading/luts/02_looks/BNC_L06_Nostalgic.cube
TITLE "BNC L06 Nostalgic"
# BNC Grade v1.0 — Soft vintage look: lifted blacks, warm greens, cyan-leaning shadows and a gentle highlight shoulder.
# Input: Rec.709 Gamma 2.4 | Output: Rec.709 Gamma 2.4
LUT_3D_SIZE 5
DOMAIN_MIN 0.0 0.0 0.0
DOMAIN_MAX 1.0 1.0 1.0
0.029886 0.033920 0.036817
0.234770 0.082839 0.068788
0.468717 0.118783 0.101736
0.696744 0.132244 0.124538
0.874604 0.128518 0.128525
0.154237 0.240421 0.076428
0.246404 0.257206 0.102160
0.484045 0.259765 0.107523
0.706016 0.262841 0.136250
0.881896 0.258584 0.130804
0.335525 0.455436 0.109789
0.381809 0.461017 0.094222
0.504342 0.487289 0.159916
0.732767 0.485082 0.111998
0.907330 0.474919 0.015302
0.514143 0.659722 0.010845
0.542163 0.662130 0.006640
0.630276 0.675882 0.008321
0.759169 0.703877 0.007797
0.923736 0.706119 0.034083
0.669452 0.815930 0.017839
0.688426 0.818159 0.033322
0.754576 0.828060 0.031871
0.851166 0.850116 0.032986
0.945728 0.897655 0.507388
0.041149 0.089626 0.186163
0.234789 0.082076 0.251471
0.469645 0.116262 0.257674
0.697779 0.130925 0.260887
0.875604 0.128304 0.258067
0.067703 0.254823 0.258938
0.251642 0.263840 0.268079
0.482950 0.265027 0.268358
0.707005 0.264835 0.268767
0.883075 0.259987 0.260467
0.299014 0.468901 0.227562
0.369114 0.471351 0.234553
0.508917 0.493693 0.285502
0.738814 0.487822 0.258855
0.912431 0.476968 0.236886
0.483822 0.669336 0.018516
0.520373 0.671341 0.019958
0.629891 0.682166 0.119046
0.764565 0.709255 0.221571
0.935860 0.706796 0.169944
0.651571 0.821664 0.036561
0.672973 0.823609 0.035585
0.746688 0.832154 0.033389
0.852947 0.851712 0.018282
0.948307 0.900889 0.540617
0.057537 0.157887 0.379848
0.232295 0.095441 0.471291
0.467535 0.112736 0.475177
0.696354 0.123427 0.475725
0.875433 0.122220 0.470318
0.064668 0.255521 0.472664
0.246195 0.257421 0.482075
0.480746 0.261543 0.485380
0.706712 0.262343 0.483420
0.883989 0.258998 0.473593
0.185161 0.492013 0.497533
0.297432 0.496405 0.502146
0.524000 0.510156 0.515303
0.741321 0.499883 0.499031
0.913459 0.488667 0.477504
0.415648 0.701209 0.434714
0.471641 0.702088 0.435283
0.627593 0.705928 0.439039
0.779118 0.727576 0.473232
0.952161 0.718591 0.441138
0.594441 0.851081 0.315341
0.626383 0.851851 0.315887
0.732636 0.855479 0.321748
0.867551 0.869802 0.367406
0.957772 0.913126 0.654214
0.066178 0.208844 0.590386
0.230774 0.108696 0.686396
0.464245 0.114125 0.689514
0.691107 0.113694 0.689412
0.872084 0.112895 0.683412
0.064251 0.254455 0.687297
0.243072 0.254321 0.693607
0.474249 0.256867 0.697454
0.700697 0.256521 0.696126
0.879774 0.253971 0.686142
0.187585 0.486958 0.712264
0.294928 0.489598 0.715035
0.510883 0.495865 0.720256
0.737126 0.495503 0.713247
0.912947 0.487881 0.695599
0.319659 0.726189 0.705568
0.387588 0.729410 0.707974
0.574333 0.741557 0.716761
0.803580 0.751876 0.718845
0.962652 0.737426 0.698012
0.468948 0.893323 0.646605
0.517066 0.894687 0.646476
0.673919 0.898432 0.646273
0.875930 0.901753 0.650042
0.972272 0.933819 0.816534
0.070896 0.232023 0.770329
0.233330 0.115698 0.858539
0.462168 0.114837 0.860385
0.690076 0.117149 0.862119
0.874483 0.126840 0.857835
0.078994 0.248789 0.859446
0.242989 0.250585 0.861618
0.468997 0.252598 0.865413
0.694431 0.251893 0.862978
0.876843 0.252851 0.855412
0.184597 0.479210 0.876447
0.289302 0.481162 0.878167
0.500802 0.486179 0.881271
0.727610 0.487778 0.876436
0.906572 0.483015 0.862700
0.324994 0.725739 0.879054
0.390775 0.728459 0.881111
0.572337 0.737856 0.887755
0.794633 0.745443 0.889837
0.961114 0.738535 0.875552
0.436321 0.909862 0.859283
0.483602 0.912336 0.861488
0.634238 0.921876 0.870098
0.845002 0.937996 0.885050
0.982717 0.954480 0.937711
