color-grading/luts/02_looks/BNC_L05_Chrome.cube
TITLE "BNC L05 Chrome"
# BNC Grade v1.0 - Muted, cross-processed 'chrome' look: rotated primaries, reduced saturation and cool highlights.
# Input: Rec.709 Gamma 2.4 | Output: Rec.709 Gamma 2.4
LUT_3D_SIZE 5
DOMAIN_MIN 0.0 0.0 0.0
DOMAIN_MAX 1.0 1.0 1.0
0.001307 0.001311 0.001316
0.182992 0.083513 0.067200
0.429958 0.175833 0.107300
0.665346 0.256253 0.122755
0.815567 0.305778 0.125737
0.117289 0.201679 0.090126
0.204034 0.214695 0.109292
0.450580 0.243660 0.131240
0.678061 0.298665 0.128601
0.825880 0.337937 0.124917
0.293669 0.452525 0.135977
0.332083 0.456233 0.143926
0.484411 0.482454 0.188881
0.726274 0.493326 0.208367
0.875722 0.500990 0.216818
0.450149 0.687299 0.154397
0.472146 0.689418 0.159994
0.583710 0.704180 0.197851
0.745430 0.734768 0.249992
0.900751 0.743031 0.258073
0.547974 0.835425 0.134885
0.564552 0.837079 0.141096
0.656805 0.848209 0.178508
0.797442 0.874081 0.251826
0.909951 0.894904 0.281187
0.000077 0.080107 0.136070
0.193877 0.065641 0.212054
0.444190 0.152549 0.219980
0.667306 0.257170 0.221907
0.816816 0.308096 0.219124
0.058817 0.211133 0.222448
0.209282 0.219321 0.230112
0.444210 0.255279 0.230293
0.674822 0.308459 0.227309
0.823736 0.346609 0.223333
0.288176 0.458836 0.232486
0.331011 0.462117 0.237159
0.488624 0.487338 0.265862
0.729874 0.496184 0.276537
0.873394 0.508407 0.276502
0.448827 0.691889 0.237434
0.471675 0.693944 0.240888
0.586395 0.708253 0.265177
0.748752 0.738631 0.305456
0.904161 0.746315 0.311605
0.547506 0.839374 0.224515
0.564471 0.841004 0.227885
0.658501 0.851940 0.250159
0.800439 0.877516 0.304004
0.912594 0.898175 0.328632
0.000177 0.183102 0.312296
0.162408 0.132605 0.440613
0.449647 0.134437 0.458444
0.695851 0.179671 0.461766
0.851474 0.213454 0.459224
0.000235 0.243051 0.393627
0.165677 0.236730 0.445476
0.459553 0.233099 0.466904
0.703456 0.255522 0.467938
0.856045 0.281821 0.462380
0.192115 0.483863 0.484268
0.265921 0.487727 0.488160
0.510504 0.510497 0.510342
0.723688 0.523244 0.498466
0.864625 0.538590 0.489205
0.411861 0.718111 0.476678
0.444843 0.719833 0.479875
0.595667 0.731563 0.496554
0.768326 0.760383 0.521743
0.922093 0.764579 0.523395
0.533972 0.862587 0.467695
0.554521 0.864115 0.470030
0.664421 0.874153 0.482960
0.818817 0.897317 0.511192
0.927888 0.916791 0.529162
0.000272 0.281681 0.481418
0.000243 0.245995 0.599500
0.441772 0.159639 0.684890
0.688777 0.183714 0.687307
0.845962 0.205091 0.687707
0.035776 0.314737 0.535236
0.029923 0.289529 0.629764
0.446521 0.243863 0.691348
0.695542 0.255763 0.693358
0.852141 0.269297 0.693007
0.104197 0.494122 0.688540
0.203727 0.498779 0.689848
0.467397 0.508504 0.715656
0.734196 0.500963 0.728801
0.888411 0.502345 0.723860
0.301079 0.745180 0.736889
0.346175 0.747883 0.739564
0.543713 0.764843 0.756222
0.801893 0.795677 0.785645
0.931310 0.796376 0.772537
0.397659 0.900746 0.727367
0.432585 0.902523 0.729071
0.609526 0.912683 0.740844
0.844710 0.929018 0.768900
0.951318 0.944442 0.786202
0.051106 0.345675 0.587489
0.051767 0.331138 0.657376
0.414886 0.213549 0.826958
0.682416 0.191093 0.833156
0.843055 0.212722 0.837339
0.060509 0.369977 0.629453
0.060530 0.356447 0.692608
0.416325 0.278965 0.830422
0.688083 0.258562 0.838635
0.844571 0.268983 0.838423
0.062620 0.514229 0.784167
0.077709 0.512252 0.812193
0.431659 0.514862 0.846658
0.721971 0.494089 0.870895
0.878777 0.497103 0.868558
0.301316 0.745297 0.887154
0.345217 0.747988 0.888511
0.531130 0.766500 0.893239
0.772594 0.788801 0.917143
0.935621 0.781331 0.920560
0.369112 0.912183 0.898392
0.403992 0.914222 0.900570
0.574510 0.926660 0.914038
0.817193 0.948116 0.937950
0.965911 0.961432 0.953189
