color-grading/luts/02_looks/BNC_L01_Clean.cube
TITLE "BNC L01 Clean"
# BNC Grade v1.0 - A neutral, true-to-life grade with a light punch -- the default 'just make it look intentional' pass.
# Input: Rec.709 Gamma 2.4 | Output: Rec.709 Gamma 2.4
LUT_3D_SIZE 5
DOMAIN_MIN 0.0 0.0 0.0
DOMAIN_MAX 1.0 1.0 1.0
0.007440 0.007440 0.007440
0.238091 0.000000 0.005256
0.492147 0.016069 0.013127
0.742041 0.018333 0.014772
0.952957 0.019788 0.015841
0.007340 0.237592 0.007329
0.238558 0.238559 0.008688
0.494984 0.236976 0.010794
0.744795 0.234486 0.014229
0.954493 0.232944 0.022763
0.014935 0.490654 0.013884
0.235455 0.491734 0.013752
0.494289 0.494306 0.022934
0.750111 0.493072 0.011063
0.962108 0.489491 0.024215
0.029938 0.738660 0.027472
0.233306 0.739561 0.027168
0.488501 0.743018 0.023867
0.746449 0.746458 0.022675
0.964506 0.746324 0.026789
0.026078 0.953021 0.023925
0.232464 0.953022 0.024034
0.484825 0.953026 0.024549
0.739607 0.955792 0.034733
0.959040 0.959050 0.026933
0.000062 0.052673 0.217632
0.237298 0.005633 0.237302
0.492170 0.015925 0.235676
0.742289 0.023210 0.233783
0.952958 0.019730 0.232122
0.006826 0.239214 0.239214
0.241000 0.241000 0.241000
0.500559 0.233037 0.234099
0.752048 0.223056 0.227191
0.964858 0.207102 0.217671
0.014566 0.492814 0.235959
0.227276 0.495602 0.228492
0.497171 0.496783 0.226016
0.757270 0.491470 0.220202
0.970737 0.483955 0.214331
0.030163 0.740516 0.233532
0.208107 0.743869 0.212625
0.484470 0.746653 0.211662
0.749300 0.748624 0.204892
0.971200 0.746009 0.197611
0.026168 0.953021 0.232379
0.168752 0.956726 0.182530
0.469477 0.956210 0.179112
0.737324 0.959281 0.181465
0.961845 0.961024 0.179935
0.000130 0.113400 0.443896
0.234887 0.010340 0.490691
0.489408 0.014505 0.489399
0.740809 0.003219 0.486937
0.952963 0.019758 0.484708
0.011026 0.236321 0.493535
0.236170 0.234322 0.501186
0.496846 0.230674 0.497190
0.750376 0.222545 0.489946
0.964376 0.206967 0.483303
0.020838 0.496735 0.496730
0.226228 0.499657 0.499831
0.503500 0.503500 0.503500
0.761031 0.493597 0.494023
0.973546 0.485009 0.486425
0.005396 0.747005 0.491011
0.206271 0.750492 0.486881
0.487326 0.753942 0.487890
0.756194 0.755878 0.487316
0.978561 0.751258 0.483412
0.042748 0.954892 0.486052
0.172526 0.959216 0.474062
0.474647 0.961963 0.476276
0.742354 0.966271 0.476479
0.968498 0.967899 0.474606
0.003513 0.171409 0.667327
0.232281 0.014992 0.738207
0.485366 0.018407 0.738329
0.737321 0.017429 0.737313
0.952969 0.020521 0.737341
0.004742 0.232957 0.740722
0.232912 0.225819 0.752143
0.490436 0.224317 0.750672
0.745335 0.215689 0.746025
0.962129 0.201565 0.741541
0.014374 0.492892 0.749800
0.224636 0.493299 0.758856
0.494755 0.493970 0.760751
0.755417 0.489868 0.755690
0.970260 0.483423 0.747448
0.015526 0.751672 0.751670
0.200727 0.755055 0.755367
0.489083 0.759554 0.759700
0.766000 0.766000 0.766000
0.984734 0.755570 0.755759
0.044598 0.963402 0.745555
0.174736 0.967453 0.743686
0.476222 0.971383 0.746026
0.748898 0.977092 0.749175
0.979321 0.979115 0.749653
0.008922 0.222069 0.861907
0.231973 0.017741 0.952891
0.484657 0.018108 0.952909
0.737326 0.019644 0.952937
0.952975 0.022008 0.952964
0.008567 0.232154 0.952896
0.232069 0.213195 0.970036
0.487486 0.211614 0.968192
0.743167 0.205549 0.965365
0.961527 0.194482 0.962575
0.020241 0.487365 0.957956
0.223368 0.485204 0.970165
0.488253 0.485877 0.971766
0.746768 0.483846 0.969409
0.963461 0.478378 0.964021
0.035830 0.748699 0.967480
0.200535 0.750588 0.976548
0.486025 0.753574 0.980943
0.755654 0.755290 0.983949
0.978666 0.750996 0.978844
0.019857 0.967315 0.967312
0.165122 0.971030 0.971425
0.475802 0.975357 0.975639
0.752109 0.982747 0.982843
0.990042 0.990042 0.990041
