color-grading/luts/02_looks/BNC_L04_TealOrange.cube
TITLE "BNC L04 TealOrange"
# BNC Grade v1.0 - Complementary teal shadows against warm orange skin tones -- the modern high-contrast blockbuster look.
# Input: Rec.709 Gamma 2.4 | Output: Rec.709 Gamma 2.4
LUT_3D_SIZE 9
DOMAIN_MIN 0.0 0.0 0.0
DOMAIN_MAX 1.0 1.0 1.0
0.002711 0.002877 0.002908
0.063556 0.043071 0.040479
0.184630 0.094519 0.083824
0.323978 0.115878 0.097194
0.462954 0.114767 0.093355
0.600064 0.074388 0.060462
0.723738 0.012037 0.019023
0.833929 0.032188 0.020004
0.886115 0.048587 0.018470
0.000085 0.084274 0.072276
0.010740 0.096823 0.080738
0.183566 0.123170 0.086101
0.324377 0.137501 0.098637
0.463764 0.135066 0.093275
0.600842 0.104824 0.058751
0.724431 0.081313 0.011524
0.834531 0.083782 0.018505
0.885936 0.090528 0.023437
0.027881 0.216089 0.174849
0.031077 0.219710 0.176685
0.120090 0.244223 0.159590
0.327157 0.242092 0.098174
0.473317 0.233141 0.071341
0.607335 0.220087 0.027241
0.728679 0.212948 0.014029
0.839229 0.209876 0.017904
0.890279 0.210269 0.015635
0.060119 0.345700 0.267525
0.063185 0.347560 0.267118
0.098421 0.362966 0.251081
0.309189 0.369406 0.147700
0.478181 0.360829 0.052046
0.612642 0.352673 0.008392
0.736699 0.345528 0.019749
0.848985 0.340837 0.017078
0.899671 0.339802 0.023902
0.097564 0.473176 0.348827
0.101840 0.474270 0.347788
0.126568 0.483983 0.332396
0.251181 0.498181 0.257901
0.472849 0.488375 0.025422
0.617213 0.483147 0.024157
0.744595 0.479039 0.017291
0.859609 0.473885 0.002838
0.910794 0.471625 0.019561
0.129299 0.598423 0.428928
0.130320 0.599243 0.427691
0.150396 0.605912 0.415397
0.187729 0.620845 0.357942
0.416331 0.623368 0.274931
0.612698 0.610051 0.023525
0.748931 0.607003 0.028066
0.868043 0.604036 0.029598
0.920291 0.601926 0.021554
0.155909 0.721679 0.505553
0.158757 0.722220 0.504570
0.174217 0.727122 0.493757
0.205714 0.738206 0.454817
0.358575 0.747398 0.377218
0.569996 0.744000 0.268117
0.751293 0.728776 0.013593
0.875107 0.727419 0.035189
0.927441 0.726758 0.025372
0.182902 0.837288 0.573655
0.181916 0.837785 0.572357
0.195693 0.841529 0.562562
0.221707 0.850128 0.531173
0.289461 0.861548 0.450445
0.530750 0.862437 0.393435
0.718697 0.855162 0.228494
0.878741 0.840770 0.037087
0.933918 0.848847 0.233466
0.191949 0.890859 0.605175
0.193057 0.891251 0.604153
0.203417 0.894611 0.594607
0.228643 0.902108 0.566237
0.319865 0.911220 0.508785
0.525481 0.914505 0.458529
0.698201 0.912056 0.318578
0.868259 0.898538 0.022911
0.934745 0.909967 0.412834
0.000034 0.034699 0.049195
0.051430 0.040527 0.111113
0.184773 0.092305 0.123677
0.324176 0.115005 0.127403
0.463120 0.114323 0.121605
0.600199 0.074108 0.099077
0.723862 0.012340 0.083263
0.834364 0.019004 0.079895
0.887074 0.015382 0.075104
0.000086 0.086818 0.093012
0.000097 0.097642 0.108628
0.182464 0.123093 0.126269
0.324649 0.136935 0.128295
0.463956 0.134767 0.121535
0.600988 0.104694 0.098251
0.729069 0.019939 0.061046
0.838781 0.004205 0.055673
0.890237 0.026282 0.050469
0.022740 0.217276 0.177859
0.024824 0.220877 0.179987
0.124913 0.243980 0.176579
0.328793 0.242003 0.124135
0.472439 0.234679 0.111727
0.607255 0.220762 0.089071
0.735945 0.199012 0.019813
0.845144 0.195531 0.021634
0.894866 0.195988 0.021434
0.053819 0.346344 0.270456
0.057911 0.348173 0.270294
0.094078 0.363560 0.256815
0.310623 0.369736 0.165076
0.478909 0.361248 0.096011
0.617044 0.349068 0.010897
0.740915 0.340381 0.005046
0.852375 0.335225 0.023478
0.902891 0.333775 0.021586
0.095512 0.473542 0.351570
0.097257 0.474721 0.350444
0.124042 0.484387 0.336043
0.252995 0.498385 0.266362
0.473749 0.488778 0.086612
0.619740 0.482691 0.018775
0.747219 0.477340 0.009870
0.862116 0.471513 0.013229
0.913073 0.469087 0.025834
0.126885 0.598729 0.431064
0.129845 0.599489 0.430027
0.148806 0.606207 0.417991
0.187448 0.621141 0.362128
0.414627 0.623940 0.276500
0.613330 0.610067 0.024114
0.750337 0.606621 0.022801
0.869743 0.603125 0.025759
0.921794 0.600860 0.025331
0.154826 0.721903 0.507357
0.157595 0.722447 0.506384
0.172288 0.727383 0.495654
0.203981 0.738496 0.457219
0.355088 0.747926 0.378251
0.569432 0.744341 0.269166
0.751810 0.728738 0.015970
0.876074 0.727140 0.024424
0.928423 0.726520 0.031112
0.181718 0.837488 0.575158
0.181284 0.837973 0.573933
0.194584 0.841735 0.564185
0.221317 0.850333 0.533203
0.283031 0.862019 0.450839
0.529295 0.862800 0.394128
0.718462 0.855354 0.227922
0.879212 0.840752 0.030932
0.934147 0.849244 0.242840
0.189864 0.891066 0.606472
0.190937 0.891460 0.605453
0.203148 0.894783 0.596198
0.227882 0.902303 0.567994
0.319886 0.911420 0.511166
0.525673 0.914723 0.461314
0.697905 0.912288 0.319897
0.868535 0.898613 0.029539
0.935031 0.910251 0.417202
0.002481 0.089468 0.123608
0.002969 0.096726 0.148538
0.182287 0.076932 0.253966
0.323524 0.106413 0.248685
0.463281 0.108871 0.239075
0.600645 0.069015 0.224175
0.724238 0.018714 0.213185
0.835074 0.022895 0.207352
0.886876 0.028397 0.204578
0.003972 0.112429 0.152734
0.000115 0.118354 0.169322
0.178869 0.113230 0.255102
0.324252 0.130546 0.248989
0.464275 0.130743 0.239082
0.601520 0.101916 0.223989
0.729693 0.012398 0.208426
0.839486 0.018731 0.202500
0.890322 0.022459 0.199423
0.009119 0.222896 0.232170
0.009194 0.226026 0.236512
0.166581 0.240320 0.253575
0.330289 0.243535 0.250153
0.471935 0.237001 0.238328
0.608398 0.221098 0.222066
0.740683 0.191539 0.200455
0.863017 0.141138 0.171616
0.917704 0.098679 0.153032
0.010799 0.351492 0.287801
0.010026 0.353317 0.288690
0.043424 0.368582 0.292935
0.320858 0.372190 0.264814
0.486426 0.362857 0.221562
0.623354 0.349880 0.207402
0.751170 0.335321 0.192197
0.871345 0.314545 0.162312
0.924606 0.302155 0.140978
0.063268 0.477002 0.371246
0.064647 0.478180 0.370851
0.093453 0.487981 0.363590
0.266349 0.500002 0.326853
0.480803 0.492104 0.221123
0.627088 0.485250 0.196275
0.767839 0.466935 0.115332
0.888899 0.450153 0.027500
0.936057 0.445194 0.014800
0.103906 0.601337 0.448292
0.104860 0.602163 0.447433
0.127872 0.608916 0.438534
0.176447 0.623988 0.394331
0.421438 0.626429 0.332054
0.619944 0.613171 0.165778
0.762451 0.606269 0.114803
0.885349 0.595267 0.030021
0.936592 0.592171 0.031377
0.136934 0.724019 0.521781
0.139748 0.724577 0.520938
0.156189 0.729562 0.511767
0.193943 0.740768 0.478495
0.343273 0.751221 0.402240
0.568254 0.747239 0.296969
0.757458 0.729482 0.022726
0.884388 0.725041 0.027573
0.938371 0.726368 0.076605
0.166639 0.839309 0.587530
0.167617 0.839766 0.586548
0.182164 0.843568 0.577716
0.213223 0.852231 0.549690
0.247934 0.865238 0.464387
0.516569 0.865991 0.401677
0.717135 0.857204 0.233583
0.883252 0.840662 0.020846
0.936308 0.852160 0.302236
0.177919 0.892707 0.618248
0.178591 0.893114 0.617269
0.193766 0.896418 0.608955
0.220425 0.903999 0.582903
0.318525 0.913182 0.530874
0.528383 0.916541 0.486079
0.693846 0.914320 0.325504
0.870721 0.899076 0.038571
0.937439 0.912517 0.450390
0.004036 0.142367 0.202428
0.004377 0.145921 0.217274
0.151420 0.068744 0.395889
0.320860 0.085671 0.380413
0.461377 0.091836 0.370003
0.599546 0.040934 0.356223
0.722717 0.024499 0.343130
0.835079 0.018478 0.334235
0.887143 0.016332 0.330562
0.006926 0.155065 0.220036
0.000154 0.158183 0.233125
0.142312 0.111269 0.394857
0.321461 0.115369 0.380466
0.462430 0.118091 0.370083
0.600511 0.089081 0.356251
0.728120 0.022236 0.341874
0.839470 0.016827 0.332457
0.890625 0.010194 0.328402
0.010352 0.234588 0.310664
0.009672 0.236718 0.316616
0.087247 0.246507 0.377006
0.327408 0.235998 0.380788
0.471093 0.232262 0.370597
0.608314 0.218048 0.356398
0.740889 0.190080 0.340020
0.863416 0.141639 0.321911
0.918098 0.101685 0.312341
0.011168 0.357365 0.364110
0.007140 0.358990 0.366169
0.168173 0.367240 0.375438
0.343210 0.373720 0.379355
0.487973 0.367634 0.370499
0.622602 0.354824 0.356224
0.752678 0.337552 0.339552
0.872990 0.316483 0.320952
0.925977 0.304247 0.310691
0.013911 0.484290 0.398508
0.018741 0.485412 0.399003
0.102183 0.494102 0.404298
0.299032 0.501580 0.418410
0.493491 0.498984 0.361640
0.638732 0.489366 0.338975
0.768330 0.476379 0.326875
0.885844 0.462670 0.312821
0.936264 0.453975 0.301999
0.013467 0.607017 0.479294
0.027436 0.607807 0.479219
0.049491 0.614936 0.476800
0.187347 0.628300 0.461527
0.438086 0.630995 0.433142
0.631077 0.620364 0.330070
0.770363 0.613567 0.313494
0.903606 0.593981 0.255791
0.943955 0.595382 0.284301
0.083238 0.728769 0.551520
0.082741 0.729396 0.550903
0.109553 0.734443 0.545397
0.159184 0.746010 0.522680
0.363277 0.755184 0.480229
0.581477 0.753016 0.406557
0.769055 0.736837 0.269537
0.899499 0.730271 0.246172
0.943240 0.733159 0.300983
0.129204 0.843373 0.614834
0.131851 0.843816 0.614168
0.147624 0.847749 0.607291
0.184676 0.856707 0.585057
0.246691 0.869933 0.520069
0.525630 0.871056 0.474282
0.724961 0.863087 0.342859
0.896472 0.845860 0.157170
0.941004 0.858703 0.402059
0.144063 0.896470 0.644200
0.144644 0.896885 0.643406
0.159214 0.900309 0.636438
0.195420 0.907947 0.615369
0.313767 0.917153 0.573995
0.533875 0.920629 0.539265
0.698223 0.919400 0.399282
0.879313 0.904075 0.181659
0.942525 0.917706 0.519555
0.008595 0.194071 0.282325
0.009137 0.195984 0.292889
0.055397 0.088489 0.522990
0.314762 0.035821 0.513502
0.458398 0.046142 0.500258
0.592991 0.008064 0.484959
0.718049 0.024206 0.470010
0.832452 0.009108 0.459315
0.887258 0.019605 0.456230
0.009692 0.202183 0.294413
0.000198 0.203913 0.304529
0.004731 0.141022 0.500773
0.314508 0.091321 0.513715
0.459333 0.092140 0.500310
0.597498 0.049472 0.487250
0.723316 0.006964 0.471050
0.836481 0.027467 0.459301
0.890512 0.011564 0.455482
0.004055 0.261165 0.370023
0.004720 0.262426 0.376554
0.004570 0.259842 0.461123
0.311338 0.228829 0.515427
0.467265 0.222008 0.500860
0.605351 0.209527 0.488353
0.738609 0.183138 0.473982
0.861760 0.135799 0.458537
0.916793 0.096189 0.450855
0.016422 0.361209 0.466478
0.015528 0.362255 0.470022
0.101289 0.370785 0.494171
0.302430 0.375279 0.509007
0.484454 0.361433 0.502900
0.621013 0.351440 0.491436
0.751924 0.335744 0.476703
0.872661 0.316016 0.460916
0.925930 0.304200 0.452483
0.009735 0.489979 0.491679
0.020904 0.490974 0.492828
0.197312 0.495385 0.497143
0.355465 0.500826 0.501596
0.507863 0.508556 0.508184
0.639741 0.497029 0.494883
0.767659 0.483179 0.479422
0.887686 0.466443 0.461307
0.938030 0.457050 0.451529
0.022724 0.615135 0.510383
0.021069 0.615929 0.510651
0.148324 0.621344 0.515937
0.310129 0.627380 0.533289
0.459583 0.636310 0.544041
0.645114 0.631046 0.481773
0.785129 0.620024 0.458686
0.907462 0.604678 0.442809
0.948479 0.601959 0.444992
0.015128 0.735040 0.587453
0.025020 0.735629 0.587492
0.034801 0.740952 0.587093
0.114664 0.753244 0.581569
0.393558 0.760035 0.577086
0.600579 0.761139 0.534798
0.782209 0.748002 0.440675
0.910082 0.740816 0.426959
0.949681 0.742944 0.455014
0.030928 0.849280 0.652947
0.024846 0.849827 0.652584
0.037669 0.854176 0.648854
0.109948 0.863716 0.635756
0.296126 0.874867 0.607733
0.546040 0.877951 0.578483
0.740794 0.872690 0.485186
0.908298 0.857062 0.389125
0.947671 0.868811 0.520517
0.035756 0.902225 0.681653
0.038704 0.902639 0.681187
0.068096 0.906287 0.676840
0.131560 0.914099 0.662935
0.296801 0.923335 0.636186
0.538110 0.926982 0.614577
0.715202 0.927046 0.525430
0.893359 0.913659 0.392932
0.949424 0.925632 0.613801
0.010822 0.244669 0.362980
0.009571 0.245730 0.371240
0.000229 0.236056 0.474313
0.287410 0.017611 0.646756
0.451414 0.007001 0.618839
0.584625 0.020208 0.605982
0.711303 0.018806 0.592234
0.830712 0.020870 0.583651
0.887495 0.025014 0.581443
0.009698 0.250344 0.372025
0.008972 0.251304 0.380046
0.005966 0.242101 0.479715
0.287110 0.073915 0.651548
0.455752 0.011162 0.627133
0.589410 0.016931 0.611020
0.715644 0.025218 0.594866
0.833728 0.029193 0.584360
0.890602 0.012778 0.581859
0.012595 0.294717 0.435183
0.011716 0.295358 0.441651
0.004237 0.290765 0.516754
0.276860 0.226748 0.648892
0.462908 0.206785 0.628699
0.600665 0.195037 0.617561
0.734040 0.168876 0.604611
0.857602 0.119419 0.590605
0.913236 0.072205 0.583779
0.011994 0.379153 0.527969
0.009874 0.379851 0.531783
0.014639 0.382919 0.571336
0.260511 0.372494 0.638337
0.475203 0.351315 0.631923
0.615234 0.342947 0.621557
0.747417 0.329463 0.608921
0.869156 0.311434 0.594857
0.923377 0.300138 0.587193
0.022729 0.488753 0.613584
0.019036 0.489383 0.616170
0.172829 0.494582 0.622876
0.316298 0.505004 0.620028
0.477069 0.503368 0.638999
0.634954 0.491787 0.628476
0.765440 0.480558 0.615549
0.886689 0.465112 0.599100
0.937558 0.456196 0.590255
0.025058 0.621348 0.616478
0.038391 0.622355 0.617494
0.217967 0.624589 0.619337
0.363749 0.629567 0.623433
0.510708 0.637093 0.629572
0.659305 0.643662 0.633716
0.787342 0.629855 0.618048
0.907150 0.613552 0.599315
0.951031 0.606428 0.591103
0.034543 0.744680 0.621734
0.031648 0.745600 0.622139
0.196227 0.748293 0.627317
0.335604 0.753121 0.640860
0.466385 0.761517 0.662533
0.620975 0.770015 0.663024
0.796706 0.762349 0.599508
0.925571 0.749552 0.574566
0.956039 0.753658 0.599940
0.025078 0.856201 0.690359
0.025300 0.856671 0.690438
0.030496 0.860828 0.690928
0.131822 0.871077 0.692132
0.376267 0.878697 0.699669
0.569171 0.885813 0.690358
0.760604 0.884793 0.631771
0.921445 0.871914 0.560272
0.955234 0.881689 0.645704
0.037957 0.908009 0.722482
0.040443 0.908353 0.722391
0.035490 0.912049 0.721698
0.028173 0.920420 0.717208
0.317178 0.929281 0.714698
0.537456 0.934845 0.704398
0.736692 0.935889 0.660536
0.910433 0.925646 0.557664
0.956664 0.935587 0.721399
0.012276 0.294235 0.444077
0.014306 0.294784 0.450743
0.010943 0.290478 0.524666
0.244530 0.014927 0.777153
0.439967 0.008248 0.738083
0.578120 0.007699 0.722143
0.708549 0.023359 0.714429
0.831078 0.026995 0.708408
0.888071 0.021802 0.706423
0.010786 0.298440 0.451178
0.005489 0.298942 0.457867
0.013418 0.294478 0.530466
0.243181 0.076636 0.780196
0.442606 0.022130 0.746105
0.581128 0.011278 0.727057
0.711622 0.010694 0.717569
0.833912 0.023880 0.710186
0.890755 0.019336 0.707739
0.013296 0.332689 0.504364
0.012132 0.332964 0.510275
0.009773 0.328473 0.573531
0.227999 0.227299 0.775075
0.448578 0.191381 0.761616
0.595463 0.172670 0.744622
0.728199 0.144311 0.732698
0.854202 0.092791 0.722202
0.912887 0.029817 0.718154
0.018832 0.403138 0.591114
0.011160 0.403398 0.595473
0.004474 0.402322 0.638981
0.201218 0.370375 0.763586
0.449321 0.345311 0.765528
0.607873 0.330795 0.748337
0.740337 0.319098 0.737475
0.862939 0.302323 0.724710
0.918351 0.291394 0.717569
0.012283 0.500538 0.681657
0.015206 0.501038 0.683997
0.021473 0.504540 0.706123
0.220096 0.509157 0.744008
0.439545 0.498825 0.767079
0.624682 0.480804 0.755197
0.757935 0.472402 0.745039
0.881258 0.459091 0.730783
0.933892 0.450979 0.722835
0.026534 0.618413 0.748650
0.011482 0.619215 0.751075
0.211713 0.621679 0.751711
0.350217 0.628195 0.750481
0.475783 0.640727 0.748185
0.635968 0.636369 0.765713
0.783052 0.625109 0.752182
0.905322 0.611382 0.736206
0.949823 0.605806 0.727903
0.133601 0.750670 0.734944
0.152124 0.750897 0.735126
0.252091 0.752849 0.736696
0.382170 0.757304 0.740286
0.522007 0.764293 0.745932
0.667921 0.773383 0.753269
0.813119 0.776523 0.753159
0.928677 0.761727 0.737553
0.959723 0.761632 0.738263
0.159195 0.866706 0.731708
0.172914 0.866905 0.732165
0.256349 0.868641 0.736252
0.372330 0.872767 0.746627
0.495200 0.879841 0.765620
0.620135 0.890289 0.789344
0.782933 0.897351 0.777940
0.935176 0.888836 0.721756
0.962381 0.896278 0.771854
0.013191 0.917280 0.756284
0.030737 0.917859 0.756657
0.163894 0.920919 0.760729
0.315593 0.924730 0.771825
0.450394 0.930938 0.789302
0.587757 0.938971 0.805280
0.758674 0.944420 0.793586
0.928072 0.938706 0.715652
0.963420 0.946357 0.832068
0.014350 0.340609 0.521476
0.005757 0.340883 0.527325
0.007563 0.337610 0.586068
0.184887 0.077902 0.901182
0.422106 0.020238 0.869363
0.578928 0.021048 0.838763
0.709246 0.026592 0.832416
0.831910 0.014923 0.827474
0.888770 0.025584 0.825370
0.010383 0.343898 0.527338
0.012742 0.344143 0.532986
0.005753 0.340682 0.591301
0.181944 0.110536 0.900163
0.423246 0.017923 0.876344
0.581023 0.027376 0.843558
0.711749 0.014785 0.836149
0.834073 0.031139 0.829673
0.891072 0.026839 0.827292
0.004647 0.371342 0.572862
0.016241 0.371428 0.578005
0.002707 0.367223 0.631763
0.155587 0.231680 0.891578
0.422114 0.181133 0.890219
0.591304 0.142567 0.866832
0.726751 0.115026 0.857832
0.853962 0.048949 0.849841
0.910663 0.022533 0.843738
0.012652 0.430450 0.653289
0.020605 0.430457 0.657379
0.011747 0.427539 0.699708
0.082756 0.368857 0.879815
0.414160 0.341654 0.889962
0.597531 0.317336 0.869599
0.732365 0.305501 0.857720
0.855495 0.289187 0.845683
0.913232 0.280068 0.840310
0.023016 0.517841 0.740367
0.014168 0.518068 0.743207
0.017868 0.518909 0.769242
0.022107 0.508340 0.860384
0.396179 0.495106 0.886520
0.602873 0.472457 0.879444
0.748573 0.461306 0.864585
0.873247 0.449648 0.852089
0.927849 0.442256 0.844939
0.009522 0.622772 0.825487
0.027302 0.623134 0.826911
0.021772 0.626593 0.841558
0.241731 0.635884 0.852513
0.406597 0.642683 0.866193
0.601169 0.629867 0.886780
0.772374 0.613784 0.871748
0.897792 0.603387 0.859318
0.944937 0.600440 0.850720
0.135453 0.748578 0.863934
0.153557 0.748788 0.864112
0.252249 0.750589 0.865639
0.381061 0.754704 0.868855
0.515059 0.762464 0.870021
0.639541 0.776293 0.868138
0.800731 0.769288 0.880553
0.925928 0.758512 0.867372
0.958448 0.762033 0.859336
0.213436 0.872023 0.844763
0.223692 0.872226 0.844936
0.294696 0.873990 0.846434
0.407430 0.878077 0.849924
0.537720 0.884648 0.855595
0.677204 0.893459 0.863355
0.821343 0.903701 0.877291
0.947858 0.903426 0.869713
0.967069 0.908953 0.886178
0.235466 0.924388 0.833332
0.244397 0.924551 0.833517
0.308704 0.925952 0.835183
0.415398 0.929129 0.839499
0.540615 0.934053 0.848307
0.671631 0.940532 0.866008
0.796593 0.948990 0.896543
0.943396 0.950960 0.866618
0.968590 0.956409 0.926100
0.008500 0.362080 0.557799
0.011493 0.362255 0.563107
0.013440 0.359154 0.616684
0.137849 0.130933 0.940855
0.410530 0.025817 0.929794
0.577466 0.013910 0.896680
0.709800 0.024582 0.887687
0.832263 0.017622 0.883221
0.889165 0.029364 0.880974
0.014049 0.365044 0.563034
0.013899 0.365191 0.568339
0.015734 0.361939 0.621520
0.133922 0.148180 0.940624
0.411347 0.016728 0.935370
0.579238 0.019011 0.901530
0.712034 0.012793 0.891506
0.834383 0.023324 0.885781
0.891428 0.021191 0.883251
0.007862 0.389995 0.605465
0.015111 0.389968 0.610303
0.007756 0.385921 0.660152
0.090515 0.241331 0.939113
0.406953 0.199628 0.936773
0.588455 0.132341 0.926506
0.727050 0.096927 0.916127
0.853198 0.009245 0.907965
0.909675 0.014697 0.901532
0.021523 0.444556 0.682463
0.021195 0.444490 0.686624
0.019436 0.441152 0.727319
0.007731 0.384940 0.891782
0.395229 0.343540 0.937471
0.588256 0.311987 0.926051
0.728505 0.297621 0.912518
0.854283 0.284333 0.903744
0.913275 0.276760 0.899738
0.023576 0.527211 0.768425
0.012471 0.527326 0.771398
0.008301 0.527179 0.798399
0.021349 0.512577 0.886902
0.372771 0.493462 0.936617
0.588480 0.469597 0.933746
0.743948 0.455235 0.918279
0.868965 0.444166 0.907325
0.924376 0.437050 0.900774
0.024360 0.628685 0.852545
0.029688 0.629032 0.854122
0.000617 0.631702 0.869301
0.148391 0.637936 0.904279
0.375480 0.641321 0.920690
0.583419 0.626966 0.937406
0.766233 0.607817 0.924612
0.893072 0.598320 0.914257
0.941623 0.596884 0.905703
0.113279 0.746456 0.917851
0.134395 0.746711 0.917871
0.237825 0.748982 0.917899
0.362526 0.754738 0.917053
0.486344 0.765401 0.914501
0.609227 0.777549 0.920571
0.785989 0.764834 0.933832
0.921608 0.753619 0.922294
0.956261 0.760018 0.911519
0.215318 0.872316 0.906209
0.225460 0.872518 0.906378
0.295919 0.874277 0.907843
0.408220 0.878351 0.911223
0.538243 0.884907 0.916607
0.677535 0.893704 0.923726
0.822764 0.904025 0.931681
0.946936 0.904949 0.932135
0.967283 0.911967 0.930121
0.239233 0.926033 0.896712
0.248015 0.926200 0.896882
0.311588 0.927639 0.898357
0.417889 0.930926 0.901791
0.543981 0.936069 0.907353
0.680402 0.942691 0.914891
0.823477 0.950095 0.924515
0.949623 0.956368 0.934677
0.970194 0.960742 0.953568
