color-grading/luts/02_looks/BNC_L13_Airy.cube
TITLE "BNC L13 Airy"
# BNC Grade v1.0 — Bright, airy, lifted-shadow look with a soft top end and gentle overall desaturation.
# Input: Rec.709 Gamma 2.4 | Output: Rec.709 Gamma 2.4
LUT_3D_SIZE 33
DOMAIN_MIN 0.0 0.0 0.0
DOMAIN_MAX 1.0 1.0 1.0
0.059876 0.069349 0.074186
0.088133 0.071140 0.075815
0.116067 0.073550 0.077565
0.143878 0.076534 0.079607
0.171651 0.080022 0.081967
0.199436 0.083926 0.084602
0.227250 0.088167 0.087469
0.255096 0.092679 0.090529
0.282974 0.097406 0.093747
0.310883 0.102306 0.097093
0.338818 0.107342 0.100541
0.366778 0.112487 0.104071
0.394760 0.117721 0.107664
0.422761 0.123025 0.111309
0.450778 0.128387 0.114996
0.478809 0.133799 0.118718
0.506851 0.139253 0.122471
0.534901 0.144744 0.126252
0.562957 0.150271 0.130061
0.591017 0.155832 0.133900
0.619078 0.161427 0.137770
0.647137 0.167057 0.141676
0.675192 0.172724 0.145622
0.703215 0.178425 0.149611
0.731102 0.184143 0.153633
0.758736 0.189856 0.157679
0.786008 0.195546 0.161738
0.812814 0.201193 0.165798
0.839084 0.206719 0.169808
0.864773 0.212014 0.173690
0.889800 0.217075 0.177441
0.911943 0.221479 0.180742
0.911943 0.221479 0.180742
0.060179 0.097078 0.078433
0.088308 0.098209 0.080215
0.116168 0.099964 0.080295
0.144173 0.101835 0.082096
0.172035 0.104122 0.084233
0.199855 0.106790 0.086663
0.227675 0.109800 0.089344
0.255514 0.113113 0.092236
0.283377 0.116693 0.095303
0.311268 0.120506 0.098513
0.339184 0.124523 0.101840
0.367125 0.128718 0.105262
0.395089 0.133067 0.108760
0.423072 0.137551 0.112320
0.451072 0.142154 0.115931
0.479087 0.146862 0.119587
0.507113 0.151665 0.123280
0.535149 0.156554 0.127009
0.563192 0.161521 0.130772
0.591239 0.166562 0.134570
0.619288 0.171674 0.138404
0.647335 0.176854 0.142279
0.675379 0.182100 0.146197
0.703392 0.187409 0.150162
0.731269 0.192760 0.154163
0.758894 0.198133 0.158191
0.786157 0.203507 0.162234
0.812955 0.208859 0.166281
0.839225 0.214098 0.170266
0.864913 0.219132 0.174125
0.889941 0.223958 0.177857
0.912083 0.228168 0.181143
0.912083 0.228168 0.181143
0.064113 0.124720 0.084456
0.090880 0.125471 0.086252
0.116669 0.127243 0.085724
0.144640 0.128720 0.085450
0.172589 0.130301 0.087346
0.200450 0.132191 0.089540
0.228282 0.134376 0.091994
0.256114 0.136835 0.094674
0.283961 0.139548 0.097543
0.311830 0.142496 0.100573
0.339722 0.145659 0.103736
0.367637 0.149019 0.107010
0.395575 0.152558 0.110374
0.423533 0.156261 0.113815
0.451510 0.160114 0.117320
0.479501 0.164106 0.120880
0.507506 0.168225 0.124489
0.535522 0.172462 0.128143
0.563545 0.176810 0.131839
0.591573 0.181263 0.135578
0.619603 0.185816 0.139360
0.647634 0.190466 0.143188
0.675662 0.195209 0.147066
0.703659 0.200040 0.150995
0.731521 0.204940 0.154965
0.759132 0.209886 0.158966
0.786382 0.214859 0.162986
0.813168 0.219833 0.167012
0.839439 0.224696 0.170958
0.865128 0.229389 0.174783
0.890154 0.233905 0.178486
0.912295 0.237858 0.181750
0.912295 0.237858 0.181750
0.069810 0.152586 0.091432
0.094618 0.153147 0.092936
0.119550 0.154360 0.093791
0.145474 0.156107 0.091680
0.173378 0.157426 0.091160
0.201253 0.158820 0.093113
0.229084 0.160456 0.095328
0.256904 0.162327 0.097774
0.284730 0.164422 0.100422
0.312572 0.166730 0.103243
0.340434 0.169240 0.106212
0.368319 0.171940 0.109307
0.396225 0.174819 0.112509
0.424152 0.177866 0.115803
0.452098 0.181071 0.119174
0.480061 0.184425 0.122614
0.508037 0.187921 0.126116
0.536025 0.191550 0.129673
0.564022 0.195308 0.133283
0.592025 0.199187 0.136945
0.620032 0.203185 0.140659
0.648040 0.207297 0.144427
0.676046 0.211521 0.148252
0.704023 0.215851 0.152134
0.731865 0.220269 0.156064
0.759457 0.224756 0.160029
0.786688 0.229289 0.164019
0.813464 0.233835 0.168008
0.839736 0.238277 0.171903
0.865424 0.242583 0.175684
0.890449 0.246744 0.179348
0.912588 0.250399 0.182581
0.912588 0.250399 0.182581
0.077280 0.180529 0.099060
0.099761 0.180970 0.100311
0.123691 0.181834 0.101462
0.148296 0.183257 0.101047
0.174501 0.184878 0.098029
0.202319 0.186090 0.097245
0.230115 0.187353 0.099227
0.257901 0.188812 0.101439
0.285693 0.190465 0.103857
0.313499 0.192304 0.106458
0.341325 0.194325 0.109219
0.369172 0.196520 0.112118
0.397040 0.198882 0.115139
0.424930 0.201404 0.118265
0.452839 0.204080 0.121484
0.480766 0.206904 0.124786
0.508708 0.209871 0.128161
0.536663 0.212974 0.131605
0.564628 0.216210 0.135113
0.592601 0.219575 0.138683
0.620578 0.223065 0.142316
0.648557 0.226678 0.146011
0.676536 0.230413 0.149771
0.704486 0.234264 0.153596
0.732303 0.238216 0.157476
0.759871 0.242249 0.161399
0.787080 0.246346 0.165351
0.813849 0.250445 0.169282
0.840122 0.254456 0.173113
0.865809 0.258362 0.176839
0.890833 0.262152 0.180456
0.912969 0.265494 0.183651
0.912969 0.265494 0.183651
0.086229 0.208498 0.107155
0.106296 0.208857 0.108202
0.128865 0.209515 0.109345
0.152561 0.210598 0.109775
0.177265 0.212088 0.108217
0.203680 0.213585 0.104622
0.231416 0.214718 0.103571
0.259133 0.215884 0.105563
0.286867 0.217214 0.107760
0.314621 0.218707 0.110143
0.342398 0.220359 0.112692
0.370198 0.222168 0.115391
0.398021 0.224128 0.118222
0.425867 0.226237 0.121172
0.453733 0.228491 0.124226
0.481618 0.230884 0.127377
0.509520 0.233414 0.130614
0.537435 0.236078 0.133931
0.565363 0.238872 0.137326
0.593299 0.241794 0.140793
0.621241 0.244843 0.144333
0.649186 0.248016 0.147946
0.677132 0.251313 0.151632
0.705051 0.254730 0.155392
0.732837 0.258254 0.159215
0.760376 0.261868 0.163088
0.787560 0.265549 0.166992
0.814331 0.269209 0.170839
0.840604 0.272805 0.174596
0.866290 0.276322 0.178256
0.891311 0.279749 0.181817
0.913443 0.282782 0.184969
0.913443 0.282782 0.184969
0.096317 0.236474 0.115582
0.114089 0.236775 0.116468
0.135086 0.237301 0.117522
0.157770 0.238146 0.118272
0.181497 0.239368 0.117853
0.206414 0.240855 0.115348
0.232972 0.242247 0.111360
0.260634 0.243319 0.110050
0.288275 0.244410 0.112042
0.315953 0.245641 0.114219
0.343663 0.247013 0.116566
0.371403 0.248524 0.119068
0.399170 0.250172 0.121710
0.426962 0.251954 0.124481
0.454778 0.253870 0.127368
0.482614 0.255916 0.130362
0.510469 0.258090 0.133455
0.538340 0.260391 0.136640
0.566224 0.262817 0.139913
0.594118 0.265367 0.143270
0.622019 0.268040 0.146710
0.649925 0.270834 0.150233
0.677834 0.273751 0.153840
0.705715 0.276788 0.157529
0.733466 0.279932 0.161288
0.760971 0.283170 0.165106
0.788144 0.286452 0.168928
0.814916 0.289707 0.172679
0.841189 0.292920 0.176352
0.866872 0.296074 0.179940
0.891888 0.299161 0.183438
0.914015 0.301901 0.186541
0.914015 0.301901 0.186541
0.107246 0.264451 0.124247
0.122951 0.264708 0.125004
0.142310 0.265144 0.125954
0.163840 0.265826 0.126801
0.186675 0.266818 0.126985
0.210552 0.268119 0.125717
0.235693 0.269572 0.122450
0.262347 0.270876 0.118184
0.289941 0.271898 0.116646
0.317511 0.272930 0.118618
0.345131 0.274086 0.120777
0.372792 0.275364 0.123093
0.400489 0.276765 0.125555
0.428217 0.278289 0.128153
0.455973 0.279933 0.130875
0.483753 0.281698 0.133714
0.511554 0.283583 0.136661
0.539374 0.285586 0.139712
0.567208 0.287707 0.142861
0.595054 0.289945 0.146105
0.622910 0.292301 0.149442
0.650772 0.294775 0.152871
0.678637 0.297366 0.156394
0.706476 0.300074 0.160008
0.734187 0.302888 0.163701
0.761664 0.305784 0.167444
0.788839 0.308690 0.171150
0.815611 0.311585 0.174798
0.841881 0.314451 0.178380
0.867560 0.317278 0.181889
0.892570 0.320052 0.185320
0.914690 0.322524 0.188371
0.914690 0.322524 0.188371
0.118787 0.292425 0.133086
0.132689 0.292648 0.133739
0.150440 0.293018 0.134588
0.170728 0.293586 0.135440
0.192624 0.294404 0.135923
0.215642 0.295504 0.135463
0.239716 0.296843 0.133408
0.265061 0.298250 0.129534
0.291779 0.299481 0.125069
0.319307 0.300464 0.123350
0.346813 0.301450 0.125273
0.374374 0.302545 0.127419
0.401984 0.303750 0.129714
0.429634 0.305065 0.132148
0.457319 0.306492 0.134714
0.485033 0.308028 0.137403
0.512772 0.309675 0.140210
0.540533 0.311433 0.143129
0.568311 0.313301 0.146156
0.596104 0.315279 0.149287
0.623908 0.317369 0.152520
0.651720 0.319571 0.155856
0.679537 0.321885 0.159293
0.707330 0.324311 0.162831
0.735001 0.326836 0.166448
0.762476 0.329400 0.170064
0.789652 0.331977 0.173648
0.816422 0.334553 0.177188
0.842687 0.337114 0.180676
0.868359 0.339647 0.184103
0.893360 0.342142 0.187464
0.915470 0.344372 0.190459
0.915470 0.344372 0.190459
0.130767 0.320397 0.142059
0.143119 0.320594 0.142628
0.159357 0.320914 0.143388
0.178376 0.321397 0.144206
0.199273 0.322086 0.144827
0.221462 0.323017 0.144846
0.244682 0.324193 0.143724
0.268964 0.325542 0.140969
0.294484 0.326900 0.136619
0.321243 0.328072 0.132016
0.348709 0.329023 0.130149
0.376156 0.329972 0.132009
0.403657 0.331020 0.134151
0.431213 0.332167 0.136436
0.458813 0.333416 0.138857
0.486451 0.334765 0.141407
0.514119 0.336217 0.144081
0.541813 0.337771 0.146874
0.569528 0.339429 0.149783
0.597261 0.341190 0.152805
0.625007 0.343056 0.155938
0.652764 0.345028 0.159182
0.680528 0.347107 0.162536
0.708274 0.349288 0.165991
0.735939 0.351526 0.169472
0.763414 0.353798 0.172950
0.790588 0.356089 0.176410
0.817353 0.358386 0.179842
0.843611 0.360678 0.183234
0.869273 0.362952 0.186578
0.894262 0.365199 0.189868
0.916359 0.367213 0.192808
0.916359 0.367213 0.192808
0.143053 0.348369 0.151144
0.154085 0.348544 0.151644
0.168934 0.348826 0.152326
0.186705 0.349244 0.153096
0.206568 0.349835 0.153774
0.227907 0.350631 0.154070
0.250353 0.351653 0.153573
0.273783 0.352879 0.151812
0.298267 0.354223 0.148454
0.323933 0.355532 0.143734
0.350715 0.356656 0.139040
0.378123 0.357582 0.137056
0.405512 0.358503 0.138844
0.432956 0.359514 0.140994
0.460456 0.360616 0.143283
0.488004 0.361812 0.145705
0.515590 0.363102 0.148257
0.543209 0.364487 0.150934
0.570853 0.365969 0.153733
0.598519 0.367547 0.156653
0.626202 0.369225 0.159691
0.653898 0.371002 0.162847
0.681612 0.372874 0.166107
0.709351 0.374808 0.169413
0.737015 0.376791 0.172745
0.764487 0.378810 0.176087
0.791654 0.380853 0.179426
0.818409 0.382908 0.182750
0.844655 0.384964 0.186049
0.870303 0.387010 0.189312
0.895276 0.389039 0.192532
0.917369 0.390852 0.195385
0.917369 0.390852 0.195385
0.155542 0.376342 0.160329
0.165451 0.376499 0.160774
0.179046 0.376750 0.161388
0.195623 0.377119 0.162107
0.214447 0.377633 0.162801
0.234913 0.378324 0.163255
0.256602 0.379213 0.163163
0.279287 0.380305 0.162137
0.302923 0.381561 0.159785
0.327593 0.382891 0.155919
0.353378 0.384157 0.150919
0.380172 0.385242 0.146173
0.407523 0.386149 0.144096
0.434859 0.387049 0.145809
0.462244 0.388031 0.147980
0.489688 0.389100 0.150288
0.517181 0.390255 0.152729
0.544714 0.391499 0.155300
0.572279 0.392833 0.157999
0.599871 0.394258 0.160824
0.627483 0.395776 0.163775
0.655136 0.397371 0.166814
0.682845 0.399028 0.169912
0.710580 0.400744 0.173062
0.738237 0.402508 0.176251
0.765699 0.404309 0.179463
0.792853 0.406137 0.182686
0.819594 0.407981 0.185908
0.845823 0.409831 0.189116
0.871453 0.411679 0.192302
0.896418 0.413504 0.195413
0.918511 0.415131 0.198149
0.918511 0.415131 0.198149
0.168150 0.404319 0.169615
0.177103 0.404461 0.170014
0.189579 0.404687 0.170572
0.205034 0.405016 0.171242
0.222838 0.405471 0.171928
0.242423 0.406077 0.172472
0.263350 0.406857 0.172642
0.285335 0.407825 0.172131
0.308244 0.408969 0.170588
0.332077 0.410243 0.167708
0.356913 0.411554 0.163424
0.382795 0.412782 0.158222
0.409589 0.413837 0.153457
0.436886 0.414732 0.151308
0.464171 0.415616 0.152944
0.491498 0.416579 0.155150
0.518885 0.417622 0.157493
0.546322 0.418747 0.159970
0.573799 0.419957 0.162580
0.601321 0.421244 0.165302
0.628906 0.422596 0.168102
0.656549 0.424009 0.170975
0.684246 0.425481 0.173917
0.711967 0.427009 0.176922
0.739609 0.428584 0.179977
0.767054 0.430197 0.183068
0.794190 0.431839 0.186183
0.820910 0.433500 0.189309
0.847117 0.435172 0.192432
0.872739 0.436832 0.195493
0.897704 0.438469 0.198463
0.919795 0.439931 0.201080
0.919795 0.439931 0.201080
0.180810 0.432303 0.179009
0.188946 0.432433 0.179369
0.200427 0.432638 0.179879
0.214844 0.432934 0.180504
0.231666 0.433340 0.181173
0.250374 0.433879 0.181765
0.270535 0.434570 0.182105
0.291834 0.435430 0.181954
0.314080 0.436463 0.181017
0.337199 0.437647 0.178991
0.361217 0.438929 0.175650
0.386197 0.440220 0.171033
0.412156 0.441418 0.165695
0.438943 0.442450 0.160941
0.466188 0.443338 0.158740
0.493423 0.444213 0.160295
0.520693 0.445162 0.162553
0.548040 0.446179 0.164925
0.575467 0.447259 0.167392
0.602964 0.448400 0.169948
0.630526 0.449600 0.172589
0.658147 0.450857 0.175311
0.685822 0.452171 0.178110
0.713520 0.453537 0.180983
0.741138 0.454950 0.183917
0.768557 0.456401 0.186898
0.795666 0.457882 0.189916
0.822361 0.459382 0.192943
0.848561 0.460881 0.195921
0.874180 0.462371 0.198830
0.899140 0.463841 0.201660
0.921226 0.465156 0.204159
0.921226 0.465156 0.204159
0.193461 0.460297 0.188522
0.200895 0.460416 0.188850
0.211496 0.460604 0.189320
0.224962 0.460873 0.189905
0.240851 0.461240 0.190552
0.258701 0.461723 0.191169
0.278099 0.462341 0.191621
0.298718 0.463111 0.191719
0.320330 0.464041 0.191229
0.342811 0.465127 0.189880
0.366127 0.466341 0.187414
0.390312 0.467626 0.183685
0.415419 0.468899 0.178814
0.441436 0.470071 0.173398
0.468223 0.471084 0.168663
0.495452 0.471956 0.166383
0.522699 0.472803 0.167788
0.549994 0.473705 0.170003
0.577375 0.474664 0.172318
0.604831 0.475680 0.174727
0.632354 0.476750 0.177226
0.659939 0.477875 0.179814
0.687578 0.479052 0.182487
0.715241 0.480279 0.185242
0.742824 0.481552 0.188069
0.770208 0.482863 0.190954
0.797293 0.484197 0.193846
0.823981 0.485540 0.196710
0.850173 0.486885 0.199529
0.875783 0.488223 0.202291
0.900734 0.489546 0.204983
0.922810 0.490733 0.207366
0.922810 0.490733 0.207366
0.206048 0.488304 0.198169
0.212878 0.488414 0.198472
0.222701 0.488587 0.198907
0.235300 0.488834 0.199458
0.250314 0.489168 0.200083
0.267336 0.489606 0.200711
0.285981 0.490163 0.201236
0.305925 0.490856 0.201512
0.326921 0.491697 0.201349
0.348810 0.492688 0.200517
0.371520 0.493815 0.198767
0.395043 0.495045 0.195887
0.419420 0.496318 0.191787
0.444690 0.497557 0.186648
0.470829 0.498683 0.181091
0.497683 0.499652 0.176301
0.524942 0.500488 0.173923
0.552219 0.501295 0.175175
0.579532 0.502152 0.177357
0.606927 0.503060 0.179638
0.634395 0.504019 0.182015
0.661927 0.505029 0.184486
0.689517 0.506090 0.187051
0.717132 0.507198 0.189705
0.744675 0.508346 0.192418
0.772038 0.509522 0.195145
0.799109 0.510716 0.197867
0.825783 0.511921 0.200569
0.851961 0.513130 0.203236
0.877556 0.514335 0.205855
0.902491 0.515528 0.208415
0.924552 0.516600 0.210685
0.924552 0.516600 0.210685
0.218576 0.516322 0.207954
0.224888 0.516424 0.208232
0.234028 0.516583 0.208635
0.245851 0.516809 0.209151
0.260064 0.517113 0.209745
0.276314 0.517509 0.210363
0.294249 0.518011 0.210920
0.313555 0.518633 0.211296
0.333979 0.519388 0.211338
0.355339 0.520281 0.210854
0.377523 0.521310 0.209627
0.400484 0.522457 0.207438
0.424234 0.523683 0.204121
0.448811 0.524930 0.199647
0.474241 0.526127 0.194254
0.500484 0.527205 0.188586
0.527385 0.528132 0.183785
0.554656 0.528933 0.181370
0.581942 0.529705 0.182519
0.609256 0.530522 0.184692
0.636650 0.531387 0.186966
0.664113 0.532299 0.189339
0.691645 0.533255 0.191790
0.719222 0.534250 0.194293
0.746739 0.535277 0.196832
0.774078 0.536330 0.199389
0.801125 0.537402 0.201950
0.827776 0.538485 0.204499
0.853931 0.539574 0.207021
0.879504 0.540661 0.209505
0.904417 0.541740 0.211938
0.926458 0.542711 0.214101
0.926458 0.542711 0.214101
0.231533 0.544298 0.217719
0.237382 0.544391 0.217974
0.245905 0.544537 0.218344
0.257008 0.544743 0.218821
0.270459 0.545019 0.219379
0.285956 0.545378 0.219973
0.303179 0.545832 0.220534
0.321833 0.546393 0.220968
0.341665 0.547073 0.221149
0.362480 0.547880 0.220917
0.384142 0.548818 0.220087
0.406574 0.549877 0.218457
0.429755 0.551034 0.215841
0.453703 0.552250 0.212116
0.478453 0.553468 0.207311
0.504017 0.554622 0.201711
0.530341 0.555655 0.195979
0.557271 0.556542 0.191211
0.584537 0.557312 0.188815
0.611818 0.558054 0.189901
0.639132 0.558832 0.192054
0.666536 0.559649 0.194274
0.694021 0.560503 0.196556
0.721556 0.561394 0.198892
0.749033 0.562315 0.201269
0.776335 0.563260 0.203669
0.803348 0.564225 0.206079
0.829966 0.565201 0.208484
0.856090 0.566184 0.210870
0.881632 0.567167 0.213226
0.906515 0.568145 0.215539
0.928529 0.569027 0.217601
0.928529 0.569027 0.217601
0.244961 0.572223 0.227452
0.250388 0.572310 0.227685
0.258336 0.572443 0.228027
0.268758 0.572633 0.228469
0.281473 0.572886 0.228993
0.296226 0.573214 0.229560
0.312733 0.573626 0.230117
0.330718 0.574135 0.230586
0.349936 0.574752 0.230862
0.370188 0.575485 0.230815
0.391321 0.576339 0.230287
0.413237 0.577314 0.229102
0.435885 0.578395 0.227076
0.459259 0.579557 0.224056
0.483382 0.580759 0.219964
0.508280 0.581945 0.214879
0.533959 0.583056 0.209113
0.560358 0.584043 0.203329
0.587325 0.584887 0.198573
0.614609 0.585618 0.196152
0.641912 0.586317 0.197113
0.669245 0.587048 0.199178
0.696666 0.587814 0.201305
0.724142 0.588613 0.203488
0.751566 0.589441 0.205714
0.778818 0.590292 0.207970
0.805785 0.591162 0.210240
0.832358 0.592045 0.212511
0.858441 0.592934 0.214771
0.883943 0.593826 0.217007
0.908788 0.594716 0.219209
0.930769 0.595518 0.221177
0.930769 0.595518 0.221177
0.258752 0.600108 0.237188
0.263796 0.600188 0.237404
0.271216 0.600312 0.237720
0.281000 0.600487 0.238132
0.293013 0.600721 0.238624
0.307042 0.601022 0.239167
0.322838 0.601400 0.239714
0.340148 0.601865 0.240203
0.358739 0.602427 0.240547
0.378412 0.603096 0.240638
0.399007 0.603877 0.240342
0.420412 0.604772 0.239502
0.442556 0.605776 0.237949
0.465409 0.606870 0.235519
0.488975 0.608027 0.232086
0.513278 0.609204 0.227610
0.538339 0.610349 0.222206
0.564147 0.611409 0.216230
0.590632 0.612343 0.210355
0.617641 0.613139 0.205592
0.644938 0.613829 0.203161
0.672248 0.614488 0.204039
0.699587 0.615176 0.206025
0.726988 0.615895 0.208069
0.754342 0.616641 0.210159
0.781531 0.617410 0.212281
0.808438 0.618197 0.214423
0.834956 0.618997 0.216572
0.860986 0.619805 0.218715
0.886439 0.620616 0.220842
0.911237 0.621427 0.222942
0.933177 0.622161 0.224822
0.933177 0.622161 0.224822
0.272825 0.627960 0.246953
0.277523 0.628035 0.247152
0.284463 0.628150 0.247444
0.293659 0.628312 0.247826
0.305015 0.628527 0.248284
0.318355 0.628805 0.248796
0.333464 0.629151 0.249321
0.350114 0.629577 0.249806
0.368087 0.630091 0.250179
0.387188 0.630701 0.250347
0.407255 0.631414 0.250197
0.428162 0.632234 0.249595
0.449823 0.633160 0.248389
0.472188 0.634181 0.246424
0.495243 0.635278 0.243558
0.518996 0.636421 0.239697
0.543470 0.637567 0.234837
0.568677 0.638667 0.229133
0.594597 0.639675 0.222973
0.621151 0.640558 0.217033
0.648187 0.641308 0.212287
0.675484 0.641958 0.209881
0.702788 0.642581 0.210713
0.730096 0.643230 0.212631
0.757366 0.643905 0.214596
0.784476 0.644601 0.216598
0.811310 0.645315 0.218624
0.837760 0.646043 0.220661
0.863726 0.646779 0.222699
0.889119 0.647521 0.224726
0.913860 0.648263 0.226733
0.935750 0.648936 0.228535
0.935750 0.648936 0.228535
0.287338 0.655763 0.256605
0.291723 0.655832 0.256786
0.298222 0.655939 0.257052
0.306873 0.656089 0.257402
0.317608 0.656288 0.257824
0.330288 0.656544 0.258299
0.344727 0.656864 0.258792
0.360721 0.657255 0.259260
0.378070 0.657725 0.259641
0.396586 0.658284 0.259856
0.416108 0.658938 0.259809
0.436504 0.659691 0.259384
0.457677 0.660544 0.258448
0.479562 0.661494 0.256858
0.502126 0.662527 0.254475
0.525363 0.663620 0.251177
0.549287 0.664743 0.246901
0.573915 0.665855 0.241680
0.599251 0.666910 0.235706
0.625265 0.667867 0.229390
0.651872 0.668700 0.223411
0.678922 0.669407 0.218708
0.706207 0.670021 0.216356
0.733468 0.670611 0.217173
0.760636 0.671224 0.219028
0.787651 0.671857 0.220921
0.814398 0.672508 0.222843
0.840767 0.673172 0.224781
0.866658 0.673846 0.226724
0.891979 0.674526 0.228662
0.916653 0.675209 0.230587
0.938486 0.675829 0.232318
0.938486 0.675829 0.232318
0.302279 0.683517 0.266115
0.306377 0.683582 0.266279
0.312469 0.683681 0.266523
0.320609 0.683821 0.266843
0.330755 0.684006 0.267231
0.342799 0.684243 0.267670
0.356583 0.684539 0.268131
0.371928 0.684900 0.268577
0.388649 0.685333 0.268956
0.406570 0.685848 0.269199
0.425533 0.686449 0.269224
0.445406 0.687142 0.268932
0.466083 0.687931 0.268206
0.487487 0.688813 0.266918
0.509572 0.689780 0.264935
0.532317 0.690818 0.262132
0.555722 0.691904 0.258413
0.579801 0.693003 0.253743
0.604566 0.694079 0.248190
0.630014 0.695089 0.241977
0.656105 0.695997 0.235537
0.682750 0.696784 0.229547
0.709802 0.697451 0.224911
0.737039 0.698034 0.222638
0.764148 0.698593 0.223457
0.791054 0.699172 0.225256
0.817699 0.699767 0.227085
0.843973 0.700377 0.228935
0.869775 0.700997 0.230795
0.895015 0.701624 0.232655
0.919611 0.702254 0.234507
0.941378 0.702829 0.236177
0.941378 0.702829 0.236177
0.317559 0.711204 0.275490
0.321395 0.711265 0.275640
0.327111 0.711358 0.275863
0.334775 0.711488 0.276156
0.344368 0.711661 0.276513
0.355806 0.711882 0.276918
0.368957 0.712157 0.277348
0.383664 0.712492 0.277770
0.399761 0.712893 0.278140
0.417084 0.713369 0.278398
0.435482 0.713924 0.278474
0.454822 0.714565 0.278282
0.474994 0.715295 0.277720
0.495915 0.716115 0.276674
0.517525 0.717020 0.275023
0.539792 0.718001 0.272643
0.562703 0.719040 0.269427
0.586263 0.720112 0.265303
0.610483 0.721186 0.260265
0.635371 0.722225 0.254411
0.660915 0.723191 0.247994
0.687067 0.724054 0.241463
0.713736 0.724799 0.235491
0.740753 0.725431 0.230949
0.767834 0.725984 0.228781
0.794671 0.726516 0.229607
0.821200 0.727064 0.231356
0.847366 0.727626 0.233130
0.873068 0.728199 0.234918
0.898214 0.728780 0.236712
0.922723 0.729366 0.238501
0.944414 0.729901 0.240119
0.944414 0.729901 0.240119
0.333045 0.738732 0.284716
0.336643 0.738788 0.284854
0.342016 0.738876 0.285058
0.349241 0.738998 0.285327
0.358318 0.739160 0.285655
0.369183 0.739367 0.286030
0.381728 0.739624 0.286430
0.395819 0.739936 0.286828
0.411305 0.740310 0.287185
0.428036 0.740751 0.287450
0.445867 0.741267 0.287562
0.464669 0.741862 0.287446
0.484333 0.742541 0.287013
0.504767 0.743304 0.286162
0.525907 0.744151 0.284783
0.547706 0.745075 0.282761
0.570142 0.746064 0.279986
0.593210 0.747100 0.276370
0.616913 0.748158 0.271861
0.641264 0.749205 0.266483
0.666261 0.750207 0.260364
0.691887 0.751132 0.253779
0.718087 0.751954 0.247193
0.744744 0.752661 0.241275
0.771618 0.753261 0.236868
0.798423 0.753788 0.234821
0.824876 0.754296 0.235655
0.850921 0.754818 0.237364
0.876511 0.755351 0.239093
0.901551 0.755893 0.240830
0.925962 0.756441 0.242567
0.947571 0.756943 0.244142
0.947571 0.756943 0.244142
0.348599 0.765995 0.293779
0.351981 0.766049 0.293905
0.357042 0.766131 0.294092
0.363865 0.766247 0.294340
0.372464 0.766399 0.294643
0.382794 0.766594 0.294990
0.394767 0.766835 0.295363
0.408267 0.767127 0.295738
0.423162 0.767477 0.296080
0.439313 0.767889 0.296347
0.456584 0.768370 0.296485
0.474853 0.768925 0.296426
0.494008 0.769558 0.296096
0.513957 0.770271 0.295403
0.534629 0.771065 0.294249
0.555969 0.771936 0.292528
0.577946 0.772876 0.290135
0.600542 0.773871 0.286973
0.623758 0.774901 0.282970
0.647597 0.775942 0.278102
0.672068 0.776962 0.272416
0.697164 0.777930 0.266067
0.722860 0.778817 0.259354
0.749074 0.779601 0.252757
0.775611 0.780273 0.246949
0.802223 0.780845 0.242712
0.828641 0.781350 0.240799
0.854606 0.781838 0.241638
0.880071 0.782338 0.243317
0.904997 0.782847 0.245009
0.929301 0.783364 0.246706
0.950817 0.783837 0.248247
0.950817 0.783837 0.248247
0.364085 0.792895 0.302667
0.367273 0.792946 0.302783
0.372052 0.793025 0.302956
0.378509 0.793134 0.303184
0.386669 0.793279 0.303464
0.396502 0.793462 0.303787
0.407939 0.793689 0.304136
0.420881 0.793965 0.304489
0.435209 0.794293 0.304818
0.450799 0.794681 0.305083
0.467525 0.795132 0.305239
0.485268 0.795652 0.305226
0.503920 0.796245 0.304978
0.523389 0.796914 0.304415
0.543598 0.797660 0.303448
0.564488 0.798482 0.301981
0.586018 0.799374 0.299915
0.608163 0.800327 0.297154
0.630915 0.801325 0.293615
0.654273 0.802348 0.289247
0.678242 0.803371 0.284046
