color-grading/luts/02_looks/BNC_L05_Chrome.cube
TITLE "BNC L05 Chrome"
# BNC Grade v1.0 - Muted, cross-processed 'chrome' look: rotated primaries, reduced saturation and cool highlights.
# Input: Rec.709 Gamma 2.4 | Output: Rec.709 Gamma 2.4
LUT_3D_SIZE 9
DOMAIN_MIN 0.0 0.0 0.0
DOMAIN_MAX 1.0 1.0 1.0
0.001307 0.001311 0.001316
0.055790 0.026254 0.022319
0.182992 0.083513 0.067200
0.309203 0.132035 0.091352
0.429958 0.175833 0.107300
0.548755 0.217029 0.117187
0.665346 0.256253 0.122755
0.771778 0.291454 0.125483
0.815567 0.305778 0.125737
0.026418 0.063306 0.038508
0.055908 0.067712 0.046333
0.186866 0.097004 0.070823
0.311870 0.138586 0.091204
0.431845 0.179868 0.106415
0.550080 0.219961 0.116319
0.666339 0.258524 0.121932
0.772570 0.293313 0.124681
0.816293 0.307503 0.124945
0.117289 0.201679 0.090126
0.125779 0.202331 0.091285
0.204034 0.214695 0.109292
0.335020 0.223880 0.123465
0.450580 0.243660 0.131240
0.564484 0.270109 0.129667
0.678061 0.298665 0.128601
0.782683 0.326262 0.126396
0.825880 0.337937 0.124917
0.208537 0.330848 0.118438
0.212529 0.331163 0.119042
0.263978 0.336818 0.129798
0.348356 0.352223 0.152147
0.472054 0.359565 0.162447
0.594129 0.364777 0.172659
0.703391 0.381352 0.176146
0.803584 0.400746 0.167576
0.845364 0.409190 0.162945
0.293669 0.452525 0.135977
0.296131 0.452731 0.136427
0.332083 0.456233 0.143926
0.400051 0.466372 0.166050
0.484411 0.482454 0.188881
0.605289 0.489662 0.198682
0.726274 0.493326 0.208367
0.834325 0.496544 0.215068
0.875722 0.500990 0.216818
0.373470 0.571420 0.150135
0.375199 0.571574 0.150512
0.401777 0.574133 0.156652
0.458465 0.581119 0.173205
0.529792 0.593969 0.202621
0.616036 0.610233 0.223770
0.735108 0.617383 0.231345
0.847448 0.620093 0.237981
0.893036 0.620495 0.239564
0.450149 0.687299 0.154397
0.451462 0.687420 0.154722
0.472146 0.689418 0.159994
0.519320 0.694723 0.173588
0.583710 0.704180 0.197851
0.657627 0.718801 0.231461
0.745430 0.734768 0.249992
0.854295 0.741593 0.254907
0.900751 0.743031 0.258073
0.519753 0.792344 0.143519
0.520809 0.792445 0.143856
0.537674 0.794109 0.149297
0.577620 0.798477 0.162861
0.635224 0.806071 0.185498
0.704219 0.817827 0.219014
0.780062 0.833780 0.255663
0.863190 0.848334 0.271267
0.904242 0.852330 0.271357
0.547974 0.835425 0.134885
0.548948 0.835520 0.135249
0.564552 0.837079 0.141096
0.601938 0.841161 0.155416
0.656805 0.848209 0.178508
0.723754 0.859039 0.212018
0.797442 0.874081 0.251826
0.874204 0.889574 0.277869
0.909951 0.894904 0.281187
0.000024 0.024564 0.042310
0.059121 0.021370 0.067549
0.183853 0.082455 0.089369
0.309513 0.131985 0.105174
0.430795 0.174989 0.116409
0.550032 0.215317 0.122873
0.666985 0.253674 0.125281
0.773259 0.288936 0.126908
0.816914 0.303433 0.127129
0.000064 0.064524 0.073857
0.056455 0.067374 0.078899
0.185114 0.098980 0.092090
0.311022 0.140033 0.106431
0.431867 0.180238 0.117215
0.550826 0.219142 0.123471
0.667598 0.256652 0.125804
0.774028 0.290859 0.126149
0.817623 0.305211 0.126376
0.115958 0.202382 0.105522
0.124879 0.202992 0.106480
0.204461 0.215142 0.121930
0.335402 0.224061 0.133966
0.449954 0.244748 0.139053
0.564087 0.271011 0.137607
0.677792 0.299425 0.136731
0.782493 0.326917 0.134664
0.825715 0.338555 0.133274
0.208093 0.331336 0.128642
0.212141 0.331645 0.129189
0.264141 0.337219 0.138903
0.348664 0.352584 0.159889
0.472391 0.359815 0.169477
0.594137 0.365139 0.179015
0.703116 0.381994 0.181244
0.803381 0.401329 0.172698
0.845187 0.409748 0.168255
0.293458 0.452906 0.144103
0.295936 0.453111 0.144523
0.332087 0.456589 0.151517
0.400293 0.466679 0.172415
0.484663 0.482753 0.194473
0.605574 0.489901 0.203905
0.726498 0.493503 0.213129
0.834311 0.496870 0.219557
0.875613 0.501407 0.221012
0.373358 0.571735 0.157030
0.375093 0.571888 0.157387
0.401759 0.574438 0.163207
0.458593 0.581402 0.178975
0.530015 0.594228 0.207414
0.616253 0.610490 0.228104
0.735356 0.617601 0.235495
0.847662 0.620275 0.241895
0.893227 0.620661 0.243396
0.450092 0.687569 0.160827
0.451407 0.687690 0.161136
0.472135 0.689684 0.166154
0.519394 0.694979 0.179148
0.583870 0.704420 0.202555
0.657826 0.719030 0.235390
0.745623 0.734995 0.253621
0.854516 0.741795 0.258455
0.900953 0.743224 0.261548
0.519726 0.792584 0.150397
0.520784 0.792685 0.150715
0.537674 0.794348 0.155850
0.577673 0.798710 0.168736
0.635340 0.806294 0.190467
0.704385 0.818040 0.223045
0.780241 0.833988 0.259049
0.863367 0.848540 0.274447
0.904419 0.852528 0.274534
0.547956 0.835655 0.142267
0.548931 0.835750 0.142606
0.564556 0.837308 0.148078
0.601986 0.841386 0.161600
0.656907 0.848426 0.183682
0.723905 0.859246 0.216169
0.797615 0.874281 0.255212
0.874372 0.889770 0.280920
0.910105 0.895095 0.284195
0.000077 0.080107 0.136070
0.000068 0.067140 0.183843
0.193877 0.065641 0.212054
0.325809 0.100947 0.220050
0.444190 0.152549 0.219980
0.554069 0.211566 0.221464
0.667306 0.257170 0.221907
0.773051 0.293742 0.220339
0.816816 0.308096 0.219124
0.000089 0.092242 0.155832
0.000084 0.085757 0.189349
0.194954 0.086165 0.213515
0.326698 0.113428 0.220927
0.444031 0.161449 0.220448
0.554179 0.216833 0.222036
0.667646 0.260685 0.222289
0.773428 0.296429 0.220617
0.817188 0.310548 0.219382
0.058817 0.211133 0.222448
0.080496 0.211657 0.222966
0.209282 0.219321 0.230112
0.328496 0.234008 0.230665
0.444210 0.255279 0.230293
0.560016 0.280779 0.229152
0.674822 0.308459 0.227309
0.780268 0.335251 0.224672
0.823736 0.346609 0.223333
0.192474 0.339037 0.227280
0.198035 0.339237 0.227731
0.264084 0.343270 0.233846
0.353364 0.357746 0.247097
0.477063 0.363296 0.251532
0.590366 0.373812 0.252469
0.698988 0.391579 0.245137
0.800342 0.410076 0.239200
0.842502 0.418174 0.236648
0.288176 0.458836 0.232486
0.290963 0.459017 0.232773
0.331011 0.462117 0.237159
0.403927 0.471377 0.249438
0.488624 0.487338 0.265862
0.609935 0.493553 0.271961
0.729874 0.496184 0.276537
0.832917 0.503046 0.278943
0.873394 0.508407 0.276502
0.370835 0.576710 0.237340
0.372681 0.576855 0.237575
0.400914 0.579271 0.241336
0.460387 0.585877 0.251222
0.533577 0.598300 0.271129
0.619735 0.614544 0.287632
0.739281 0.621055 0.293083
0.851024 0.623133 0.296786
0.896220 0.623269 0.297310
0.448827 0.691889 0.237434
0.450192 0.692006 0.237635
0.471675 0.693944 0.240888
0.520411 0.699080 0.249299
0.586395 0.708253 0.265177
0.661047 0.722681 0.290352
0.748752 0.738631 0.305456
0.858066 0.745038 0.309376
0.904161 0.746315 0.311605
0.519095 0.796459 0.229642
0.520180 0.796558 0.229834
0.537496 0.798192 0.232965
0.578401 0.802473 0.241003
0.637143 0.809906 0.255264
0.707070 0.821461 0.278835
0.783158 0.837340 0.307925
0.866231 0.851867 0.320983
0.907278 0.855733 0.321052
0.547506 0.839374 0.224515
0.548503 0.839467 0.224710
0.564471 0.841004 0.227885
0.602651 0.845019 0.236015
0.658501 0.851940 0.250159
0.726339 0.862593 0.273115
0.800439 0.877516 0.304004
0.877102 0.892934 0.325869
0.912594 0.898175 0.328632
0.000129 0.132871 0.226258
0.000127 0.131431 0.241420
0.190224 0.082703 0.333977
0.325161 0.103027 0.339549
0.451425 0.130786 0.343763
0.575623 0.157152 0.346192
0.690994 0.204274 0.340558
0.789223 0.262848 0.336740
0.829687 0.285466 0.336101
0.000134 0.138819 0.237109
0.000133 0.137313 0.251556
0.190350 0.098806 0.334834
0.325940 0.114893 0.340297
0.452100 0.139486 0.344315
0.576153 0.163941 0.346569
0.691127 0.209862 0.340768
0.789250 0.266953 0.337080
0.829734 0.289058 0.336461
0.000214 0.219697 0.321524
0.000214 0.220103 0.326689
0.192180 0.223732 0.340747
0.337512 0.224046 0.350996
0.462262 0.233354 0.352706
0.583099 0.247762 0.350997
0.691921 0.284611 0.345109
0.789736 0.324653 0.343049
0.830805 0.340411 0.342464
0.129677 0.350583 0.356314
0.138542 0.350889 0.356615
0.232094 0.355723 0.361301
0.362526 0.366940 0.371711
0.473187 0.375318 0.368318
0.583867 0.388150 0.364381
0.694396 0.405034 0.360346
0.796744 0.423248 0.356318
0.839244 0.431259 0.354260
0.243672 0.473496 0.354547
0.248105 0.473625 0.354792
0.308898 0.475686 0.359116
0.407875 0.482074 0.369394
0.497724 0.497231 0.382254
0.618832 0.501087 0.384924
0.729030 0.507717 0.383337
0.826484 0.519561 0.373640
0.867378 0.524795 0.369422
0.355650 0.588497 0.356072
0.357933 0.588621 0.356303
0.392269 0.590693 0.359899
0.461546 0.596424 0.367517
0.541842 0.607598 0.380168
0.628089 0.623904 0.394121
0.748293 0.629005 0.397420
0.858556 0.629538 0.397526
0.902768 0.629060 0.396663
0.442027 0.702258 0.354014
0.443559 0.702368 0.354181
0.467521 0.704181 0.356810
0.520999 0.708966 0.362939
0.591785 0.717480 0.373062
0.669032 0.731349 0.391193
0.756454 0.747374 0.403786
0.866629 0.752858 0.406620
0.911684 0.753740 0.407692
0.515591 0.805922 0.347007
0.516761 0.806018 0.347148
0.535370 0.807593 0.349411
0.578991 0.811700 0.354962
0.640924 0.818784 0.364171
0.713551 0.829836 0.379847
0.790514 0.845518 0.402149
0.873392 0.860055 0.412875
0.914293 0.863612 0.412976
0.544849 0.848515 0.343088
0.545912 0.848606 0.343224
0.562903 0.850097 0.345424
0.603290 0.853980 0.350892
0.661846 0.860629 0.359984
0.732173 0.870857 0.375007
0.807549 0.885420 0.397785
0.883946 0.900627 0.415656
0.918691 0.905661 0.417811
0.000177 0.183102 0.312296
0.000176 0.182297 0.321355
0.162408 0.132605 0.440613
0.323834 0.113356 0.454988
0.449647 0.134437 0.458444
0.573865 0.157385 0.460647
0.695851 0.179671 0.461766
0.806877 0.199873 0.461525
0.851474 0.213454 0.459224
0.000181 0.186794 0.319263
0.000180 0.185948 0.328140
0.162309 0.141626 0.440931
0.324444 0.123561 0.455581
0.450247 0.142641 0.458958
0.574400 0.164004 0.461075
0.696304 0.185148 0.462129
0.807245 0.204674 0.461778
0.851769 0.218056 0.459415
0.000235 0.243051 0.393627
0.000235 0.242700 0.399356
0.165677 0.236730 0.445476
0.332984 0.224957 0.464606
0.459553 0.233099 0.466904
0.582757 0.243762 0.467862
0.703456 0.255522 0.467938
0.812787 0.269907 0.465494
0.856045 0.281821 0.462380
0.116667 0.354196 0.463419
0.125454 0.354617 0.463358
0.213375 0.361267 0.463395
0.344828 0.367221 0.477178
0.480508 0.365723 0.484703
0.601504 0.369120 0.483854
0.719477 0.373674 0.481022
0.821306 0.390753 0.473286
0.861586 0.401690 0.470291
0.192115 0.483863 0.484268
0.197385 0.484089 0.484496
0.265921 0.487727 0.488160
0.380844 0.496644 0.497007
0.510504 0.510497 0.510342
0.616736 0.515054 0.504506
0.723688 0.523244 0.498466
0.823217 0.533639 0.492126
0.864625 0.538590 0.489205
0.281613 0.606499 0.482100
0.285157 0.606632 0.482243
0.337014 0.608701 0.484674
0.438568 0.613344 0.492077
0.549009 0.621461 0.504612
0.640502 0.637176 0.517222
0.760229 0.639659 0.517954
0.861566 0.642526 0.514017
0.900297 0.645905 0.509355
0.411861 0.718111 0.476678
0.413866 0.718210 0.476863
0.444843 0.719833 0.479875
0.511745 0.724067 0.487136
0.595667 0.731563 0.496554
0.681101 0.744075 0.509378
0.768326 0.760383 0.521743
0.879246 0.764428 0.523511
0.922093 0.764579 0.523395
0.501248 0.820408 0.470956
0.502621 0.820500 0.471105
0.524352 0.822000 0.473500
0.574441 0.825892 0.479159
0.643721 0.832520 0.487130
0.722592 0.842732 0.498178
0.802293 0.857906 0.516211
0.884632 0.872645 0.526246
0.924917 0.875681 0.526614
0.533972 0.862587 0.467695
0.535186 0.862674 0.467832
0.554521 0.864115 0.470030
0.599905 0.867844 0.475284
0.664421 0.874153 0.482960
0.740191 0.883670 0.493699
0.818817 0.897317 0.511192
0.894730 0.912075 0.527340
0.927888 0.916791 0.529162
0.000225 0.232676 0.397307
0.000224 0.232104 0.403634
0.112393 0.178544 0.541626
0.311864 0.143973 0.568821
0.447236 0.143380 0.571998
0.570966 0.161295 0.573980
0.692829 0.180450 0.575226
0.804302 0.198153 0.575535
0.850121 0.205320 0.575469
0.000228 0.235263 0.402264
0.000227 0.234672 0.408522
0.112532 0.184215 0.542070
0.312008 0.151807 0.569185
0.447733 0.150719 0.572443
0.571446 0.167565 0.574390
0.693266 0.185815 0.575594
0.804692 0.202841 0.575858
0.850491 0.209770 0.575777
0.000267 0.276056 0.464770
0.000267 0.275532 0.469763
0.119540 0.256200 0.548542
0.314148 0.240864 0.574088
0.455601 0.235033 0.579443
0.579052 0.244333 0.580961
0.700227 0.255071 0.581493
0.810932 0.265771 0.581093
0.856442 0.270283 0.580731
0.000358 0.367853 0.547539
0.000358 0.367936 0.550078
0.164923 0.371204 0.563842
0.322677 0.372618 0.580385
0.473476 0.362496 0.595743
0.596799 0.366858 0.596741
0.716678 0.371525 0.595818
0.825871 0.376169 0.593909
0.870847 0.378102 0.592699
0.191351 0.485122 0.596676
0.196378 0.485373 0.596715
0.261042 0.489597 0.597031
0.364277 0.500784 0.598129
0.490504 0.507732 0.613937
0.622775 0.504902 0.620298
0.740635 0.505083 0.617421
0.848001 0.504686 0.612695
0.891391 0.505864 0.609190
0.247319 0.615370 0.611961
0.251035 0.615554 0.612146
0.303956 0.618534 0.615152
0.404034 0.626003 0.622627
0.524390 0.637901 0.634325
0.656035 0.653358 0.649036
0.760145 0.655584 0.640871
0.857360 0.659671 0.632412
0.897413 0.661999 0.628729
0.318153 0.737175 0.608619
0.321004 0.737306 0.608729
0.364074 0.739411 0.610525
0.454850 0.744408 0.615218
0.572848 0.751365 0.624425
0.691390 0.760935 0.638500
0.783826 0.776816 0.650664
0.893919 0.778271 0.650380
0.933010 0.777027 0.648601
0.448843 0.839523 0.596753
0.450697 0.839614 0.596896
0.479806 0.841097 0.599281
0.545629 0.844820 0.605597
0.634060 0.850908 0.615885
0.729364 0.860030 0.627406
0.818039 0.873794 0.641139
0.899331 0.888904 0.652171
0.937722 0.891194 0.652886
0.494808 0.881126 0.593696
0.496377 0.881211 0.593843
0.521187 0.882608 0.596264
0.578415 0.886154 0.602456
0.657433 0.891980 0.612011
0.746176 0.900428 0.622811
0.833283 0.912180 0.635862
0.908980 0.925967 0.651837
0.939253 0.930308 0.653706
0.000272 0.281681 0.481418
0.000272 0.281209 0.486150
0.000243 0.245995 0.599500
0.284607 0.193444 0.671876
0.441772 0.159639 0.684890
0.567399 0.168626 0.686093
0.688777 0.183714 0.687307
0.800100 0.198754 0.687717
0.845962 0.205091 0.687707
0.000274 0.283611 0.485151
0.007834 0.283137 0.489798
0.000245 0.248421 0.601891
0.284649 0.198717 0.672058
0.442068 0.166022 0.685277
0.567809 0.174390 0.686468
0.689174 0.188843 0.687660
0.800471 0.203348 0.688044
0.846322 0.209481 0.688016
0.035776 0.314737 0.535236
0.037257 0.314270 0.539162
0.029923 0.289529 0.629764
0.285948 0.267567 0.674841
0.446521 0.243863 0.691348
0.574363 0.246719 0.692509
0.695542 0.255763 0.693358
0.806435 0.265220 0.693332
0.852141 0.269297 0.693007
0.052099 0.389327 0.616061
0.053530 0.389175 0.618569
0.079887 0.382689 0.665457
0.294915 0.382784 0.681421
0.455055 0.368414 0.704308
0.590086 0.364702 0.707108
0.710870 0.369553 0.707418
0.821072 0.374274 0.706215
0.866463 0.376243 0.705218
0.104197 0.494122 0.688540
0.113453 0.494405 0.688592
0.203727 0.498779 0.689848
0.327311 0.507063 0.696432
0.467397 0.508504 0.715656
0.613331 0.498649 0.729191
0.734196 0.500963 0.728801
0.843625 0.502077 0.725723
0.888411 0.502345 0.723860
0.248691 0.615776 0.727730
0.252330 0.615953 0.727849
0.304090 0.618881 0.729535
0.400200 0.626832 0.731955
0.508295 0.640906 0.734475
0.635051 0.649034 0.751514
0.765458 0.644902 0.755884
0.873123 0.642561 0.750730
0.915218 0.641137 0.747857
0.301079 0.745180 0.736889
0.303905 0.745336 0.737043
0.346175 0.747883 0.739564
0.433052 0.754353 0.745946
0.543713 0.764843 0.756222
0.669206 0.779445 0.770347
0.801893 0.795677 0.785645
0.896652 0.796020 0.776681
0.931310 0.796376 0.772537
0.350684 0.857630 0.734150
0.353042 0.857758 0.734258
0.389328 0.859833 0.736008
0.468635 0.865013 0.740341
0.576535 0.872955 0.747188
0.705796 0.882427 0.757998
0.831548 0.893108 0.773885
0.916029 0.907277 0.785539
0.950503 0.908514 0.786108
0.397659 0.900746 0.727367
0.399760 0.900850 0.727464
0.432585 0.902523 0.729071
0.506636 0.906611 0.733286
0.609526 0.912683 0.740844
0.729978 0.920060 0.753652
0.844710 0.929018 0.768900
0.925635 0.940379 0.783415
0.951318 0.944442 0.786202
0.042716 0.326966 0.556491
0.043770 0.326589 0.560084
0.042232 0.309215 0.635900
0.250493 0.237129 0.762383
0.424707 0.195276 0.786834
0.563496 0.177237 0.789396
0.684396 0.188683 0.790472
0.795317 0.200785 0.790891
0.842562 0.208068 0.792130
0.043570 0.328509 0.559375
0.044583 0.328127 0.562951
0.042946 0.310808 0.638291
0.250557 0.240951 0.762584
0.424827 0.200289 0.787088
0.563835 0.182510 0.789737
0.684746 0.193525 0.790801
0.795659 0.205231 0.791205
0.842617 0.211921 0.792164
0.054442 0.353430 0.601457
0.055112 0.353022 0.604723
0.053953 0.337667 0.671560
0.252249 0.294970 0.765824
0.426708 0.266725 0.791021
0.569159 0.250550 0.795257
0.690397 0.257569 0.796137
0.801196 0.265462 0.796271
0.846960 0.268942 0.795939
0.068241 0.414999 0.678170
0.068916 0.414742 0.680596
0.074205 0.406605 0.726813
0.261643 0.395541 0.774143
0.431426 0.381509 0.799217
0.581025 0.365200 0.808899
0.704185 0.367991 0.809416
0.814954 0.372391 0.808706
0.860607 0.374240 0.807915
0.048753 0.507150 0.758396
0.050417 0.507154 0.759849
0.109158 0.507135 0.780679
0.290976 0.512842 0.789208
0.442863 0.512410 0.808475
0.595455 0.498665 0.828713
0.725782 0.496108 0.829506
0.836581 0.498178 0.827846
0.882028 0.498800 0.826506
0.208024 0.620457 0.813132
0.211930 0.620681 0.813149
0.265401 0.624324 0.813520
0.360526 0.633180 0.815580
0.475451 0.644262 0.823694
0.612338 0.646324 0.844268
0.755073 0.636719 0.855198
0.865783 0.637203 0.853073
0.909617 0.636749 0.851207
0.303037 0.745911 0.845750
0.305819 0.746056 0.845898
0.347488 0.748416 0.848305
0.433349 0.754446 0.853920
0.541555 0.764951 0.859652
0.655900 0.781486 0.863713
0.782514 0.791395 0.881221
0.901149 0.786080 0.883708
0.938406 0.784449 0.881254
0.349838 0.864485 0.851271
0.352123 0.864623 0.851408
0.387243 0.866881 0.853653
0.463478 0.872659 0.859396
0.565163 0.882108 0.868805
0.683672 0.895201 0.881999
0.813093 0.911154 0.898365
0.931649 0.924578 0.912304
0.957604 0.924500 0.909211
0.365912 0.910243 0.851527
0.368043 0.910361 0.851657
0.401027 0.912288 0.853781
0.473715 0.917127 0.859219
0.572018 0.924746 0.868147
0.687501 0.934706 0.880652
0.816299 0.945637 0.894797
0.939868 0.953258 0.908405
0.961944 0.956805 0.912665
0.051106 0.345675 0.587489
0.051870 0.345319 0.590781
0.051767 0.331138 0.657376
0.233169 0.253674 0.799869
0.414886 0.213549 0.826958
0.560435 0.183306 0.832580
0.682416 0.191093 0.833156
0.795691 0.205689 0.836032
0.843055 0.212722 0.837339
0.051758 0.347089 0.590142
0.052499 0.346730 0.593420
0.052289 0.332562 0.659672
0.233244 0.257086 0.800087
0.414968 0.218005 0.827166
0.560708 0.188379 0.832911
0.682746 0.195809 0.833474
0.795747 0.209599 0.836070
0.843109 0.216458 0.837371
0.060509 0.369977 0.629453
0.061036 0.369591 0.632487
0.060530 0.356447 0.692608
0.235089 0.306399 0.803607
0.416325 0.278965 0.830422
0.564991 0.254718 0.838240
0.688083 0.258562 0.838635
0.798811 0.265776 0.838769
0.844571 0.268983 0.838423
0.072616 0.426981 0.704019
0.073139 0.426704 0.706374
0.076817 0.418603 0.750646
0.244684 0.401560 0.812498
0.420434 0.388256 0.837466
0.574421 0.368117 0.851113
0.701204 0.367465 0.851469
0.812105 0.371664 0.850913
0.857825 0.373429 0.850192
0.062620 0.514229 0.784167
0.063699 0.514183 0.785661
0.077709 0.512252 0.812193
0.273559 0.515661 0.827694
0.431659 0.514862 0.846658
0.586098 0.500589 0.868751
0.721971 0.494089 0.870895
0.833131 0.496386 0.869701
0.878777 0.497103 0.868558
0.166603 0.623640 0.847930
0.171621 0.623862 0.847967
0.235374 0.627414 0.848707
0.339980 0.635667 0.851954
0.462416 0.645147 0.861523
0.602293 0.645918 0.882380
0.748497 0.634170 0.895886
0.861714 0.634309 0.894308
0.906224 0.634186 0.892880
0.301316 0.745297 0.887154
0.304072 0.745450 0.887238
0.345217 0.747988 0.888511
0.428799 0.754720 0.890911
0.531130 0.766500 0.893239
0.641593 0.782689 0.898763
0.772594 0.788801 0.917143
0.896766 0.782137 0.921939
0.935621 0.781331 0.920560
0.351693 0.865623 0.897139
0.353963 0.865760 0.897271
0.388876 0.867995 0.899414
0.464777 0.873710 0.904811
0.566143 0.883040 0.913363
0.684324 0.895914 0.924651
0.813201 0.911529 0.936911
0.927733 0.925351 0.945941
0.959448 0.922298 0.945739
0.369112 0.912183 0.898392
0.371227 0.912301 0.898518
0.403992 0.914222 0.900570
0.476369 0.919047 0.905758
0.574510 0.926660 0.914038
0.690114 0.936674 0.925094
0.817193 0.948116 0.937950
0.935814 0.958823 0.950190
0.965911 0.961432 0.953189
