color-grading/luts/02_looks/BNC_L04_TealOrange.cube
TITLE "BNC L04 TealOrange"
# BNC Grade v1.0 - Complementary teal shadows against warm orange skin tones -- the modern high-contrast blockbuster look.
# Input: Rec.709 Gamma 2.4 | Output: Rec.709 Gamma 2.4
LUT_3D_SIZE 5
DOMAIN_MIN 0.0 0.0 0.0
DOMAIN_MAX 1.0 1.0 1.0
0.002711 0.002877 0.002908
0.184630 0.094519 0.083824
0.462954 0.114767 0.093355
0.723738 0.012037 0.019023
0.886115 0.048587 0.018470
0.027881 0.216089 0.174849
0.120090 0.244223 0.159590
0.473317 0.233141 0.071341
0.728679 0.212948 0.014029
0.890279 0.210269 0.015635
0.097564 0.473176 0.348827
0.126568 0.483983 0.332396
0.472849 0.488375 0.025422
0.744595 0.479039 0.017291
0.910794 0.471625 0.019561
0.155909 0.721679 0.505553
0.174217 0.727122 0.493757
0.358575 0.747398 0.377218
0.751293 0.728776 0.013593
0.927441 0.726758 0.025372
0.191949 0.890859 0.605175
0.203417 0.894611 0.594607
0.319865 0.911220 0.508785
0.698201 0.912056 0.318578
0.934745 0.909967 0.412834
0.002481 0.089468 0.123608
0.182287 0.076932 0.253966
0.463281 0.108871 0.239075
0.724238 0.018714 0.213185
0.886876 0.028397 0.204578
0.009119 0.222896 0.232170
0.166581 0.240320 0.253575
0.471935 0.237001 0.238328
0.740683 0.191539 0.200455
0.917704 0.098679 0.153032
0.063268 0.477002 0.371246
0.093453 0.487981 0.363590
0.480803 0.492104 0.221123
0.767839 0.466935 0.115332
0.936057 0.445194 0.014800
0.136934 0.724019 0.521781
0.156189 0.729562 0.511767
0.343273 0.751221 0.402240
0.757458 0.729482 0.022726
0.938371 0.726368 0.076605
0.177919 0.892707 0.618248
0.193766 0.896418 0.608955
0.318525 0.913182 0.530874
0.693846 0.914320 0.325504
0.937439 0.912517 0.450390
0.008595 0.194071 0.282325
0.055397 0.088489 0.522990
0.458398 0.046142 0.500258
0.718049 0.024206 0.470010
0.887258 0.019605 0.456230
0.004055 0.261165 0.370023
0.004570 0.259842 0.461123
0.467265 0.222008 0.500860
0.738609 0.183138 0.473982
0.916793 0.096189 0.450855
0.009735 0.489979 0.491679
0.197312 0.495385 0.497143
0.507863 0.508556 0.508184
0.767659 0.483179 0.479422
0.938030 0.457050 0.451529
0.015128 0.735040 0.587453
0.034801 0.740952 0.587093
0.393558 0.760035 0.577086
0.782209 0.748002 0.440675
0.949681 0.742944 0.455014
0.035756 0.902225 0.681653
0.068096 0.906287 0.676840
0.296801 0.923335 0.636186
0.715202 0.927046 0.525430
0.949424 0.925632 0.613801
0.012276 0.294235 0.444077
0.010943 0.290478 0.524666
0.439967 0.008248 0.738083
0.708549 0.023359 0.714429
0.888071 0.021802 0.706423
0.013296 0.332689 0.504364
0.009773 0.328473 0.573531
0.448578 0.191381 0.761616
0.728199 0.144311 0.732698
0.912887 0.029817 0.718154
0.012283 0.500538 0.681657
0.021473 0.504540 0.706123
0.439545 0.498825 0.767079
0.757935 0.472402 0.745039
0.933892 0.450979 0.722835
0.133601 0.750670 0.734944
0.252091 0.752849 0.736696
0.522007 0.764293 0.745932
0.813119 0.776523 0.753159
0.959723 0.761632 0.738263
0.013191 0.917280 0.756284
0.163894 0.920919 0.760729
0.450394 0.930938 0.789302
0.758674 0.944420 0.793586
0.963420 0.946357 0.832068
0.008500 0.362080 0.557799
0.013440 0.359154 0.616684
0.410530 0.025817 0.929794
0.709800 0.024582 0.887687
0.889165 0.029364 0.880974
0.007862 0.389995 0.605465
0.007756 0.385921 0.660152
0.406953 0.199628 0.936773
0.727050 0.096927 0.916127
0.909675 0.014697 0.901532
0.023576 0.527211 0.768425
0.008301 0.527179 0.798399
0.372771 0.493462 0.936617
0.743948 0.455235 0.918279
0.924376 0.437050 0.900774
0.113279 0.746456 0.917851
0.237825 0.748982 0.917899
0.486344 0.765401 0.914501
0.785989 0.764834 0.933832
0.956261 0.760018 0.911519
0.239233 0.926033 0.896712
0.311588 0.927639 0.898357
0.543981 0.936069 0.907353
0.823477 0.950095 0.924515
0.970194 0.960742 0.953568
