color-grading/luts/02_looks/BNC_L04_TealOrange.cube
TITLE "BNC L04 TealOrange"
# BNC Grade v1.0 - Complementary teal shadows against warm orange skin tones -- the modern high-contrast blockbuster look.
# Input: Rec.709 Gamma 2.4 | Output: Rec.709 Gamma 2.4
LUT_3D_SIZE 33
DOMAIN_MIN 0.0 0.0 0.0
DOMAIN_MAX 1.0 1.0 1.0
0.002711 0.002877 0.002908
0.008376 0.003219 0.003157
0.021965 0.007771 0.006691
0.043351 0.022721 0.020285
0.063556 0.043071 0.040479
0.084748 0.062177 0.059418
0.115061 0.076017 0.071027
0.149859 0.085960 0.077965
0.184630 0.094519 0.083824
0.219430 0.101774 0.088662
0.254265 0.107758 0.092503
0.289121 0.112469 0.095353
0.323978 0.115878 0.097194
0.358814 0.117926 0.097993
0.393605 0.118523 0.097689
0.428326 0.117537 0.096190
0.462954 0.114767 0.093355
0.497465 0.109903 0.088963
0.531836 0.102428 0.082639
0.566043 0.091363 0.073682
0.600064 0.074388 0.060462
0.633878 0.041272 0.036515
0.664595 0.020600 0.024197
0.694226 0.019501 0.022850
0.723738 0.012037 0.019023
0.752918 0.015351 0.018942
0.781786 0.025029 0.022953
0.809716 0.024851 0.019873
0.833929 0.032188 0.020004
0.853306 0.035701 0.015615
0.867597 0.042693 0.018741
0.878550 0.047048 0.020181
0.886115 0.048587 0.018470
0.002187 0.008720 0.006635
0.006339 0.009204 0.005869
0.021405 0.011315 0.007541
0.042923 0.023919 0.020760
0.063262 0.043605 0.040737
0.084594 0.062478 0.059548
0.115023 0.076207 0.071071
0.149840 0.086113 0.077995
0.184620 0.094648 0.083845
0.219426 0.101887 0.088677
0.254263 0.107859 0.092514
0.289121 0.112562 0.095361
0.323979 0.115964 0.097200
0.358816 0.118008 0.097997
0.393607 0.118604 0.097691
0.428329 0.117617 0.096191
0.462957 0.114848 0.093355
0.497468 0.109987 0.088961
0.531839 0.102519 0.082637
0.566046 0.091469 0.073679
0.600067 0.074528 0.060456
0.633881 0.041585 0.036501
0.664598 0.021403 0.024175
0.694228 0.020355 0.022830
0.723740 0.013607 0.019004
0.752920 0.016503 0.018928
0.781788 0.025628 0.022947
0.809718 0.025451 0.019866
0.833931 0.032607 0.019999
0.853308 0.036064 0.015610
0.867600 0.042975 0.018738
0.878550 0.047282 0.020157
0.886116 0.048811 0.018444
0.003794 0.023134 0.018973
0.003900 0.023441 0.019191
0.005347 0.026516 0.021092
0.037454 0.033946 0.025633
0.060090 0.048966 0.043221
0.082868 0.065726 0.060957
0.114589 0.078301 0.071568
0.149629 0.087814 0.078331
0.184515 0.096089 0.084081
0.219378 0.103147 0.088847
0.254248 0.108990 0.092637
0.289126 0.113600 0.095450
0.323996 0.116936 0.097263
0.358840 0.118935 0.098039
0.393636 0.119504 0.097716
0.428360 0.118510 0.096202
0.462990 0.115754 0.093353
0.497501 0.110933 0.088948
0.531872 0.103546 0.082611
0.566078 0.092655 0.073637
0.600099 0.076080 0.060390
0.633911 0.044924 0.036349
0.664867 0.020244 0.018386
0.694511 0.017421 0.015362
0.723768 0.023942 0.018779
0.752947 0.025350 0.018768
0.782109 0.019237 0.011496
0.809743 0.031192 0.019792
0.833955 0.036898 0.019943
0.853332 0.039845 0.015551
0.867623 0.045999 0.018711
0.878556 0.049824 0.019883
0.886121 0.051251 0.018140
0.003901 0.051097 0.043669
0.003952 0.051209 0.043751
0.004185 0.052315 0.044634
0.005691 0.058672 0.049620
0.022560 0.071632 0.060094
0.069295 0.082115 0.072529
0.112646 0.089707 0.073099
0.148429 0.097611 0.080147
0.183842 0.104644 0.085516
0.219069 0.110729 0.089890
0.254149 0.115856 0.093399
0.289153 0.119937 0.096001
0.324102 0.122891 0.097653
0.358994 0.124628 0.098301
0.393820 0.125044 0.097873
0.428561 0.124004 0.096269
0.463199 0.121321 0.093340
0.497713 0.116727 0.088858
0.532082 0.109794 0.082441
0.566284 0.099775 0.073369
0.600298 0.085094 0.059963
0.634103 0.060959 0.035351
0.665055 0.048728 0.015806
0.694694 0.047777 0.012526
0.723946 0.049594 0.017250
0.753118 0.050010 0.017704
0.782272 0.047897 0.010147
0.809902 0.052361 0.019308
0.834110 0.055290 0.019576
0.853482 0.056978 0.015173
0.867769 0.060906 0.018535
0.878592 0.062967 0.017998
0.886156 0.064017 0.016001
0.000085 0.084274 0.072276
0.000085 0.084321 0.072312
0.000086 0.084882 0.072714
0.005116 0.088322 0.075117
0.010740 0.096823 0.080738
0.026413 0.109068 0.088473
0.099038 0.114784 0.087804
0.144807 0.119107 0.083776
0.183566 0.123170 0.086101
0.218785 0.128068 0.091503
0.253962 0.132199 0.095124
0.289211 0.135333 0.097387
0.324377 0.137501 0.098637
0.359404 0.138685 0.098958
0.394312 0.138766 0.098257
0.429101 0.137613 0.096417
0.463764 0.135066 0.093275
0.498287 0.130914 0.088588
0.532653 0.124859 0.081952
0.566844 0.116437 0.072609
0.600842 0.104824 0.058751
0.634626 0.088268 0.032357
0.665329 0.082856 0.016367
0.694943 0.082345 0.016012
0.724431 0.081313 0.011524
0.753584 0.081370 0.014214
0.782717 0.080209 0.002015
0.810336 0.082301 0.017860
0.834531 0.083782 0.018505
0.853892 0.084673 0.014059
0.868262 0.086973 0.018066
0.878691 0.087179 0.010225
0.885936 0.090528 0.023437
0.011198 0.117482 0.098086
0.011212 0.117512 0.098107
0.011588 0.117860 0.098346
0.012777 0.120057 0.099831
0.015709 0.125777 0.103657
0.020185 0.134897 0.109251
0.062881 0.144843 0.111302
0.132874 0.147655 0.097383
0.178482 0.150019 0.093131
0.218988 0.151667 0.090097
0.255473 0.153948 0.093386
0.290327 0.156564 0.097250
0.325191 0.158421 0.099289
0.360158 0.159272 0.099720
0.395132 0.159052 0.098772
0.430009 0.157741 0.096558
0.464719 0.155308 0.093068
0.499260 0.151600 0.088036
0.533625 0.146424 0.081024
0.567800 0.139512 0.071197
0.601771 0.130468 0.056490
0.635521 0.118628 0.025804
0.665972 0.115748 0.009920
0.695553 0.115271 0.014520
0.725000 0.114540 0.014410
0.754106 0.114544 0.019687
0.783193 0.113829 0.018300
0.811085 0.113467 0.014739
0.835259 0.114291 0.016359
0.854601 0.114796 0.011752
0.868955 0.116280 0.017189
0.878991 0.118010 0.023341
0.886099 0.117437 0.014901
0.016906 0.150503 0.123959
0.017434 0.150515 0.123979
0.017560 0.150761 0.124145
0.018530 0.152313 0.125185
0.020317 0.156466 0.127884
0.024226 0.163329 0.131833
0.035617 0.172818 0.133677
0.105316 0.179062 0.126882
0.169750 0.179851 0.102805
0.214007 0.181063 0.099199
0.254272 0.181681 0.094388
0.292740 0.181457 0.091702
0.328031 0.182282 0.094590
0.362511 0.183042 0.096910
0.396997 0.183032 0.097264
0.431563 0.182023 0.095706
0.466137 0.179925 0.092328
0.500644 0.176664 0.087022
0.535010 0.172178 0.079465
0.569167 0.166411 0.068888
0.603103 0.159164 0.052738
0.636589 0.150711 0.015339
0.666776 0.149058 0.001670
0.696303 0.148604 0.018281
0.725944 0.147223 0.012920
0.755267 0.146224 0.011037
0.784314 0.145535 0.011964
0.812177 0.145084 0.005552
0.836320 0.145535 0.012044
0.855720 0.145833 0.006159
0.870143 0.146886 0.015945
0.880075 0.148107 0.023107
0.887134 0.147631 0.014019
0.022906 0.183351 0.149657
0.022216 0.183381 0.149658
0.022970 0.183554 0.149784
0.023183 0.184741 0.150512
0.024756 0.187926 0.152392
0.029457 0.193274 0.155068
0.038329 0.200878 0.156513
0.058800 0.210582 0.148276
0.148256 0.212165 0.136521
0.208458 0.211304 0.105097
0.250768 0.211931 0.102624
0.290267 0.211974 0.097588
0.329887 0.210126 0.087937
0.366261 0.209028 0.086685
0.400789 0.208532 0.088504
0.434844 0.207752 0.089075
0.468881 0.206207 0.087314
0.502955 0.203698 0.083024
0.537012 0.200131 0.075889
0.570989 0.195432 0.064918
0.604829 0.189514 0.046628
0.637618 0.183942 0.000000
0.667746 0.182535 0.009089
0.697443 0.181552 0.018282
0.727006 0.180425 0.019890
0.756511 0.178960 0.014063
0.785509 0.178289 0.017868
0.813319 0.177830 0.017863
0.837412 0.178106 0.022218
0.856934 0.178353 0.022213
0.871564 0.178131 0.014154
0.881477 0.179046 0.022955
0.888513 0.178683 0.014348
0.027881 0.216089 0.174849
0.027691 0.216106 0.174853
0.027663 0.216256 0.174931
0.028094 0.217195 0.175423
0.031077 0.219710 0.176685
0.034772 0.224048 0.178316
0.043812 0.230244 0.178980
0.059527 0.238325 0.174060
0.120090 0.244223 0.159590
0.190751 0.244489 0.138780
0.247990 0.242191 0.104831
0.288439 0.242489 0.103220
0.327157 0.242092 0.098174
0.366975 0.239387 0.082236
0.404420 0.236665 0.072709
0.439427 0.234784 0.071237
0.473317 0.233141 0.071341
0.506881 0.231113 0.069263
0.540392 0.228356 0.063500
0.573890 0.224708 0.052319
0.607335 0.220087 0.027241
0.638578 0.217634 0.013481
0.668920 0.215999 0.015286
0.698952 0.214418 0.014838
0.728679 0.212948 0.014029
0.758109 0.211652 0.014110
0.787059 0.210930 0.020412
0.814810 0.210436 0.022834
0.839229 0.209876 0.017904
0.858789 0.210040 0.019929
0.873382 0.209843 0.012087
0.883272 0.210554 0.023177
0.890279 0.210269 0.015635
0.034540 0.248683 0.199337
0.034777 0.248689 0.199346
0.033828 0.248832 0.199375
0.034855 0.249590 0.199684
0.036825 0.251680 0.200406
0.041997 0.255240 0.201243
0.049866 0.260430 0.201082
0.063890 0.267219 0.197054
0.084091 0.275594 0.180570
0.171807 0.276570 0.166333
0.234026 0.275747 0.134015
0.287702 0.272703 0.102074
0.326700 0.272727 0.100663
0.364708 0.271964 0.095334
0.404148 0.268853 0.073325
0.442270 0.264996 0.047138
0.477929 0.261809 0.026453
0.511944 0.259211 0.010034
0.544730 0.257093 0.015882
0.576984 0.254942 0.013856
0.608647 0.252868 0.010925
0.639660 0.251039 0.016006
0.670346 0.249158 0.013270
0.700662 0.247333 0.002093
0.730319 0.246078 0.020122
0.759827 0.244693 0.020187
0.788942 0.243586 0.020704
0.816911 0.242530 0.014191
0.841499 0.242030 0.008779
0.860929 0.242097 0.016986
0.875479 0.241920 0.010327
0.885340 0.242489 0.024076
0.892307 0.242261 0.018123
0.041335 0.281172 0.222949
0.041529 0.281177 0.222955
0.041989 0.281269 0.222988
0.042798 0.281910 0.223135
0.044354 0.283681 0.223420
0.050071 0.286667 0.223611
0.057523 0.291072 0.222748
0.069937 0.296874 0.218827
0.087321 0.304074 0.206645
0.148191 0.308523 0.187237
0.218965 0.308275 0.166598
0.277774 0.306010 0.124216
0.327217 0.302986 0.096454
0.365246 0.302699 0.094396
0.402600 0.301642 0.088323
0.441386 0.298377 0.058167
0.478076 0.294840 0.012206
0.511856 0.292460 0.008777
0.544904 0.290285 0.014793
0.577360 0.288223 0.018251
0.609430 0.286079 0.010468
0.640857 0.284101 0.008499
0.671667 0.282347 0.016776
0.702253 0.280449 0.008682
0.732151 0.278998 0.019179
0.761801 0.277514 0.018011
0.791152 0.276098 0.007724
0.819156 0.275522 0.020789
0.843799 0.274782 0.013857
0.863348 0.274395 0.007023
0.877826 0.274287 0.006884
0.887957 0.274226 0.000000
0.894567 0.274572 0.020967
0.050708 0.313494 0.245688
0.049352 0.313537 0.245648
0.049682 0.313618 0.245658
0.050956 0.314154 0.245689
0.053264 0.315654 0.245653
0.058374 0.318223 0.245298
0.065087 0.322029 0.243828
0.076730 0.327033 0.239791
0.092452 0.333270 0.229643
0.116759 0.340304 0.205582
0.202948 0.340213 0.190993
0.264476 0.339223 0.159997
0.321050 0.335678 0.110647
0.366412 0.333104 0.086855
0.403785 0.332496 0.083265
0.440521 0.331225 0.075637
0.478532 0.327963 0.017544
0.512467 0.325566 0.008855
0.545939 0.323569 0.015967
0.578717 0.321488 0.015303
0.610818 0.319458 0.016862
0.642377 0.317467 0.017007
0.673492 0.315499 0.013509
0.704003 0.313779 0.019396
0.734238 0.312107 0.018271
0.764194 0.310562 0.012626
0.793712 0.309232 0.001218
0.821723 0.308391 0.017626
0.846301 0.307694 0.015815
0.865870 0.307173 0.007056
0.880230 0.307215 0.020493
0.890223 0.307153 0.023050
0.897093 0.306974 0.019176
0.060119 0.345700 0.267525
0.058699 0.345746 0.267471
0.058799 0.345822 0.267458
0.060733 0.346265 0.267415
0.063185 0.347560 0.267118
0.067724 0.349799 0.266332
0.074281 0.353104 0.264413
0.084838 0.357475 0.260207
0.098421 0.362966 0.251081
0.114832 0.369544 0.231096
0.184019 0.371980 0.211115
0.251566 0.371445 0.189421
0.309189 0.369406 0.147700
0.363197 0.365142 0.092861
0.405284 0.363068 0.070480
0.442038 0.362232 0.064076
0.478181 0.360829 0.052046
0.513600 0.358513 0.011979
0.547108 0.356494 0.012859
0.580116 0.354677 0.019832
0.612642 0.352673 0.008392
0.644337 0.350849 0.019397
0.675617 0.348950 0.017936
0.706282 0.347219 0.022280
0.736699 0.345528 0.019749
0.766694 0.343922 0.013289
0.796058 0.342743 0.022110
0.824351 0.341673 0.021074
0.848985 0.340837 0.017078
0.868566 0.340248 0.012282
0.882976 0.339935 0.014989
0.892960 0.339953 0.024281
0.899671 0.339802 0.023902
0.069104 0.377795 0.288536
0.069493 0.377789 0.288550
0.069450 0.377859 0.288518
0.070312 0.378273 0.288358
0.073229 0.379390 0.287881
0.077162 0.381366 0.286759
0.084009 0.384245 0.284541
0.092724 0.388133 0.280124
0.105611 0.392957 0.271753
0.119987 0.398809 0.255076
0.160571 0.403614 0.229302
0.237350 0.403299 0.213031
0.297159 0.402205 0.182682
0.352779 0.399099 0.131018
0.403907 0.394668 0.067107
0.443571 0.393008 0.035701
0.479655 0.392059 0.005686
0.514540 0.390868 0.016533
0.548263 0.389198 0.019499
0.581479 0.387499 0.017656
0.614185 0.385789 0.014840
0.646185 0.384045 0.018054
0.677708 0.382268 0.015571
0.708618 0.380577 0.018605
0.739088 0.378938 0.018048
0.769052 0.377514 0.022532
0.798661 0.376180 0.022635
0.827122 0.374906 0.009775
0.851622 0.374140 0.020160
0.871233 0.373482 0.019376
0.885799 0.373024 0.017551
0.895808 0.372728 0.018788
0.902489 0.372684 0.024027
0.079140 0.409722 0.308959
0.079237 0.409724 0.308961
0.079464 0.409779 0.308932
0.079400 0.410172 0.308666
0.081745 0.411172 0.308014
0.086519 0.412887 0.306723
0.092585 0.415450 0.304246
0.101631 0.418860 0.299855
0.112319 0.423200 0.291902
0.126308 0.428371 0.277653
0.139539 0.434492 0.249685
0.220313 0.435020 0.233605
0.284580 0.434380 0.211367
0.340702 0.432572 0.172053
0.394688 0.428678 0.110351
0.442913 0.424415 0.012069
0.480167 0.423211 0.000000
0.515130 0.422463 0.005408
0.549329 0.421449 0.016364
0.582595 0.419982 0.016684
0.615492 0.418596 0.019308
0.647891 0.417035 0.004525
0.679469 0.415523 0.020330
0.710647 0.413941 0.018499
0.741245 0.412422 0.019954
0.771366 0.411009 0.021893
0.801232 0.409602 0.012241
0.829599 0.408450 0.019025
0.854451 0.407360 0.008438
0.874140 0.406604 0.009147
0.888449 0.406236 0.024963
0.898675 0.405814 0.019809
0.905385 0.405471 0.011400
0.089426 0.441492 0.329011
0.089511 0.441494 0.329012
0.089261 0.441557 0.328949
0.090328 0.441873 0.328709
0.091528 0.442797 0.327896
0.096462 0.444307 0.326498
0.101876 0.446601 0.323881
0.109352 0.449683 0.319439
0.119737 0.453543 0.312056
0.132119 0.458206 0.299470
0.145024 0.463679 0.276931
0.198666 0.466680 0.252799
0.269763 0.466325 0.235832
0.328017 0.465304 0.207073
0.382165 0.462791 0.159336
0.434543 0.458454 0.084176
0.479737 0.454473 0.011808
0.515610 0.453628 0.016400
0.549921 0.452995 0.009715
0.583569 0.452112 0.013246
0.616541 0.451057 0.022201
0.649039 0.449876 0.022510
0.680911 0.448582 0.023688
0.712186 0.447223 0.024779
0.743044 0.445833 0.020367
0.773439 0.444476 0.018525
0.803365 0.443137 0.021202
0.832046 0.441867 0.021096
0.857075 0.440671 0.006570
0.876739 0.439889 0.019668
0.891344 0.439364 0.023808
0.901408 0.438977 0.025020
0.908027 0.438695 0.024960
0.097564 0.473176 0.348827
0.097643 0.473178 0.348827
0.099061 0.473181 0.348872
0.099685 0.473476 0.348584
0.101840 0.474270 0.347788
0.104682 0.475685 0.346193
0.110724 0.477709 0.343629
0.117817 0.480472 0.339340
0.126568 0.483983 0.332396
0.137330 0.488224 0.321160
0.149770 0.493158 0.302467
0.168972 0.498309 0.271441
0.251181 0.498181 0.257901
0.313697 0.497595 0.236350
0.368870 0.496108 0.200829
0.421897 0.492955 0.144185
0.472849 0.488375 0.025422
0.515432 0.484708 0.018696
0.550344 0.484177 0.021439
0.584139 0.483765 0.007651
0.617213 0.483147 0.024157
0.649909 0.482311 0.016435
0.681912 0.481347 0.020284
0.713501 0.480253 0.016662
0.744595 0.479039 0.017291
0.775264 0.477686 0.011574
0.805356 0.476457 0.027189
0.834306 0.475124 0.024396
0.859609 0.473885 0.002838
0.879408 0.473043 0.020769
0.894138 0.472385 0.019180
0.904207 0.471935 0.019378
0.910794 0.471625 0.019561
0.106569 0.504676 0.368747
0.106640 0.504677 0.368747
0.106200 0.504737 0.368662
0.107005 0.504996 0.368377
0.110242 0.505673 0.367643
0.112391 0.506969 0.365980
0.117264 0.508827 0.363356
0.124019 0.511323 0.359217
0.133259 0.514459 0.352861
0.143391 0.518300 0.342811
0.154706 0.522804 0.326786
0.165781 0.527943 0.299875
0.227777 0.529907 0.278093
0.296750 0.529613 0.261266
0.354710 0.528737 0.235071
0.408197 0.526759 0.193977
0.460176 0.523182 0.130476
0.509270 0.518529 0.023675
0.550140 0.515444 0.023695
0.584344 0.515137 0.015261
0.617460 0.514890 0.015432
0.650136 0.514450 0.023895
0.682497 0.513777 0.021483
0.714431 0.512862 0.013643
0.745843 0.511803 0.016034
0.776795 0.510655 0.022210
0.807385 0.509368 0.019491
0.836415 0.508157 0.028670
0.861735 0.507030 0.029357
0.881899 0.506135 0.028947
0.896781 0.505355 0.019489
0.906803 0.504931 0.024348
0.913442 0.504503 0.013641
0.115037 0.536046 0.388573
0.115102 0.536048 0.388573
0.114572 0.536106 0.388478
0.116168 0.536313 0.388255
0.116690 0.537010 0.387311
0.120191 0.538138 0.385777
0.126084 0.539777 0.383339
0.131259 0.542087 0.379281
0.139863 0.544941 0.373379
0.149251 0.548445 0.364335
0.159302 0.552587 0.350376
0.170143 0.557291 0.328358
0.199687 0.561344 0.298853
0.277706 0.561294 0.285796
0.339564 0.560848 0.266588
0.393985 0.559781 0.236517
0.445634 0.557529 0.190716
0.496287 0.553807 0.122080
0.543767 0.549238 0.019880
0.583666 0.546440 0.021598
0.617538 0.546200 0.014016
0.650488 0.546011 0.011075
0.683014 0.545595 0.020887
0.715204 0.544921 0.014108
0.746850 0.544105 0.025547
0.778166 0.543126 0.026599
0.809078 0.541931 0.019134
0.838492 0.540765 0.023226
0.864099 0.539704 0.023703
0.884328 0.538828 0.027414
0.899156 0.538180 0.028934
0.909265 0.537646 0.024388
0.915913 0.537286 0.017363
0.123272 0.567274 0.408623
0.123331 0.567276 0.408623
0.121977 0.567356 0.408460
0.124245 0.567520 0.408304
0.124069 0.568178 0.407323
0.127096 0.569215 0.405810
0.131284 0.570758 0.403345
0.138097 0.572799 0.399724
0.144488 0.575474 0.394099
0.154378 0.578641 0.386140
0.164358 0.582420 0.374140
0.174165 0.586780 0.355765
0.184038 0.591597 0.326755
0.253320 0.592899 0.309202
0.320763 0.592802 0.294169
0.378105 0.592272 0.271768
0.430674 0.590956 0.237931
0.481551 0.588363 0.187685
0.531615 0.584402 0.111595
0.578082 0.579817 0.024718
0.617259 0.577160 0.025655
0.650861 0.576952 0.020715
0.683591 0.576793 0.017688
0.715947 0.576453 0.025558
0.747920 0.575850 0.025256
0.779419 0.575061 0.029387
0.810719 0.574081 0.015462
0.840405 0.573032 0.018979
0.866078 0.572113 0.031250
0.886586 0.571269 0.029575
0.901580 0.570535 0.018306
0.911647 0.570050 0.015676
0.918079 0.569808 0.027798
0.129299 0.598423 0.428928
0.129355 0.598425 0.428928
0.129980 0.598439 0.428929
0.129761 0.598663 0.428578
0.130320 0.599243 0.427691
0.134504 0.600151 0.426358
0.137253 0.601606 0.423903
0.143661 0.603480 0.420504
0.150396 0.605912 0.415397
0.158338 0.608881 0.408011
0.167387 0.612385 0.397313
0.177672 0.616379 0.381694
0.187729 0.620845 0.357942
0.223732 0.624229 0.330640
0.300002 0.624334 0.318362
0.361665 0.624113 0.300796
0.416331 0.623368 0.274931
0.467839 0.621702 0.237382
0.518082 0.618749 0.182258
0.567436 0.614601 0.095930
0.612698 0.610051 0.023525
0.651109 0.607602 0.023503
0.684371 0.607449 0.021833
0.716853 0.607328 0.019313
0.748931 0.607003 0.028066
0.780720 0.606502 0.030222
0.812161 0.605716 0.019031
0.842133 0.604865 0.019811
0.868043 0.604036 0.029598
0.888732 0.603248 0.023861
0.903764 0.602679 0.020802
0.913673 0.602281 0.031284
0.920291 0.601926 0.021554
0.134736 0.629463 0.448768
0.134789 0.629464 0.448768
0.135386 0.629478 0.448768
0.136956 0.629630 0.448577
0.138577 0.630130 0.447805
0.139534 0.631059 0.446229
0.144886 0.632310 0.444117
0.149351 0.634090 0.440704
0.156254 0.636313 0.435949
0.163941 0.639046 0.429133
0.173010 0.642264 0.419516
0.182448 0.645978 0.405660
0.192587 0.650113 0.385477
0.200641 0.654664 0.354216
0.278085 0.655410 0.340400
0.344887 0.655416 0.326100
0.402331 0.655043 0.305716
0.454871 0.654044 0.276183
0.505356 0.652028 0.234376
0.554964 0.648741 0.173870
0.603518 0.644464 0.069102
0.647450 0.640005 0.024540
0.685068 0.637790 0.019456
0.717947 0.637711 0.024409
0.750154 0.637638 0.024149
0.782096 0.637338 0.013854
0.813599 0.636859 0.022575
0.843736 0.636219 0.024806
0.869960 0.635504 0.020382
0.890816 0.634892 0.015206
0.905755 0.634420 0.025481
0.915728 0.634087 0.033176
0.922346 0.633730 0.014675
0.143542 0.660278 0.468335
0.143591 0.660279 0.468335
0.141856 0.660359 0.468131
0.143140 0.660506 0.467922
0.143869 0.660991 0.467084
0.146911 0.661785 0.465734
0.150560 0.662985 0.463532
0.155664 0.664601 0.460324
0.161898 0.666666 0.455751
0.169055 0.669200 0.449322
0.177153 0.672201 0.440352
0.187102 0.675611 0.427979
0.196485 0.679477 0.410138
0.205051 0.683714 0.383795
0.254401 0.686125 0.360789
0.327458 0.686308 0.348768
0.388209 0.686197 0.332174
0.442529 0.685637 0.308712
0.493428 0.684347 0.275353
0.543058 0.681977 0.229200
0.592002 0.678403 0.162623
0.639647 0.674001 0.023990
0.682193 0.669709 0.013089
0.719027 0.667781 0.022042
0.751498 0.667791 0.032712
0.783523 0.667752 0.013806
0.815012 0.667504 0.032076
0.845354 0.667088 0.025646
0.871779 0.666581 0.014752
0.892502 0.666123 0.033742
0.907722 0.665682 0.009880
0.917564 0.665410 0.033886
0.924058 0.665194 0.032412
0.150283 0.691028 0.487217
0.150329 0.691029 0.487217
0.148488 0.691108 0.486999
0.149509 0.691250 0.486771
0.151748 0.691655 0.486086
0.154061 0.692406 0.484701
0.157753 0.693509 0.482568
0.161992 0.695025 0.479386
0.167794 0.696943 0.474972
0.174076 0.699310 0.468795
0.182209 0.702080 0.460459
0.190627 0.705292 0.448894
0.200735 0.708852 0.433055
0.209366 0.712807 0.410132
0.228343 0.716529 0.380050
0.308712 0.716893 0.369337
0.373821 0.716945 0.355820
0.430328 0.716695 0.336704
0.482281 0.715914 0.309999
0.531896 0.714314 0.272772
0.580659 0.711610 0.221308
0.629008 0.707811 0.148623
0.675494 0.703190 0.031720
0.716840 0.699306 0.026722
0.752910 0.697577 0.002731
0.784986 0.697676 0.034055
0.816714 0.697699 0.021598
0.847014 0.697500 0.023977
0.873404 0.697189 0.027085
0.894348 0.696928 0.035365
0.909369 0.696565 0.028969
0.919506 0.696329 0.006362
0.925841 0.696177 0.026847
0.155909 0.721679 0.505553
0.155953 0.721680 0.505553
0.156456 0.721691 0.505551
0.157222 0.721828 0.505306
0.158757 0.722220 0.504570
0.159813 0.722949 0.503087
0.163925 0.723957 0.501048
0.167189 0.725387 0.497853
0.174217 0.727122 0.493757
0.179862 0.729332 0.487807
0.187733 0.731904 0.479956
0.195581 0.734900 0.469177
0.205714 0.738206 0.454817
0.213625 0.741926 0.434297
0.221908 0.745854 0.405193
0.289514 0.747151 0.389119
0.358575 0.747398 0.377218
0.417680 0.747376 0.361242
0.471149 0.746956 0.339388
0.521354 0.745923 0.309296
0.569996 0.744000 0.268117
0.618219 0.740994 0.212958
0.665742 0.737022 0.129694
0.711054 0.732328 0.017186
0.751293 0.728776 0.013593
0.786594 0.727279 0.024230
0.818317 0.727405 0.030804
0.848728 0.727499 0.022991
0.875107 0.727419 0.035189
0.896125 0.727247 0.031115
0.911066 0.727029 0.030460
0.921002 0.726922 0.036123
0.927441 0.726758 0.025372
0.164225 0.752125 0.523788
0.164267 0.752126 0.523787
0.162236 0.752203 0.523540
0.162779 0.752336 0.523278
0.166154 0.752649 0.522737
0.166028 0.753358 0.521158
0.170814 0.754271 0.519243
0.174472 0.755585 0.516185
0.180059 0.757233 0.512082
0.185722 0.759281 0.506401
0.192730 0.761694 0.498868
0.200916 0.764465 0.488872
0.209881 0.767580 0.475484
0.217916 0.771050 0.456996
0.226584 0.774733 0.431509
0.268167 0.777201 0.407774
0.342653 0.777580 0.397413
0.404665 0.777740 0.383814
0.459924 0.777592 0.365611
0.511089 0.776982 0.340947
0.559932 0.775684 0.307519
0.607762 0.773457 0.262533
0.655238 0.770190 0.201370
0.702052 0.766103 0.102895
0.746137 0.761386 0.021546
0.785284 0.758094 0.031906
0.820009 0.756877 0.031843
0.850445 0.757073 0.025314
0.876891 0.757190 0.025664
0.897792 0.757142 0.026867
0.912695 0.757121 0.033570
0.922626 0.757006 0.017864
0.929905 0.757888 0.020448
0.170626 0.782484 0.541574
0.170666 0.782485 0.541573
0.171117 0.782495 0.541570
0.171436 0.782623 0.541292
0.171720 0.782992 0.540457
0.174843 0.783566 0.539241
0.175663 0.784518 0.536955
0.179547 0.785732 0.534002
0.185117 0.787263 0.530036
0.191360 0.789150 0.524668
0.197432 0.791421 0.517390
0.205830 0.793993 0.508049
0.214410 0.796909 0.495595
0.223069 0.800132 0.478890
0.230650 0.803633 0.455896
0.244551 0.807036 0.425967
0.325823 0.807527 0.416851
0.391123 0.807840 0.405114
0.447966 0.807937 0.389220
0.500458 0.807643 0.368673
0.549917 0.806823 0.341156
