color-grading/luts/02_looks/BNC_L07_Eterna.cube
TITLE "BNC L07 Eterna"
# BNC Grade v1.0 — Fujifilm Eterna-style flat, low-contrast cinema stock emulation with soft highlights and gentle desaturation.
# Input: Rec.709 Gamma 2.4 | Output: Rec.709 Gamma 2.4
LUT_3D_SIZE 5
DOMAIN_MIN 0.0 0.0 0.0
DOMAIN_MAX 1.0 1.0 1.0
0.031468 0.037310 0.039257
0.237234 0.095301 0.085447
0.446060 0.156911 0.133259
0.651845 0.213661 0.176908
0.834431 0.262831 0.214857
0.065466 0.258709 0.158473
0.252803 0.267527 0.135410
0.459161 0.285822 0.161298
0.661384 0.312560 0.195843
0.841715 0.342818 0.229306
0.166320 0.473300 0.274156
0.279975 0.478260 0.277206
0.481408 0.488822 0.226012
0.683153 0.502502 0.245548
0.861241 0.517210 0.271014
0.247182 0.683965 0.387754
0.326312 0.687260 0.391140
0.494387 0.697589 0.386125
0.702004 0.706855 0.313679
0.884443 0.717291 0.324094
0.316907 0.870859 0.485583
0.376805 0.873395 0.488384
0.522970 0.881655 0.492437
0.706691 0.894303 0.465990
0.898461 0.900589 0.388034
0.001185 0.082940 0.219344
0.239661 0.100128 0.252359
0.448081 0.156554 0.270712
0.653535 0.213208 0.289701
0.835851 0.262650 0.309594
0.100688 0.262407 0.266105
0.261764 0.272008 0.275491
0.462760 0.287284 0.285929
0.663687 0.313132 0.301387
0.843453 0.343196 0.319543
0.192138 0.475354 0.339882
0.294363 0.480346 0.348467
0.488309 0.492541 0.321327
0.687322 0.505329 0.334650
0.864075 0.518871 0.349834
0.264188 0.685811 0.433512
0.338645 0.689150 0.438203
0.502890 0.699729 0.440675
0.707218 0.710032 0.381338
0.888295 0.720266 0.390507
0.329697 0.872589 0.520179
0.387256 0.875153 0.523492
0.530610 0.883525 0.530009
0.712370 0.896658 0.510539
0.902716 0.903422 0.440386
0.003702 0.144335 0.400221
0.240976 0.133428 0.440543
0.449669 0.167826 0.455186
0.655040 0.216157 0.469533
0.837574 0.263453 0.482292
0.107634 0.269534 0.451386
0.260910 0.275169 0.457492
0.463920 0.290403 0.468483
0.665789 0.314951 0.479547
0.845789 0.344271 0.490332
0.218839 0.483229 0.482662
0.315310 0.488150 0.487941
0.503894 0.504097 0.504066
0.694890 0.510886 0.508617
0.869540 0.522239 0.514660
0.307222 0.691851 0.539899
0.371672 0.695242 0.546920
0.525620 0.706344 0.566481
0.721914 0.720037 0.539653
0.899174 0.728893 0.546801
0.366086 0.878074 0.612933
0.417510 0.880729 0.617585
0.552639 0.889457 0.630623
0.730387 0.903856 0.631845
0.915823 0.912604 0.577568
0.007230 0.195660 0.590940
0.240737 0.178115 0.627721
0.450442 0.196538 0.639742
0.654981 0.230292 0.652798
0.837228 0.270054 0.664478
0.110290 0.285849 0.635374
0.260027 0.289669 0.640257
0.462342 0.301215 0.650831
0.664774 0.321715 0.662230
0.845381 0.348126 0.672309
0.224127 0.487194 0.666753
0.316851 0.490710 0.670861
0.497834 0.500405 0.681253
0.694031 0.512011 0.690574
0.870774 0.524195 0.696285
0.324664 0.701987 0.697708
0.388967 0.705426 0.701351
0.545205 0.716903 0.713248
0.741674 0.736561 0.732684
0.910127 0.738155 0.732532
0.409900 0.887829 0.732935
0.457301 0.890410 0.737662
0.584890 0.899206 0.754480
0.757308 0.915014 0.782230
0.935826 0.928178 0.758825
0.010705 0.233582 0.767061
0.240324 0.219127 0.795487
0.450128 0.230455 0.805917
0.654082 0.253125 0.817878
0.835588 0.283957 0.828850
0.112716 0.306935 0.801285
0.259175 0.309787 0.805353
0.460317 0.318509 0.815113
0.662487 0.334571 0.826296
0.843115 0.356640 0.836216
0.223385 0.492098 0.829496
0.314167 0.494721 0.832856
0.492300 0.502389 0.841886
0.688735 0.513502 0.851984
0.867341 0.525917 0.859188
0.329469 0.705009 0.864293
0.392040 0.707876 0.867483
0.544530 0.716921 0.877290
0.733275 0.729479 0.889951
0.908317 0.737654 0.896237
0.419160 0.897823 0.889145
0.466593 0.900561 0.892043
0.596370 0.909846 0.901794
0.775153 0.926750 0.919228
0.956620 0.946817 0.939381
