color-grading/luts/02_looks/BNC_L11_Acros.cube
TITLE "BNC L11 Acros"
# BNC Grade v1.0 — Fujifilm Acros-style fine-grain black & white with punchy contrast and a gentle toe.
# Input: Rec.709 Gamma 2.4 | Output: Rec.709 Gamma 2.4
LUT_3D_SIZE 33
DOMAIN_MIN 0.0 0.0 0.0
DOMAIN_MAX 1.0 1.0 1.0
0.001404 0.001404 0.001404
0.003266 0.003266 0.003266
0.007451 0.007451 0.007451
0.016271 0.016271 0.016271
0.032439 0.032439 0.032439
0.055461 0.055461 0.055461
0.080883 0.080883 0.080883
0.107526 0.107526 0.107526
0.134978 0.134978 0.134978
0.162828 0.162828 0.162828
0.190668 0.190668 0.190668
0.218085 0.218085 0.218085
0.244669 0.244669 0.244669
0.270463 0.270463 0.270463
0.296229 0.296229 0.296229
0.321995 0.321995 0.321995
0.347762 0.347762 0.347762
0.373528 0.373528 0.373528
0.399294 0.399294 0.399294
0.425061 0.425061 0.425061
0.450827 0.450827 0.450827
0.476594 0.476594 0.476594
0.502360 0.502360 0.502360
0.528126 0.528126 0.528126
0.553893 0.553893 0.553893
0.579659 0.579659 0.579659
0.605425 0.605425 0.605425
0.631192 0.631192 0.631192
0.656958 0.656958 0.656958
0.682724 0.682724 0.682724
0.708491 0.708491 0.708491
0.734257 0.734257 0.734257
0.760024 0.760024 0.760023
0.003266 0.003266 0.003266
0.004318 0.004318 0.004318
0.008408 0.008408 0.008408
0.017364 0.017364 0.017364
0.033650 0.033650 0.033650
0.056536 0.056536 0.056536
0.081766 0.081766 0.081766
0.108265 0.108265 0.108265
0.135605 0.135605 0.135605
0.163364 0.163364 0.163364
0.191126 0.191126 0.191126
0.218477 0.218477 0.218477
0.245003 0.245003 0.245003
0.270759 0.270759 0.270758
0.296496 0.296496 0.296496
0.322238 0.322238 0.322238
0.347983 0.347983 0.347983
0.373731 0.373731 0.373731
0.399482 0.399482 0.399482
0.425235 0.425235 0.425235
0.450989 0.450989 0.450989
0.476745 0.476745 0.476745
0.502502 0.502502 0.502502
0.528259 0.528259 0.528259
0.554018 0.554018 0.554018
0.579778 0.579777 0.579777
0.605538 0.605538 0.605537
0.631298 0.631298 0.631298
0.657059 0.657059 0.657059
0.682821 0.682821 0.682821
0.708583 0.708583 0.708583
0.734345 0.734345 0.734345
0.760107 0.760107 0.760107
0.007451 0.007451 0.007451
0.008408 0.008408 0.008408
0.012662 0.012662 0.012662
0.022196 0.022196 0.022196
0.038821 0.038821 0.038821
0.061028 0.061028 0.061028
0.085480 0.085480 0.085480
0.111390 0.111390 0.111390
0.138263 0.138263 0.138263
0.165639 0.165639 0.165639
0.193076 0.193076 0.193076
0.220146 0.220146 0.220146
0.246425 0.246425 0.246425
0.272020 0.272020 0.272020
0.297634 0.297634 0.297634
0.323271 0.323271 0.323271
0.348928 0.348928 0.348928
0.374600 0.374599 0.374599
0.400284 0.400284 0.400284
0.425978 0.425978 0.425978
0.451681 0.451681 0.451681
0.477391 0.477391 0.477391
0.503107 0.503107 0.503107
0.528829 0.528829 0.528829
0.554554 0.554554 0.554554
0.580284 0.580284 0.580284
0.606017 0.606017 0.606017
0.631753 0.631753 0.631753
0.657492 0.657492 0.657491
0.683232 0.683232 0.683232
0.708975 0.708975 0.708975
0.734720 0.734720 0.734720
0.760466 0.760466 0.760466
0.016271 0.016271 0.016271
0.017364 0.017364 0.017364
0.022196 0.022196 0.022196
0.032531 0.032531 0.032531
0.049054 0.049054 0.049054
0.069674 0.069674 0.069674
0.092741 0.092741 0.092741
0.117558 0.117558 0.117558
0.143540 0.143540 0.143540
0.170171 0.170171 0.170171
0.196971 0.196971 0.196971
0.223486 0.223486 0.223486
0.249273 0.249273 0.249273
0.274562 0.274562 0.274562
0.299929 0.299929 0.299929
0.325359 0.325359 0.325359
0.350837 0.350837 0.350837
0.376355 0.376355 0.376355
0.401906 0.401906 0.401906
0.427483 0.427483 0.427483
0.453082 0.453082 0.453082
0.478700 0.478700 0.478700
0.504335 0.504335 0.504334
0.529982 0.529982 0.529982
0.555642 0.555642 0.555642
0.581311 0.581311 0.581311
0.606989 0.606989 0.606989
0.632676 0.632676 0.632675
0.658368 0.658368 0.658368
0.684067 0.684067 0.684067
0.709772 0.709772 0.709771
0.735481 0.735481 0.735480
0.761194 0.761194 0.761194
0.032439 0.032439 0.032439
0.033650 0.033650 0.033650
0.038821 0.038821 0.038821
0.049054 0.049054 0.049054
0.063926 0.063926 0.063926
0.082409 0.082409 0.082409
0.103667 0.103667 0.103667
0.126964 0.126964 0.126964
0.151660 0.151660 0.151660
0.177187 0.177187 0.177187
0.203026 0.203026 0.203026
0.228692 0.228692 0.228692
0.253735 0.253735 0.253735
0.278571 0.278571 0.278571
0.303558 0.303558 0.303558
0.328664 0.328664 0.328664
0.353865 0.353865 0.353865
0.379142 0.379142 0.379142
0.404483 0.404483 0.404483
0.429875 0.429875 0.429875
0.455312 0.455312 0.455312
0.480785 0.480785 0.480785
0.506289 0.506289 0.506289
0.531820 0.531820 0.531820
0.557374 0.557374 0.557374
0.582948 0.582948 0.582948
0.608540 0.608540 0.608540
0.634147 0.634147 0.634147
0.659767 0.659767 0.659767
0.685400 0.685400 0.685399
0.711042 0.711042 0.711042
0.736695 0.736695 0.736695
0.762355 0.762355 0.762355
0.055461 0.055461 0.055461
0.056536 0.056536 0.056536
0.061028 0.061028 0.061028
0.069674 0.069674 0.069674
0.082409 0.082409 0.082409
0.098737 0.098737 0.098737
0.117992 0.117992 0.117992
0.139490 0.139490 0.139490
0.162591 0.162591 0.162591
0.186705 0.186705 0.186705
0.211284 0.211284 0.211284
0.235819 0.235819 0.235819
0.259926 0.259926 0.259926
0.284157 0.284157 0.284157
0.308629 0.308629 0.308629
0.333294 0.333294 0.333294
0.358113 0.358113 0.358113
0.383060 0.383060 0.383059
0.408110 0.408110 0.408110
0.433246 0.433246 0.433246
0.458456 0.458456 0.458456
0.483726 0.483726 0.483726
0.509050 0.509050 0.509049
0.534417 0.534417 0.534417
0.559824 0.559824 0.559824
0.585265 0.585264 0.585264
0.610734 0.610734 0.610734
0.636230 0.636230 0.636230
0.661748 0.661748 0.661748
0.687287 0.687286 0.687286
0.712843 0.712843 0.712843
0.738415 0.738415 0.738415
0.764002 0.764002 0.764002
0.080883 0.080883 0.080883
0.081766 0.081766 0.081766
0.085480 0.085480 0.085480
0.092741 0.092741 0.092741
0.103667 0.103667 0.103667
0.117992 0.117992 0.117992
0.135228 0.135228 0.135228
0.154799 0.154799 0.154799
0.176107 0.176107 0.176106
0.198572 0.198572 0.198572
0.221645 0.221645 0.221645
0.244799 0.244799 0.244799
0.267877 0.267877 0.267877
0.291364 0.291364 0.291364
0.315197 0.315197 0.315197
0.339309 0.339309 0.339309
0.363648 0.363648 0.363648
0.388173 0.388173 0.388173
0.412852 0.412852 0.412852
0.437661 0.437661 0.437661
0.462578 0.462578 0.462578
0.487587 0.487587 0.487587
0.512676 0.512676 0.512676
0.537832 0.537832 0.537832
0.563047 0.563047 0.563047
0.588313 0.588313 0.588313
0.613624 0.613624 0.613624
0.638974 0.638974 0.638974
0.664359 0.664359 0.664359
0.689774 0.689774 0.689774
0.715217 0.715217 0.715217
0.740685 0.740685 0.740685
0.766174 0.766174 0.766174
0.107526 0.107526 0.107526
0.108265 0.108265 0.108265
0.111390 0.111390 0.111390
0.117558 0.117558 0.117558
0.126964 0.126964 0.126964
0.139490 0.139490 0.139490
0.154799 0.154799 0.154799
0.172424 0.172424 0.172424
0.191841 0.191841 0.191841
0.212508 0.212508 0.212508
0.233887 0.233887 0.233887
0.255488 0.255488 0.255488
0.277554 0.277554 0.277554
0.300185 0.300185 0.300185
0.323273 0.323273 0.323273
0.346733 0.346733 0.346733
0.370499 0.370499 0.370499
0.394519 0.394519 0.394519
0.418751 0.418751 0.418751
0.443161 0.443161 0.443161
0.467721 0.467721 0.467721
0.492411 0.492411 0.492411
0.517211 0.517211 0.517211
0.542107 0.542107 0.542107
0.567085 0.567085 0.567085
0.592136 0.592136 0.592136
0.617250 0.617249 0.617249
0.642419 0.642419 0.642419
0.667638 0.667638 0.667638
0.692901 0.692901 0.692901
0.718203 0.718203 0.718202
0.743539 0.743539 0.743539
0.768907 0.768907 0.768907
0.134978 0.134978 0.134978
0.135605 0.135605 0.135605
0.138263 0.138263 0.138263
0.143540 0.143540 0.143540
0.151660 0.151660 0.151660
0.162591 0.162591 0.162591
0.176107 0.176107 0.176106
0.191841 0.191841 0.191841
0.209347 0.209347 0.209347
0.228135 0.228135 0.228135
0.247699 0.247699 0.247699
0.267874 0.267874 0.267874
0.288880 0.288880 0.288880
0.310573 0.310573 0.310573
0.332830 0.332830 0.332830
0.355555 0.355555 0.355555
0.378669 0.378669 0.378669
0.402109 0.402109 0.402109
0.425822 0.425822 0.425822
0.449768 0.449768 0.449768
0.473912 0.473912 0.473912
0.498226 0.498226 0.498226
0.522686 0.522686 0.522686
0.547273 0.547273 0.547273
0.571970 0.571970 0.571970
0.596764 0.596764 0.596764
0.621643 0.621643 0.621642
0.646596 0.646596 0.646596
0.671617 0.671616 0.671616
0.696696 0.696696 0.696696
0.721828 0.721828 0.721828
0.747007 0.747007 0.747007
0.772229 0.772229 0.772229
0.162828 0.162828 0.162828
0.163364 0.163364 0.163364
0.165639 0.165639 0.165639
0.170171 0.170171 0.170171
0.177187 0.177187 0.177187
0.186705 0.186705 0.186705
0.198572 0.198572 0.198572
0.212508 0.212508 0.212508
0.228135 0.228135 0.228135
0.245022 0.245022 0.245022
0.262875 0.262875 0.262875
0.281835 0.281835 0.281835
0.301743 0.301743 0.301743
0.322445 0.322445 0.322445
0.343812 0.343812 0.343812
0.365739 0.365739 0.365739
0.388136 0.388136 0.388136
0.410931 0.410931 0.410931
0.434065 0.434065 0.434065
0.457489 0.457489 0.457489
0.481160 0.481160 0.481160
0.505045 0.505045 0.505045
0.529116 0.529116 0.529116
0.553349 0.553349 0.553349
0.577722 0.577722 0.577722
0.602219 0.602219 0.602219
0.626826 0.626826 0.626825
0.651529 0.651529 0.651529
0.676318 0.676317 0.676317
0.701183 0.701183 0.701183
0.726117 0.726117 0.726117
0.751112 0.751112 0.751112
0.776163 0.776163 0.776163
0.190668 0.190668 0.190668
0.191126 0.191126 0.191126
0.193076 0.193076 0.193076
0.196971 0.196971 0.196971
0.203026 0.203026 0.203026
0.211284 0.211284 0.211284
0.221645 0.221645 0.221645
0.233887 0.233887 0.233887
0.247699 0.247699 0.247699
0.262875 0.262875 0.262875
0.279440 0.279440 0.279440
0.297209 0.297209 0.297209
0.316013 0.316013 0.316013
0.335701 0.335701 0.335701
0.356142 0.356142 0.356142
0.377225 0.377225 0.377225
0.398857 0.398857 0.398857
0.420958 0.420958 0.420958
0.443461 0.443461 0.443461
0.466311 0.466311 0.466311
0.489461 0.489461 0.489461
0.512872 0.512872 0.512872
0.536508 0.536508 0.536508
0.560344 0.560344 0.560343
0.584353 0.584353 0.584353
0.608515 0.608515 0.608515
0.632813 0.632813 0.632813
0.657232 0.657232 0.657232
0.681758 0.681758 0.681758
0.706380 0.706380 0.706380
0.731087 0.731087 0.731087
0.755872 0.755872 0.755872
0.780727 0.780727 0.780727
0.218085 0.218085 0.218085
0.218477 0.218477 0.218477
0.220146 0.220146 0.220146
0.223486 0.223486 0.223486
0.228692 0.228692 0.228692
0.235819 0.235819 0.235819
0.244799 0.244799 0.244799
0.255488 0.255488 0.255488
0.267874 0.267874 0.267874
0.281835 0.281835 0.281835
0.297209 0.297209 0.297209
0.313834 0.313834 0.313834
0.331553 0.331553 0.331553
0.350227 0.350227 0.350227
0.369727 0.369727 0.369727
0.389942 0.389942 0.389942
0.410775 0.410775 0.410775
0.432144 0.432144 0.432144
0.453977 0.453977 0.453977
0.476213 0.476213 0.476213
0.498801 0.498801 0.498801
0.521695 0.521695 0.521695
0.544858 0.544858 0.544858
0.568257 0.568257 0.568257
0.591865 0.591865 0.591865
0.615657 0.615657 0.615657
0.639614 0.639614 0.639614
0.663716 0.663716 0.663716
0.687948 0.687948 0.687948
0.712298 0.712298 0.712298
0.736752 0.736752 0.736752
0.761301 0.761300 0.761300
0.785935 0.785935 0.785935
0.244669 0.244669 0.244669
0.245003 0.245003 0.245003
0.246425 0.246425 0.246425
0.249273 0.249273 0.249273
0.253735 0.253735 0.253735
0.259926 0.259926 0.259926
0.267877 0.267877 0.267877
0.277554 0.277554 0.277554
0.288880 0.288880 0.288880
0.301743 0.301743 0.301743
0.316013 0.316013 0.316013
0.331553 0.331553 0.331553
0.348228 0.348228 0.348228
0.365906 0.365906 0.365906
0.384468 0.384468 0.384468
0.403806 0.403806 0.403806
0.423824 0.423824 0.423824
0.444437 0.444437 0.444437
0.465570 0.465570 0.465570
0.487160 0.487160 0.487160
0.509152 0.509152 0.509151
0.531495 0.531495 0.531495
0.554150 0.554150 0.554150
0.577080 0.577080 0.577080
0.600254 0.600254 0.600254
0.623644 0.623644 0.623644
0.647227 0.647227 0.647227
0.670983 0.670983 0.670983
0.694894 0.694894 0.694894
0.718944 0.718943 0.718943
0.743118 0.743118 0.743118
0.767406 0.767406 0.767406
0.791796 0.791796 0.791796
0.270463 0.270463 0.270463
0.270759 0.270759 0.270758
0.272020 0.272020 0.272020
0.274562 0.274562 0.274562
0.278571 0.278571 0.278571
0.284157 0.284157 0.284157
0.291364 0.291364 0.291364
0.300185 0.300185 0.300185
0.310573 0.310573 0.310573
0.322445 0.322445 0.322445
0.335701 0.335701 0.335701
0.350227 0.350227 0.350227
0.365906 0.365906 0.365906
0.382622 0.382622 0.382621
0.400264 0.400264 0.400264
0.418731 0.418731 0.418731
0.437928 0.437928 0.437928
0.457772 0.457772 0.457772
0.478189 0.478189 0.478188
0.499111 0.499111 0.499110
0.520480 0.520480 0.520480
0.542247 0.542247 0.542247
0.564365 0.564365 0.564365
0.586797 0.586797 0.586797
0.609508 0.609508 0.609507
0.632467 0.632467 0.632467
0.655650 0.655650 0.655650
0.679032 0.679032 0.679032
0.702595 0.702595 0.702595
0.726319 0.726319 0.726319
0.750190 0.750190 0.750190
0.774193 0.774193 0.774193
0.798316 0.798316 0.798316
0.296229 0.296229 0.296229
0.296496 0.296496 0.296496
0.297634 0.297634 0.297634
0.299929 0.299929 0.299929
0.303558 0.303558 0.303558
0.308629 0.308629 0.308629
0.315197 0.315197 0.315197
0.323273 0.323273 0.323273
0.332830 0.332830 0.332830
0.343812 0.343812 0.343812
0.356142 0.356142 0.356142
0.369727 0.369727 0.369727
0.384468 0.384468 0.384468
0.400264 0.400264 0.400264
0.417016 0.417016 0.417015
0.434627 0.434627 0.434627
0.453011 0.453011 0.453011
0.472085 0.472085 0.472085
0.491775 0.491775 0.491775
0.512015 0.512015 0.512015
0.532746 0.532746 0.532746
0.553915 0.553915 0.553915
0.575475 0.575475 0.575475
0.597385 0.597385 0.597385
0.619609 0.619609 0.619609
0.642114 0.642113 0.642113
0.664871 0.664871 0.664871
0.687856 0.687856 0.687856
0.711046 0.711046 0.711046
0.734422 0.734422 0.734422
0.757966 0.757966 0.757966
0.781663 0.781663 0.781663
0.805498 0.805498 0.805498
0.321995 0.321995 0.321995
0.322238 0.322238 0.322238
0.323271 0.323271 0.323271
0.325359 0.325359 0.325359
0.328664 0.328664 0.328664
0.333294 0.333294 0.333294
0.339309 0.339309 0.339309
0.346733 0.346733 0.346733
0.355555 0.355555 0.355555
0.365739 0.365739 0.365739
0.377225 0.377225 0.377225
0.389942 0.389942 0.389942
0.403806 0.403806 0.403806
0.418731 0.418731 0.418731
0.434627 0.434627 0.434627
0.451409 0.451409 0.451409
0.468995 0.468995 0.468995
0.487305 0.487305 0.487305
0.506270 0.506270 0.506270
0.525823 0.525823 0.525823
0.545905 0.545905 0.545905
0.566463 0.566463 0.566463
0.587448 0.587448 0.587448
0.608819 0.608819 0.608818
0.630535 0.630535 0.630535
0.652564 0.652564 0.652564
0.674876 0.674876 0.674875
0.697442 0.697442 0.697442
0.720239 0.720239 0.720239
0.743245 0.743245 0.743245
0.766442 0.766442 0.766442
0.789812 0.789812 0.789812
0.813340 0.813340 0.813340
0.347762 0.347762 0.347762
0.347983 0.347983 0.347983
0.348928 0.348928 0.348928
0.350837 0.350837 0.350837
0.353865 0.353865 0.353865
0.358113 0.358113 0.358113
0.363648 0.363648 0.363648
0.370499 0.370499 0.370499
0.378669 0.378669 0.378669
0.388136 0.388136 0.388136
0.398857 0.398857 0.398857
0.410775 0.410775 0.410775
0.423824 0.423824 0.423824
0.437928 0.437928 0.437928
0.453011 0.453011 0.453011
0.468995 0.468995 0.468995
0.485803 0.485803 0.485803
0.503365 0.503365 0.503365
0.521611 0.521611 0.521611
0.540478 0.540478 0.540478
0.559908 0.559908 0.559908
0.579848 0.579847 0.579847
0.600248 0.600248 0.600248
0.621065 0.621065 0.621065
0.642260 0.642260 0.642260
0.663798 0.663798 0.663798
0.685645 0.685645 0.685645
0.707775 0.707775 0.707775
0.730160 0.730160 0.730160
0.752779 0.752779 0.752779
0.775610 0.775610 0.775610
0.798636 0.798636 0.798636
0.821838 0.821838 0.821838
0.373528 0.373528 0.373528
0.373731 0.373731 0.373731
0.374600 0.374599 0.374599
0.376355 0.376355 0.376355
0.379142 0.379142 0.379142
0.383060 0.383060 0.383059
0.388173 0.388173 0.388173
0.394519 0.394519 0.394519
0.402109 0.402109 0.402109
0.410931 0.410931 0.410931
0.420958 0.420958 0.420958
0.432144 0.432144 0.432144
0.444437 0.444437 0.444437
0.457772 0.457772 0.457772
0.472085 0.472085 0.472085
0.487305 0.487305 0.487305
0.503365 0.503365 0.503365
0.520197 0.520197 0.520197
0.537738 0.537738 0.537738
0.555927 0.555927 0.555927
0.574707 0.574707 0.574707
0.594026 0.594026 0.594025
0.613835 0.613835 0.613835
0.634092 0.634091 0.634091
0.654755 0.654754 0.654754
0.675788 0.675788 0.675788
0.697158 0.697158 0.697158
0.718837 0.718837 0.718836
0.740795 0.740795 0.740795
0.763010 0.763010 0.763010
0.785460 0.785460 0.785460
0.808124 0.808124 0.808124
0.830985 0.830985 0.830985
0.399294 0.399294 0.399294
0.399482 0.399482 0.399482
0.400284 0.400284 0.400284
0.401906 0.401906 0.401906
0.404483 0.404483 0.404483
0.408110 0.408110 0.408110
0.412852 0.412852 0.412852
0.418751 0.418751 0.418751
0.425822 0.425822 0.425822
0.434065 0.434065 0.434065
0.443461 0.443461 0.443461
0.453977 0.453977 0.453977
0.465570 0.465570 0.465570
0.478189 0.478189 0.478188
0.491775 0.491775 0.491775
0.506270 0.506270 0.506270
0.521611 0.521611 0.521611
0.537738 0.537738 0.537738
0.554591 0.554591 0.554591
0.572114 0.572114 0.572114
0.590251 0.590251 0.590251
0.608952 0.608952 0.608952
0.628170 0.628170 0.628170
0.647862 0.647861 0.647861
0.667986 0.667986 0.667986
0.688507 0.688507 0.688507
0.709390 0.709390 0.709390
0.730605 0.730605 0.730605
0.752125 0.752125 0.752125
0.773923 0.773923 0.773923
0.795977 0.795977 0.795977
0.818266 0.818266 0.818266
0.840771 0.840771 0.840771
0.425061 0.425061 0.425061
0.425235 0.425235 0.425235
0.425978 0.425978 0.425978
0.427483 0.427483 0.427483
0.429875 0.429875 0.429875
0.433246 0.433246 0.433246
0.437661 0.437661 0.437661
0.443161 0.443161 0.443161
0.449768 0.449768 0.449768
0.457489 0.457489 0.457489
0.466311 0.466311 0.466311
0.476213 0.476213 0.476213
0.487160 0.487160 0.487160
0.499111 0.499111 0.499110
0.512015 0.512015 0.512015
0.525823 0.525823 0.525823
0.540478 0.540478 0.540478
0.555927 0.555927 0.555927
0.572114 0.572114 0.572114
0.588985 0.588985 0.588985
0.606491 0.606491 0.606491
0.624582 0.624582 0.624581
0.643212 0.643212 0.643211
0.662338 0.662338 0.662338
0.681921 0.681921 0.681921
0.701925 0.701924 0.701924
0.722314 0.722314 0.722314
0.743058 0.743058 0.743058
0.764128 0.764128 0.764128
0.785499 0.785499 0.785499
0.807147 0.807147 0.807147
0.829049 0.829049 0.829049
0.851185 0.851185 0.851185
0.450827 0.450827 0.450827
0.450989 0.450989 0.450989
0.451681 0.451681 0.451681
0.453082 0.453082 0.453082
0.455312 0.455312 0.455312
0.458456 0.458456 0.458456
0.462578 0.462578 0.462578
0.467721 0.467721 0.467721
0.473912 0.473912 0.473912
0.481160 0.481160 0.481160
0.489461 0.489461 0.489461
0.498801 0.498801 0.498801
0.509152 0.509152 0.509151
0.520480 0.520480 0.520480
0.532746 0.532746 0.532746
0.545905 0.545905 0.545905
0.559908 0.559908 0.559908
0.574707 0.574707 0.574707
0.590251 0.590251 0.590251
0.606491 0.606491 0.606491
0.623379 0.623379 0.623379
0.640870 0.640870 0.640870
0.658918 0.658918 0.658918
0.677484 0.677484 0.677483
0.696526 0.696526 0.696526
0.716010 0.716010 0.716010
0.735902 0.735902 0.735902
0.756169 0.756169 0.756169
0.776784 0.776784 0.776784
0.797719 0.797719 0.797719
0.818950 0.818950 0.818950
0.840456 0.840456 0.840455
0.862187 0.862187 0.862187
0.476594 0.476594 0.476594
0.476745 0.476745 0.476745
0.477391 0.477391 0.477391
0.478700 0.478700 0.478700
0.480785 0.480785 0.480785
0.483726 0.483726 0.483726
0.487587 0.487587 0.487587
0.492411 0.492411 0.492411
0.498226 0.498226 0.498226
0.505045 0.505045 0.505045
0.512872 0.512872 0.512872
0.521695 0.521695 0.521695
0.531495 0.531495 0.531495
0.542247 0.542247 0.542247
0.553915 0.553915 0.553915
0.566463 0.566463 0.566463
0.579848 0.579847 0.579847
0.594026 0.594026 0.594025
0.608952 0.608952 0.608952
0.624582 0.624582 0.624581
0.640870 0.640870 0.640870
0.657773 0.657773 0.657773
0.675250 0.675250 0.675250
0.693260 0.693260 0.693260
0.711766 0.711766 0.711766
0.730732 0.730732 0.730732
0.750125 0.750125 0.750125
0.769913 0.769913 0.769913
0.790067 0.790067 0.790067
0.810561 0.810561 0.810561
0.831370 0.831370 0.831369
0.852470 0.852470 0.852470
0.873642 0.873642 0.873642
0.502360 0.502360 0.502360
0.502502 0.502502 0.502502
0.503107 0.503107 0.503107
0.504335 0.504335 0.504334
0.506289 0.506289 0.506289
0.509050 0.509050 0.509049
0.512676 0.512676 0.512676
0.517211 0.517211 0.517211
0.522686 0.522686 0.522686
0.529116 0.529116 0.529116
0.536508 0.536508 0.536508
0.544858 0.544858 0.544858
0.554150 0.554150 0.554150
0.564365 0.564365 0.564365
0.575475 0.575475 0.575475
0.587448 0.587448 0.587448
0.600248 0.600248 0.600248
0.613835 0.613835 0.613835
0.628170 0.628170 0.628170
0.643212 0.643212 0.643211
0.658918 0.658918 0.658918
0.675250 0.675250 0.675250
0.692167 0.692167 0.692167
0.709632 0.709632 0.709632
0.727607 0.727607 0.727607
0.746059 0.746059 0.746058
0.764954 0.764954 0.764954
0.784262 0.784262 0.784262
0.803954 0.803954 0.803953
0.824003 0.824003 0.824003
0.844384 0.844384 0.844384
0.865023 0.865023 0.865023
0.885369 0.885369 0.885369
0.528126 0.528126 0.528126
0.528259 0.528259 0.528259
0.528829 0.528829 0.528829
0.529982 0.529982 0.529982
0.531820 0.531820 0.531820
0.534417 0.534417 0.534417
0.537832 0.537832 0.537832
0.542107 0.542107 0.542107
0.547273 0.547273 0.547273
0.553349 0.553349 0.553349
0.560344 0.560344 0.560343
0.568257 0.568257 0.568257
0.577080 0.577080 0.577080
0.586797 0.586797 0.586797
0.597385 0.597385 0.597385
0.608819 0.608819 0.608818
0.621065 0.621065 0.621065
0.634092 0.634091 0.634091
0.647862 0.647861 0.647861
0.662338 0.662338 0.662338
0.677484 0.677484 0.677483
0.693260 0.693260 0.693260
0.709632 0.709632 0.709632
0.726561 0.726561 0.726561
0.744014 0.744014 0.744014
0.761957 0.761957 0.761957
0.780359 0.780359 0.780359
0.799189 0.799189 0.799189
0.818418 0.818418 0.818418
0.838021 0.838021 0.838021
0.857964 0.857964 0.857964
0.877918 0.877918 0.877918
0.897055 0.897055 0.897055
0.553893 0.553893 0.553893
0.554018 0.554018 0.554018
0.554554 0.554554 0.554554
0.555642 0.555642 0.555642
0.557374 0.557374 0.557374
0.559824 0.559824 0.559824
0.563047 0.563047 0.563047
0.567085 0.567085 0.567085
0.571970 0.571970 0.571970
0.577722 0.577722 0.577722
0.584353 0.584353 0.584353
0.591865 0.591865 0.591865
0.600254 0.600254 0.600254
0.609508 0.609508 0.609507
0.619609 0.619609 0.619609
0.630535 0.630535 0.630535
0.642260 0.642260 0.642260
0.654755 0.654754 0.654754
0.667986 0.667986 0.667986
0.681921 0.681921 0.681921
0.696526 0.696526 0.696526
0.711766 0.711766 0.711766
0.727607 0.727607 0.727607
0.744014 0.744014 0.744014
0.760955 0.760955 0.760955
0.778398 0.778398 0.778398
0.796311 0.796311 0.796311
0.814667 0.814667 0.814667
0.833436 0.833436 0.833436
0.852593 0.852592 0.852592
0.871954 0.871954 0.871953
0.890879 0.890879 0.890879
0.908279 0.908278 0.908278
0.579659 0.579659 0.579659
0.579778 0.579777 0.579777
0.580284 0.580284 0.580284
0.581311 0.581311 0.581311
0.582948 0.582948 0.582948
0.585265 0.585264 0.585264
0.588313 0.588313 0.588313
0.592136 0.592136 0.592136
0.596764 0.596764 0.596764
0.602219 0.602219 0.602219
0.608515 0.608515 0.608515
0.615657 0.615657 0.615657
0.623644 0.623644 0.623644
0.632467 0.632467 0.632467
0.642114 0.642113 0.642113
0.652564 0.652564 0.652564
0.663798 0.663798 0.663798
0.675788 0.675788 0.675788
0.688507 0.688507 0.688507
0.701925 0.701924 0.701924
0.716010 0.716010 0.716010
0.730732 0.730732 0.730732
0.746059 0.746059 0.746058
0.761957 0.761957 0.761957
0.778398 0.778398 0.778398
0.795349 0.795349 0.795349
0.812782 0.812782 0.812782
0.830668 0.830668 0.830668
0.848981 0.848981 0.848981
0.867612 0.867612 0.867612
0.886058 0.886058 0.886058
0.903427 0.903427 0.903427
0.918671 0.918671 0.918671
0.605425 0.605425 0.605425
0.605538 0.605538 0.605537
0.606017 0.606017 0.606017
0.606989 0.606989 0.606989
0.608540 0.608540 0.608540
0.610734 0.610734 0.610734
0.613624 0.613624 0.613624
0.617250 0.617249 0.617249
0.621643 0.621643 0.621642
0.626826 0.626826 0.626825
0.632813 0.632813 0.632813
0.639614 0.639614 0.639614
0.647227 0.647227 0.647227
0.655650 0.655650 0.655650
0.664871 0.664871 0.664871
0.674876 0.674876 0.674875
0.685645 0.685645 0.685645
0.697158 0.697158 0.697158
0.709390 0.709390 0.709390
0.722314 0.722314 0.722314
0.735902 0.735902 0.735902
