color-grading/luts/02_looks/BNC_L06_Nostalgic.cube
TITLE "BNC L06 Nostalgic"
# BNC Grade v1.0 — Soft vintage look: lifted blacks, warm greens, cyan-leaning shadows and a gentle highlight shoulder.
# Input: Rec.709 Gamma 2.4 | Output: Rec.709 Gamma 2.4
LUT_3D_SIZE 9
DOMAIN_MIN 0.0 0.0 0.0
DOMAIN_MAX 1.0 1.0 1.0
0.029886 0.033920 0.036817
0.116728 0.056487 0.050099
0.234770 0.082839 0.068788
0.352278 0.103805 0.086501
0.468717 0.118783 0.101736
0.583671 0.127990 0.114332
0.696744 0.132244 0.124538
0.806743 0.132719 0.131706
0.874604 0.128518 0.128525
0.061173 0.129269 0.049645
0.115540 0.137952 0.066406
0.240062 0.144713 0.072680
0.355952 0.154399 0.091787
0.471446 0.162693 0.106250
0.585877 0.168004 0.117985
0.698575 0.170326 0.127572
0.808341 0.170024 0.133707
0.876070 0.166555 0.129477
0.154237 0.240421 0.076428
0.180770 0.243488 0.071810
0.246404 0.257206 0.102160
0.365607 0.260756 0.103704
0.484045 0.259765 0.107523
0.595553 0.261820 0.124715
0.706016 0.262841 0.136250
0.814790 0.261448 0.138565
0.881896 0.258584 0.130804
0.246518 0.348813 0.095953
0.262023 0.350420 0.092351
0.309504 0.357837 0.075563
0.377238 0.373038 0.134064
0.490885 0.376440 0.139671
0.610338 0.371583 0.119742
0.721433 0.368653 0.127258
0.828544 0.366082 0.125647
0.894176 0.363210 0.112386
0.335525 0.455436 0.109789
0.345876 0.456485 0.107230
0.381809 0.461017 0.094222
0.435274 0.471451 0.098085
0.504342 0.487289 0.159916
0.614521 0.490745 0.162428
0.732767 0.485082 0.111998
0.844678 0.477200 0.027436
0.907330 0.474919 0.015302
0.422215 0.560093 0.094207
0.429687 0.560836 0.088192
0.457585 0.563898 0.059605
0.503545 0.570077 0.017710
0.560204 0.582742 0.056246
0.631418 0.597980 0.139524
0.739668 0.600590 0.125071
0.851813 0.595864 0.017793
0.913993 0.593082 0.032530
0.514143 0.659722 0.010845
0.520062 0.660183 0.023206
0.542163 0.662130 0.006640
0.580949 0.667015 0.016832
0.630276 0.675882 0.008321
0.686547 0.689113 0.029203
0.759169 0.703877 0.007797
0.860464 0.706980 0.033494
0.923736 0.706119 0.034083
0.610544 0.755782 0.027466
0.615084 0.756253 0.030467
0.632522 0.758197 0.031337
0.663975 0.762287 0.031061
0.706518 0.769254 0.032579
0.755696 0.779948 0.031612
0.811657 0.793980 0.030290
0.879894 0.807739 0.033305
0.935006 0.819131 0.206358
0.669452 0.815930 0.017839
0.673384 0.816436 0.022681
0.688426 0.818159 0.033322
0.716144 0.821878 0.037643
0.754576 0.828060 0.031871
0.800186 0.837488 0.027371
0.851166 0.850116 0.032986
0.907274 0.864846 0.032050
0.945728 0.897655 0.507388
0.029031 0.049681 0.108164
0.116422 0.056334 0.134942
0.235258 0.081801 0.141031
0.352801 0.103059 0.147384
0.469177 0.118289 0.153922
0.584061 0.127676 0.160138
0.697073 0.132079 0.165670
0.807030 0.132674 0.169603
0.874869 0.128576 0.166588
0.047128 0.132148 0.135518
0.116289 0.139616 0.142335
0.238837 0.146701 0.146410
0.356048 0.155142 0.151298
0.471897 0.162776 0.157005
0.586317 0.167927 0.162696
0.698939 0.170289 0.167900
0.808653 0.170051 0.171124
0.876353 0.166654 0.167334
0.131916 0.246344 0.128904
0.172835 0.247570 0.132198
0.247501 0.259154 0.157813
0.368345 0.261129 0.155448
0.483206 0.262043 0.162848
0.595015 0.263720 0.170524
0.705934 0.264058 0.175930
0.814912 0.262262 0.175733
0.882055 0.259313 0.169174
0.229808 0.353708 0.106799
0.250725 0.354559 0.111123
0.309380 0.359874 0.136439
0.378257 0.374671 0.176449
0.492869 0.377220 0.177592
0.611238 0.372477 0.166445
0.721188 0.370312 0.172719
0.828264 0.367729 0.169671
0.893996 0.364739 0.159656
0.325080 0.458690 0.114213
0.336696 0.459571 0.111306
0.376564 0.463442 0.097410
0.436071 0.472953 0.150070
0.505269 0.488683 0.194267
0.615917 0.491713 0.194903
0.734227 0.485577 0.156667
0.846806 0.477032 0.116792
0.912322 0.472002 0.086855
0.414943 0.562407 0.097520
0.422937 0.563080 0.091508
0.452767 0.565851 0.066308
0.501249 0.571565 0.015097
0.561056 0.584023 0.130318
0.632272 0.599219 0.177352
0.740809 0.601579 0.166644
0.855974 0.595086 0.075771
0.919629 0.590885 0.021653
0.508974 0.661426 0.028567
0.515065 0.661896 0.017655
0.538173 0.663654 0.022196
0.578410 0.668270 0.020932
0.629471 0.676731 0.020880
0.687995 0.690370 0.025414
0.761457 0.704916 0.046278
0.864137 0.707156 0.021501
0.927461 0.705780 0.031411
0.606677 0.757022 0.028004
0.611343 0.757474 0.030173
0.629328 0.759402 0.029563
0.661598 0.763344 0.024977
0.705133 0.770100 0.024960
0.755747 0.780423 0.034109
0.812293 0.794294 0.008270
0.880903 0.807808 0.033637
0.935738 0.820021 0.229566
0.666192 0.817050 0.011356
0.670136 0.817474 0.013736
0.685592 0.819212 0.028651
0.713899 0.822825 0.030726
0.753087 0.828851 0.017718
0.799466 0.838098 0.012892
0.851526 0.850441 0.040258
0.907981 0.865058 0.015541
0.946250 0.898297 0.514095
0.041149 0.089626 0.186163
0.113806 0.063826 0.247213
0.234789 0.082076 0.251471
0.352897 0.101202 0.255063
0.469645 0.116262 0.257674
0.584711 0.126015 0.259535
0.697779 0.130925 0.260887
0.807763 0.131992 0.261262
0.875604 0.128304 0.258067
0.050485 0.139355 0.228648
0.114368 0.138945 0.252250
0.238394 0.145804 0.255775
0.356503 0.154084 0.258224
0.472653 0.161698 0.260031
0.587157 0.167033 0.261421
0.699770 0.169694 0.262503
0.809478 0.169749 0.262361
0.877159 0.166658 0.258667
0.067703 0.254823 0.258938
0.127693 0.257689 0.261942
0.251642 0.263840 0.268079
0.368565 0.264680 0.268523
0.482950 0.265027 0.268358
0.595830 0.265196 0.268477
0.707005 0.264835 0.268767
0.816010 0.262824 0.265960
0.883075 0.259987 0.260467
0.187603 0.365497 0.248142
0.220078 0.365774 0.248975
0.304268 0.367800 0.253832
0.382334 0.380038 0.277310
0.499895 0.379352 0.272147
0.611115 0.377499 0.275271
0.719887 0.375884 0.275518
0.827682 0.372441 0.268672
0.893806 0.368985 0.260401
0.299014 0.468901 0.227562
0.315380 0.469310 0.228702
0.369114 0.471351 0.234553
0.438745 0.478451 0.256108
0.508917 0.493693 0.285502
0.621484 0.494898 0.280865
0.738814 0.487822 0.258855
0.847919 0.481237 0.246574
0.912431 0.476968 0.236886
0.390745 0.571316 0.183488
0.401591 0.571694 0.184604
0.440494 0.573392 0.190186
0.500301 0.577910 0.207472
0.564421 0.588809 0.244496
0.635637 0.603874 0.271739
0.745266 0.605218 0.263435
0.860896 0.597204 0.219727
0.929142 0.589509 0.183592
0.483822 0.669336 0.018516
0.491491 0.669723 0.014822
0.520373 0.671341 0.019958
0.569209 0.675107 0.023507
0.629891 0.682166 0.119046
0.692071 0.695073 0.191470
0.764565 0.709255 0.221571
0.869544 0.710338 0.204070
0.935860 0.706796 0.169944
0.589042 0.762504 0.031261
0.594297 0.762878 0.030174
0.614607 0.764430 0.034308
0.650782 0.767820 0.031426
0.700078 0.773346 0.028962
0.755712 0.782349 0.008899
0.817258 0.797591 0.022103
0.888449 0.811383 0.094700
0.938630 0.823489 0.300902
0.651571 0.821664 0.036561
0.656025 0.822091 0.034788
0.672973 0.823609 0.035585
0.703950 0.826858 0.025052
0.746688 0.832154 0.033389
0.798310 0.840076 0.030359
0.852947 0.851712 0.018282
0.912426 0.867382 0.033773
0.948307 0.900889 0.540617
0.050511 0.125501 0.280400
0.109572 0.076167 0.358535
0.233651 0.087399 0.361876
0.352005 0.101249 0.364732
0.468936 0.113800 0.366662
0.584328 0.122804 0.367577
0.697714 0.127904 0.367672
0.808017 0.129476 0.366528
0.876045 0.126424 0.363041
0.055190 0.154571 0.321898
0.111339 0.141120 0.362014
0.236575 0.146360 0.365166
0.355320 0.153134 0.367600
0.471983 0.159797 0.368973
0.586911 0.164844 0.369435
0.699843 0.167714 0.369223
0.809864 0.168151 0.367558
0.877708 0.165584 0.363679
0.067402 0.255452 0.366104
0.128619 0.256577 0.371714
0.248837 0.260045 0.375302
0.367531 0.262778 0.377475
0.483043 0.263950 0.377356
0.596351 0.264390 0.376409
0.707717 0.264262 0.375178
0.816949 0.262524 0.371046
0.884070 0.260057 0.365770
0.120968 0.374413 0.379411
0.166391 0.375552 0.380658
0.270107 0.379856 0.385358
0.389043 0.386954 0.393044
0.500642 0.384191 0.390742
0.611265 0.381331 0.388108
0.721184 0.378201 0.383460
0.829294 0.374259 0.375255
0.895415 0.370740 0.367680
0.229323 0.485028 0.369016
0.255336 0.485395 0.369272
0.335669 0.486512 0.370845
0.436269 0.489154 0.376134
0.515702 0.501671 0.397427
0.631222 0.499002 0.387170
0.740781 0.494523 0.381813
0.847077 0.489449 0.372510
0.911649 0.485050 0.363338
0.358137 0.585430 0.337754
0.372033 0.585676 0.338131
0.420856 0.586718 0.339698
0.494264 0.589332 0.344094
0.570195 0.597104 0.362072
0.641955 0.611836 0.384014
0.753757 0.610901 0.372524
0.868769 0.601100 0.343311
0.933986 0.594512 0.329388
0.462337 0.683110 0.279545
0.471555 0.683332 0.279775
0.505859 0.684270 0.280905
0.562937 0.686443 0.284818
0.631629 0.691466 0.298574
0.698252 0.702882 0.329325
0.770453 0.717014 0.349028
0.876597 0.716723 0.336857
0.942928 0.711754 0.313411
0.558448 0.777007 0.154725
0.565230 0.777209 0.155065
0.591192 0.778053 0.156930
0.636860 0.779929 0.163476
0.696523 0.783736 0.182684
0.760980 0.791532 0.222799
0.823570 0.805199 0.273001
0.893646 0.818841 0.295935
0.943897 0.829972 0.398455
0.620270 0.832722 0.009743
0.625826 0.832954 0.024237
0.647247 0.833975 0.034670
0.685834 0.836224 0.035196
0.738430 0.840379 0.034119
0.799201 0.847743 0.034111
0.860369 0.859267 0.179928
0.919464 0.874555 0.246142
0.952183 0.905809 0.588271
0.057537 0.157887 0.379848
0.105656 0.088299 0.468494
0.232295 0.095441 0.471291
0.350854 0.104213 0.473643
0.467535 0.112736 0.475177
0.582833 0.119330 0.475854
0.696354 0.123427 0.475725
0.807069 0.124761 0.473962
0.875433 0.122220 0.470318
0.059661 0.174628 0.417249
0.108717 0.144922 0.471015
0.234839 0.148821 0.473747
0.353660 0.153630 0.476045
0.470319 0.158379 0.477346
0.585351 0.162149 0.477724
0.698518 0.164513 0.477332
0.809015 0.164907 0.475026
0.877193 0.162849 0.471049
0.064668 0.255521 0.472664
0.127914 0.254943 0.479273
0.246195 0.257421 0.482075
0.364464 0.259966 0.484574
0.480746 0.261543 0.485380
0.594779 0.262248 0.484840
0.706712 0.262343 0.483420
0.816552 0.260985 0.478764
0.883989 0.258998 0.473593
0.125428 0.373379 0.489274
0.168733 0.374243 0.490291
0.269454 0.377227 0.493810
0.383985 0.380761 0.498016
0.498759 0.381583 0.499121
0.610828 0.380098 0.497186
0.721510 0.377598 0.492196
0.830071 0.374204 0.483941
0.896407 0.370979 0.476741
0.185161 0.492013 0.497533
0.214060 0.492910 0.498487
0.297432 0.496405 0.502146
0.406043 0.502835 0.508617
0.524000 0.510156 0.515303
0.632621 0.505284 0.508365
0.741321 0.499883 0.499031
0.848663 0.493489 0.486860
0.913459 0.488667 0.477504
0.270145 0.603417 0.482333
0.290557 0.603905 0.482329
0.359291 0.605588 0.482248
0.461628 0.607669 0.482617
0.570458 0.610282 0.485585
0.651108 0.622147 0.502724
0.765796 0.616952 0.485996
0.873334 0.609187 0.473997
0.935247 0.604274 0.465888
0.415648 0.701209 0.434714
0.427656 0.701393 0.434817
0.471641 0.702088 0.435283
0.543049 0.703383 0.436287
0.627593 0.705928 0.439039
0.706856 0.713631 0.454947
0.779118 0.727576 0.473232
0.887059 0.724681 0.458047
0.952161 0.718591 0.441138
0.531381 0.793890 0.369995
0.539392 0.794044 0.370066
0.569861 0.794661 0.370373
0.622872 0.795920 0.371214
0.691520 0.798308 0.374464
0.765054 0.803678 0.387597
0.832224 0.815682 0.417056
0.901329 0.829349 0.434994
0.951228 0.839158 0.506211
0.594441 0.851081 0.315341
0.601020 0.851233 0.315436
0.626383 0.851851 0.315887
0.671721 0.853129 0.317255
0.732636 0.855479 0.321748
0.801251 0.860155 0.335894
0.867551 0.869802 0.367406
0.926779 0.884663 0.403887
0.957772 0.913126 0.654214
0.062536 0.185927 0.483362
0.103903 0.098152 0.577059
0.231176 0.103193 0.579479
0.349664 0.108567 0.581583
0.465932 0.113234 0.582810
0.580761 0.116589 0.583264
0.694004 0.118537 0.583062
0.804960 0.118590 0.580750
0.873624 0.116215 0.576993
0.063713 0.195145 0.516310
0.107930 0.148787 0.578980
0.233560 0.151822 0.581360
0.352035 0.155098 0.583525
0.468344 0.157846 0.584726
0.583059 0.159771 0.585050
0.696072 0.160886 0.584680
0.806923 0.160598 0.581827
0.875424 0.158847 0.577797
0.063510 0.255703 0.579347
0.128068 0.253841 0.585844
0.244231 0.255764 0.588212
0.361466 0.257818 0.590681
0.477565 0.259105 0.591951
0.591786 0.259596 0.591923
0.704150 0.259553 0.590557
0.814593 0.258436 0.585719
0.882476 0.256813 0.580678
0.126248 0.370232 0.595831
0.168210 0.370841 0.596607
0.266631 0.372890 0.599252
0.379162 0.375421 0.602593
0.493890 0.376848 0.604564
0.607314 0.376657 0.603760
0.719234 0.375209 0.599380
0.828753 0.372654 0.591606
0.895661 0.369865 0.584807
0.188383 0.490926 0.606999
0.216390 0.491670 0.607802
0.297837 0.494467 0.610773
0.403765 0.498998 0.615328
0.517630 0.502898 0.618465
0.630501 0.502703 0.615904
0.741095 0.499139 0.608109
0.849343 0.493645 0.596766
0.914437 0.489240 0.588009
0.247486 0.609486 0.606744
0.267967 0.610246 0.607380
0.334965 0.613239 0.609859
0.431855 0.618865 0.614388
0.544469 0.627075 0.620667
0.661740 0.632773 0.623186
0.768581 0.625515 0.611589
0.874067 0.617119 0.597407
0.936437 0.611256 0.587283
0.326052 0.719793 0.583719
0.341521 0.720292 0.583746
0.396733 0.722167 0.583701
0.485728 0.725137 0.583053
0.597384 0.727609 0.581963
0.709671 0.729235 0.582674
0.790186 0.740027 0.597422
0.900196 0.732646 0.576909
0.959470 0.728124 0.572005
0.470961 0.815218 0.527810
0.481289 0.815406 0.527807
0.520216 0.816096 0.527850
0.587020 0.817196 0.528164
0.672325 0.818555 0.528950
0.762947 0.820875 0.531240
0.843046 0.828613 0.547372
0.911224 0.842167 0.565578
0.959797 0.850502 0.618078
0.550753 0.871499 0.489315
0.558838 0.871640 0.489397
0.589803 0.872185 0.489748
0.644480 0.873170 0.490501
0.716906 0.874644 0.491810
0.797833 0.877182 0.495423
0.875125 0.883427 0.510559
0.936642 0.896961 0.540118
0.964683 0.922591 0.732551
0.066178 0.208844 0.590386
0.105585 0.104689 0.684272
0.230774 0.108696 0.686396
0.348550 0.112247 0.688410
0.464245 0.114125 0.689514
0.578425 0.114402 0.689789
0.691107 0.113694 0.689412
0.802096 0.111984 0.686273
0.872084 0.112895 0.683412
0.066851 0.212705 0.619936
0.110046 0.151483 0.685801
0.233057 0.154022 0.687895
0.350594 0.156376 0.689981
0.466295 0.157593 0.691154
0.580436 0.157721 0.691422
0.693041 0.157248 0.690866
0.803995 0.156054 0.687306
0.872690 0.154372 0.683163
0.064251 0.254455 0.687297
0.129883 0.252731 0.691547
0.243072 0.254321 0.693607
0.358865 0.255988 0.695971
0.474249 0.256867 0.697454
0.588146 0.256919 0.697767
0.700697 0.256521 0.696126
0.811462 0.255504 0.691117
0.879774 0.253971 0.686142
0.126812 0.366734 0.700785
0.167524 0.367200 0.701417
0.263912 0.368774 0.703596
0.374737 0.370796 0.706526
0.488668 0.372222 0.708664
0.602522 0.372590 0.708170
0.715196 0.371923 0.704345
0.825631 0.370044 0.697152
0.893224 0.367652 0.690788
0.187585 0.486958 0.712264
0.215026 0.487522 0.712867
0.294928 0.489598 0.715035
0.398740 0.492829 0.718142
0.510883 0.495865 0.720256
0.624539 0.497033 0.719001
0.737126 0.495503 0.713247
0.847008 0.491543 0.703496
0.912947 0.487881 0.695599
0.251319 0.609218 0.715704
0.271269 0.609898 0.716282
0.336890 0.612544 0.718502
0.432078 0.617310 0.722337
0.541914 0.623320 0.726646
0.656359 0.627062 0.727520
0.767720 0.624315 0.720421
0.874717 0.617607 0.708103
0.937467 0.612326 0.698797
0.319659 0.726189 0.705568
0.334616 0.726838 0.706055
0.387588 0.729410 0.707974
0.471341 0.734309 0.711576
0.574333 0.741557 0.716761
0.688859 0.750656 0.722926
0.803580 0.751876 0.718845
0.904072 0.743745 0.707542
0.962652 0.737426 0.698012
0.390971 0.833570 0.679873
0.402785 0.834045 0.680019
0.446637 0.835894 0.680501
0.521044 0.839191 0.680944
0.619194 0.843199 0.680405
0.734840 0.845744 0.678738
0.847790 0.846318 0.678736
0.922810 0.856406 0.693745
0.968555 0.863068 0.729423
0.468948 0.893323 0.646605
0.478965 0.893608 0.646582
0.517066 0.894687 0.646476
0.584056 0.896480 0.646273
0.673919 0.898432 0.646273
0.776603 0.899880 0.647285
0.875930 0.901753 0.650042
0.948889 0.910586 0.669589
0.972272 0.933819 0.816534
0.068949 0.225446 0.699784
0.110994 0.107849 0.789619
0.231381 0.110585 0.791168
0.347650 0.113430 0.793154
0.462488 0.113749 0.794298
0.575904 0.111718 0.794528
0.688973 0.111203 0.794494
0.802540 0.116259 0.793089
0.873480 0.120346 0.790853
0.070003 0.224867 0.726887
0.115290 0.151975 0.790549
0.233535 0.154288 0.792411
0.349436 0.156257 0.794454
0.464221 0.156595 0.795694
0.577620 0.155386 0.795985
0.689848 0.153673 0.794800
0.802989 0.156411 0.792761
0.873928 0.159051 0.790409
0.070154 0.250505 0.794891
0.133561 0.250963 0.795448
0.242769 0.252374 0.797275
0.356697 0.253841 0.799534
0.471012 0.254462 0.801145
0.584339 0.254190 0.801532
0.696898 0.253614 0.799285
0.807697 0.252673 0.794022
0.876354 0.250980 0.789008
0.128117 0.363071 0.803819
0.167399 0.363457 0.804357
0.261628 0.364774 0.806242
0.370753 0.366524 0.808868
0.483848 0.367976 0.810613
0.597506 0.368667 0.810048
0.710366 0.368536 0.806504
0.821445 0.367008 0.799707
0.889623 0.364883 0.793715
0.185738 0.482232 0.814121
0.212753 0.482688 0.814580
0.291442 0.484367 0.816212
0.393700 0.487007 0.818506
0.504522 0.489706 0.820065
0.618031 0.491260 0.819146
0.731465 0.490812 0.814582
0.842589 0.488079 0.806266
0.909458 0.485137 0.799266
0.250770 0.605567 0.818835
0.270337 0.606114 0.819286
0.334756 0.608205 0.820972
0.428097 0.611804 0.823678
0.535463 0.616009 0.826242
0.648362 0.618928 0.826441
0.761501 0.618510 0.821966
0.870987 0.614428 0.812609
0.935025 0.610366 0.804759
0.324523 0.727230 0.814409
0.339146 0.727843 0.814892
0.391131 0.730268 0.816786
0.473666 0.734831 0.820289
0.575242 0.741356 0.825108
0.687361 0.748591 0.829865
0.800458 0.750975 0.828848
0.904771 0.744902 0.818508
0.963843 0.739231 0.809849
0.393744 0.840672 0.799427
0.405161 0.841235 0.799869
0.447479 0.843478 0.801629
0.518794 0.847784 0.805007
0.611071 0.854227 0.810051
0.717182 0.862550 0.816534
0.831202 0.871244 0.823007
0.936301 0.869200 0.815722
0.975335 0.874939 0.834634
0.430785 0.905862 0.786462
0.440770 0.906335 0.786864
0.478364 0.908213 0.788466
0.543268 0.911796 0.791538
0.629193 0.917059 0.795959
0.730745 0.923395 0.800103
0.846236 0.928304 0.800265
0.957199 0.927289 0.798332
0.979350 0.946326 0.896251
0.070896 0.232023 0.770329
0.116397 0.115945 0.858090
0.233330 0.115698 0.858539
0.347991 0.115299 0.859321
0.462168 0.114837 0.860385
0.576072 0.114775 0.861713
0.690076 0.117149 0.862119
0.803544 0.122830 0.860245
0.874483 0.126840 0.857835
0.072582 0.228775 0.796224
0.120612 0.155893 0.858301
0.235025 0.155703 0.858736
0.349027 0.155403 0.859499
0.462895 0.155089 0.860550
0.576601 0.155134 0.861848
0.690569 0.156956 0.861958
0.803985 0.160958 0.859889
0.874939 0.163579 0.857376
0.078994 0.248789 0.859446
0.136750 0.249225 0.859946
0.242989 0.250585 0.861618
0.355518 0.252020 0.863770
0.468997 0.252598 0.865413
0.582007 0.252379 0.865524
0.694431 0.251893 0.862978
0.805859 0.251795 0.858278
0.876843 0.252851 0.855412
0.129363 0.360543 0.867621
0.167638 0.360900 0.868101
0.260426 0.362135 0.869771
0.368589 0.363876 0.871970
0.481058 0.365432 0.873353
0.594383 0.366341 0.872688
0.707207 0.366452 0.869295
0.818523 0.365055 0.862823
0.886984 0.363040 0.857136
0.184597 0.479210 0.876447
0.211345 0.479627 0.876826
0.289302 0.481162 0.878167
0.390665 0.483610 0.880039
0.500802 0.486179 0.881271
0.614027 0.487836 0.880421
0.727610 0.487778 0.876436
0.839202 0.485590 0.869040
0.906572 0.483015 0.862700
0.249442 0.602482 0.881014
0.268823 0.602961 0.881381
0.332629 0.604782 0.882739
0.425037 0.607881 0.884857
0.531320 0.611476 0.886751
0.643470 0.614140 0.886771
0.756800 0.614334 0.883223
0.867280 0.611401 0.875535
0.932154 0.608059 0.868788
0.324994 0.725739 0.879054
0.339428 0.726291 0.879475
0.390775 0.728459 0.881111
0.472289 0.732447 0.884038
0.572337 0.737856 0.887755
0.682201 0.743251 0.890752
0.794633 0.745443 0.889837
0.901475 0.742009 0.882712
0.961114 0.738535 0.875552
0.397506 0.842725 0.869051
0.408807 0.843289 0.869504
0.450762 0.845542 0.871311
0.521648 0.849881 0.874787
0.613618 0.856423 0.880017
0.719738 0.865070 0.886915
0.835095 0.875322 0.895046
0.937574 0.874283 0.891824
0.976598 0.880134 0.893157
0.436321 0.909862 0.859283
0.446231 0.910358 0.859724
0.483602 0.912336 0.861488
0.548330 0.916145 0.864906
0.634238 0.921876 0.870098
0.734884 0.929372 0.876989
0.845002 0.937996 0.885050
0.949978 0.943725 0.890195
0.982717 0.954480 0.937711
