color-grading/luts/02_looks/BNC_L07_Eterna.cube
TITLE "BNC L07 Eterna"
# BNC Grade v1.0 — Fujifilm Eterna-style flat, low-contrast cinema stock emulation with soft highlights and gentle desaturation.
# Input: Rec.709 Gamma 2.4 | Output: Rec.709 Gamma 2.4
LUT_3D_SIZE 9
DOMAIN_MIN 0.0 0.0 0.0
DOMAIN_MAX 1.0 1.0 1.0
0.031468 0.037310 0.039257
0.132246 0.063353 0.061038
0.237234 0.095301 0.085447
0.341927 0.126773 0.109914
0.446060 0.156911 0.133259
0.549429 0.185774 0.155480
0.651845 0.213661 0.176908
0.749922 0.240118 0.197355
0.834431 0.262831 0.214857
0.003929 0.148917 0.099203
0.137325 0.154672 0.087959
0.243015 0.165569 0.101998
0.346652 0.181295 0.121050
0.449876 0.200376 0.141270
0.552553 0.221411 0.161628
0.654435 0.243600 0.181903
0.752108 0.265883 0.201610
0.836351 0.285690 0.218581
0.065466 0.258709 0.158473
0.145450 0.261521 0.159870
0.252803 0.267527 0.135410
0.356989 0.275558 0.145687
0.459161 0.285822 0.161298
0.560634 0.298184 0.178096
0.661384 0.312560 0.195843
0.758143 0.328146 0.213649
0.841715 0.342818 0.229306
0.118180 0.366601 0.216720
0.170659 0.368345 0.218464
0.260675 0.373368 0.214861
0.368140 0.378628 0.180814
0.471221 0.385422 0.188424
0.571905 0.393666 0.202865
0.671707 0.403041 0.218123
0.767534 0.413474 0.233541
0.850324 0.423684 0.247436
0.166320 0.473300 0.274156
0.203425 0.474573 0.275628
0.279975 0.478260 0.277206
0.373422 0.484368 0.265044
0.481408 0.488822 0.226012
0.583746 0.495028 0.231523
0.683153 0.502502 0.245548
0.778647 0.510126 0.259221
0.861241 0.517210 0.271014
0.208657 0.579109 0.331417
0.236989 0.580122 0.332638
0.302172 0.583074 0.335081
0.387431 0.588211 0.333650
0.483500 0.594643 0.312624
0.592056 0.598441 0.271062
0.694344 0.604170 0.274095
0.790169 0.610800 0.286684
0.873021 0.616464 0.297350
0.247182 0.683965 0.387754
0.270038 0.684804 0.388757
0.326312 0.687260 0.391140
0.404593 0.691575 0.392708
0.494387 0.697589 0.386125
0.592958 0.703730 0.357015
0.702004 0.706855 0.313679
0.801354 0.711836 0.313591
0.884443 0.717291 0.324094
0.284899 0.784324 0.440507
0.303852 0.785043 0.441360
0.352732 0.787159 0.443554
0.424192 0.790907 0.446032
0.508918 0.796264 0.445117
0.601372 0.802717 0.432197
0.701994 0.808259 0.396044
0.807670 0.810748 0.353363
0.894781 0.814500 0.349471
0.316907 0.870859 0.485583
0.333295 0.871501 0.486343
0.376805 0.873395 0.488384
0.442679 0.876771 0.491136
0.522970 0.881655 0.492437
0.611754 0.887809 0.487164
0.706691 0.894303 0.465990
0.806444 0.898787 0.424494
0.898461 0.900589 0.388034
0.018933 0.048881 0.138729
0.133603 0.065127 0.148064
0.238425 0.094838 0.159209
0.342901 0.126176 0.171341
0.446859 0.156467 0.184655
0.550094 0.185479 0.199019
0.652406 0.213478 0.214281
0.750404 0.240013 0.229934
0.834860 0.262774 0.244003
0.041592 0.150708 0.155967
0.141263 0.155913 0.160853
0.244808 0.165967 0.168270
0.347868 0.181282 0.178143
0.450796 0.200273 0.190122
0.553286 0.221313 0.203604
0.655038 0.243535 0.218261
0.752619 0.265850 0.233489
0.836802 0.285683 0.247213
0.085698 0.259260 0.194913
0.153587 0.261960 0.199791
0.256050 0.268705 0.186929
0.358887 0.276524 0.194438
0.460448 0.286312 0.204537
0.561572 0.298454 0.216292
0.662113 0.312732 0.229597
0.758740 0.328273 0.243677
0.842228 0.342928 0.256542
0.129331 0.367098 0.243127
0.177777 0.368833 0.245762
0.265201 0.373856 0.246516
0.370562 0.379684 0.218579
0.472846 0.386448 0.225226
0.573145 0.394369 0.236267
0.672649 0.403513 0.248292
0.768279 0.413814 0.260883
0.850950 0.423951 0.272558
0.173814 0.473796 0.294002
0.209263 0.475071 0.295804
0.284111 0.478759 0.298743
0.376309 0.485018 0.290141
0.483316 0.489783 0.254874
0.585130 0.496006 0.260205
0.684301 0.503271 0.272011
0.779579 0.510706 0.283615
0.862022 0.517666 0.293757
0.214318 0.579596 0.346923
0.241821 0.580612 0.348295
0.305840 0.583572 0.351295
0.390341 0.588738 0.351310
0.485573 0.595359 0.332900
0.593637 0.599321 0.293929
0.695556 0.605083 0.297178
0.791237 0.611574 0.308343
0.873949 0.617109 0.317801
0.251768 0.684435 0.400283
0.274149 0.685277 0.401366
0.329612 0.687741 0.404024
0.407269 0.692073 0.406253
0.496608 0.698144 0.401023
0.594591 0.704453 0.373841
0.703365 0.707668 0.332465
0.802437 0.712688 0.332836
0.885443 0.718060 0.342464
0.288735 0.784779 0.450988
0.307395 0.785501 0.451888
0.355706 0.787623 0.454239
0.426652 0.791383 0.457071
0.511026 0.796767 0.456862
0.603140 0.803296 0.445143
0.703351 0.808970 0.410469
0.808870 0.811507 0.369300
0.895768 0.815306 0.366037
0.320253 0.871300 0.494711
0.336440 0.871944 0.495503
0.379528 0.873843 0.497647
0.444973 0.877230 0.500621
0.524950 0.882132 0.502347
0.613496 0.888326 0.497819
0.708138 0.894907 0.477726
0.807618 0.899484 0.437396
0.899550 0.901308 0.402031
0.001185 0.082940 0.219344
0.134093 0.079495 0.243444
0.239661 0.100128 0.252359
0.344128 0.127560 0.261619
0.448081 0.156554 0.270712
0.551285 0.185227 0.279938
0.653535 0.213208 0.289701
0.751457 0.239816 0.300013
0.835851 0.262650 0.309594
0.045810 0.154432 0.249592
0.141796 0.158097 0.253124
0.245831 0.167456 0.259694
0.349255 0.182007 0.267013
0.452210 0.200474 0.274877
0.554626 0.221294 0.283382
0.656273 0.243466 0.292717
0.753750 0.265802 0.302757
0.837850 0.285674 0.312126
0.100688 0.262407 0.266105
0.163701 0.264924 0.268690
0.261764 0.272008 0.275491
0.362074 0.278350 0.280254
0.462760 0.287284 0.285929
0.563441 0.299043 0.292987
0.663687 0.313132 0.301387
0.760109 0.328576 0.310690
0.843453 0.343196 0.319543
0.152751 0.369051 0.295929
0.194196 0.370728 0.299834
0.275680 0.375612 0.309208
0.376297 0.382742 0.296206
0.476787 0.389084 0.301716
0.576050 0.396072 0.308337
0.674883 0.404658 0.315922
0.770092 0.414655 0.324321
0.852514 0.424620 0.332445
0.192138 0.475354 0.339882
0.223837 0.476643 0.342425
0.294363 0.480346 0.348467
0.384203 0.486772 0.349172
0.488309 0.492541 0.321327
0.588837 0.498700 0.326493
0.687322 0.505329 0.334650
0.782018 0.512238 0.342667
0.864075 0.518871 0.349834
0.229052 0.581041 0.385982
0.254519 0.582069 0.387737
0.315511 0.585058 0.392141
0.398176 0.590268 0.395899
0.491431 0.597352 0.384591
0.597992 0.601863 0.350633
0.698945 0.607667 0.354373
0.794200 0.613740 0.362811
0.876508 0.618900 0.369857
0.264188 0.685811 0.433512
0.285342 0.686661 0.434809
0.338645 0.689150 0.438203
0.414635 0.693525 0.442200
0.502890 0.699729 0.440675
0.599268 0.706523 0.418659
0.707218 0.710032 0.381338
0.805535 0.715143 0.382723
0.888295 0.720266 0.390507
0.299393 0.786106 0.479680
0.317273 0.786834 0.480711
0.364036 0.788976 0.483496
0.433561 0.792773 0.487301
0.517005 0.798227 0.489047
0.608258 0.804960 0.480697
0.707273 0.811037 0.449914
0.812324 0.813728 0.412091
0.898629 0.817651 0.410282
0.329697 0.872589 0.520179
0.345338 0.873238 0.521061
0.387256 0.875153 0.523492
0.451501 0.878571 0.527088
0.530610 0.883525 0.530009
0.618533 0.889827 0.527589
0.712370 0.896658 0.510539
0.811030 0.901528 0.473205
0.902716 0.903422 0.440386
0.000115 0.114933 0.307720
0.133341 0.101366 0.339157
0.240566 0.114007 0.346443
0.345113 0.134683 0.354621
0.448996 0.159793 0.362688
0.552221 0.186554 0.370450
0.654527 0.213682 0.378141
0.752495 0.239956 0.385889
0.836918 0.262686 0.392892
0.044906 0.162983 0.343683
0.141705 0.165646 0.346570
0.246068 0.173072 0.352543
0.349880 0.185602 0.359476
0.453073 0.202464 0.366529
0.555632 0.222277 0.373581
0.657362 0.243918 0.380814
0.754882 0.266012 0.388264
0.838998 0.285805 0.395061
0.105357 0.265071 0.359098
0.165863 0.267040 0.361223
0.261383 0.272151 0.366193
0.362707 0.279293 0.371666
0.464023 0.288348 0.376810
0.564886 0.299879 0.382306
0.665156 0.313748 0.388477
0.761558 0.329039 0.395119
0.844857 0.343594 0.401414
0.160960 0.373138 0.374605
0.202153 0.374791 0.376359
0.284563 0.379570 0.381288
0.383379 0.387883 0.389419
0.480803 0.392030 0.392558
0.579006 0.397957 0.396424
0.677334 0.406018 0.401291
0.772226 0.415721 0.406906
0.854466 0.425499 0.412437
0.213981 0.478732 0.398148
0.243076 0.479928 0.400740
0.309329 0.483493 0.408648
0.395729 0.489902 0.420928
0.495578 0.497301 0.408168
0.594244 0.502858 0.412890
0.691475 0.508271 0.417802
0.785350 0.514385 0.422745
0.866921 0.520572 0.427332
0.250987 0.583679 0.439712
0.273865 0.584714 0.441898
0.330348 0.587754 0.448007
0.409776 0.593054 0.456729
0.501284 0.600523 0.457619
0.604844 0.606260 0.429995
0.704394 0.611943 0.434182
0.798837 0.617201 0.439883
0.880454 0.621700 0.444462
0.283627 0.688235 0.482717
0.303022 0.689100 0.484318
0.352990 0.691636 0.488764
0.426184 0.696095 0.495326
0.513086 0.702435 0.499586
0.607266 0.709987 0.486489
0.713580 0.714159 0.453458
0.810745 0.719333 0.455962
0.893042 0.723983 0.461738
0.316617 0.788430 0.524364
0.333317 0.789170 0.525597
0.377644 0.791349 0.529052
0.444824 0.795214 0.534360
0.526821 0.800773 0.539187
0.617033 0.807788 0.536475
0.714033 0.814614 0.511976
0.818199 0.817643 0.477791
0.903563 0.821732 0.477715
0.345301 0.874850 0.561135
0.360089 0.875508 0.562160
0.400135 0.877453 0.565056
0.462394 0.880926 0.569651
0.540075 0.885966 0.574500
0.627131 0.892431 0.575579
0.719806 0.899680 0.563707
0.816955 0.905130 0.530824
0.908195 0.907173 0.500942
0.003702 0.144335 0.400221
0.131998 0.125503 0.434522
0.240976 0.133428 0.440543
0.345906 0.147899 0.447753
0.449669 0.167826 0.455186
0.552761 0.191111 0.462456
0.655040 0.216157 0.469533
0.753065 0.241284 0.476376
0.837574 0.263453 0.482292
0.042013 0.175764 0.437890
0.141219 0.177732 0.440259
0.246091 0.183375 0.445533
0.350169 0.193385 0.452025
0.453454 0.207727 0.458776
0.556066 0.225553 0.465473
0.657874 0.245851 0.472123
0.755501 0.267132 0.478643
0.839714 0.286511 0.484340
0.107634 0.269534 0.451386
0.166598 0.271056 0.453168
0.260910 0.275169 0.457492
0.362066 0.281669 0.462976
0.463920 0.290403 0.468483
0.565237 0.301510 0.473925
0.665789 0.314951 0.479547
0.762385 0.329905 0.485186
0.845789 0.344271 0.490332
0.165383 0.375495 0.467493
0.205225 0.376888 0.469040
0.285770 0.380757 0.473189
0.381727 0.386571 0.478934
0.481003 0.392580 0.483855
0.580026 0.399072 0.487889
0.678660 0.407144 0.492009
0.773655 0.416744 0.496458
0.855967 0.426384 0.500653
0.218839 0.483229 0.482662
0.247945 0.484481 0.484020
0.315310 0.488150 0.487941
0.404319 0.494644 0.494679
0.503894 0.504097 0.504066
0.598851 0.506705 0.505970
0.694890 0.510886 0.508617
0.788246 0.516390 0.511683
0.869540 0.522239 0.514660
0.268719 0.588311 0.501955
0.290999 0.589271 0.503707
0.346524 0.592102 0.509148
0.424206 0.597239 0.519764
0.513610 0.604879 0.534008
0.613333 0.612492 0.521335
0.711035 0.617414 0.525257
0.804104 0.621272 0.528367
0.884837 0.624897 0.530872
0.307222 0.691851 0.539899
0.325045 0.692706 0.541684
0.371672 0.695242 0.546920
0.441145 0.699799 0.555879
0.525620 0.706344 0.566481
0.618572 0.714519 0.567406
0.721914 0.720037 0.539653
0.817669 0.725059 0.542928
0.899174 0.728893 0.546801
0.339032 0.791759 0.578836
0.354398 0.792510 0.580281
0.395773 0.794730 0.584458
0.459715 0.798697 0.591456
0.539442 0.804420 0.599895
0.628854 0.811692 0.604657
0.723576 0.819555 0.589989
0.826188 0.823266 0.558876
0.910385 0.827470 0.560325
0.366086 0.878074 0.612933
0.379839 0.878744 0.614130
0.417510 0.880729 0.617585
0.477052 0.884284 0.623395
0.552639 0.889457 0.630623
0.638679 0.896114 0.636239
0.730387 0.903856 0.631845
0.825288 0.910273 0.605087
0.915823 0.912604 0.577568
0.006665 0.171277 0.494857
0.130731 0.150009 0.529294
0.240962 0.155356 0.534357
0.346414 0.165414 0.540749
0.450172 0.180462 0.547569
0.553054 0.199600 0.554447
0.655149 0.221598 0.561261
0.753116 0.244699 0.567785
0.837654 0.265702 0.573311
0.039454 0.191445 0.531884
0.140673 0.192944 0.533842
0.245932 0.197256 0.538455
0.350263 0.205030 0.544433
0.453590 0.216664 0.550840
0.556127 0.231922 0.557321
0.657868 0.250150 0.563795
0.755521 0.269947 0.570016
0.839799 0.288438 0.575334
0.109074 0.276555 0.543453
0.166970 0.277777 0.545002
0.260468 0.281159 0.548892
0.361296 0.286756 0.554171
0.463236 0.294596 0.559806
0.564785 0.304812 0.565428
0.665568 0.317423 0.571067
0.762380 0.331703 0.576472
0.845947 0.345621 0.581238
0.167416 0.378151 0.558976
0.206253 0.379262 0.560295
0.285320 0.382337 0.563809
0.380033 0.387175 0.568862
0.479314 0.393137 0.574139
0.579134 0.400042 0.578928
0.678435 0.408274 0.583347
0.773849 0.417840 0.587655
0.856472 0.427337 0.591379
0.222811 0.485498 0.575625
0.251185 0.486605 0.576870
0.317258 0.489794 0.580398
0.404618 0.495126 0.586090
0.500879 0.501516 0.592478
0.598568 0.506915 0.597065
0.695656 0.511936 0.600216
0.789455 0.517606 0.602935
0.870952 0.523438 0.605309
0.272492 0.592895 0.590642
0.294609 0.593919 0.591751
0.350209 0.596941 0.594996
0.429447 0.602343 0.600693
0.522241 0.610271 0.608814
0.622581 0.620458 0.618850
0.716287 0.622016 0.619668
0.808042 0.624501 0.620740
0.888217 0.627513 0.621930
0.320275 0.697459 0.606290
0.338194 0.698276 0.607530
0.385343 0.700682 0.611340
0.455785 0.704988 0.618790
0.540038 0.711400 0.631209
0.631731 0.719985 0.646747
0.731520 0.727575 0.633883
0.825433 0.731749 0.636987
0.905579 0.734193 0.638799
0.362084 0.796322 0.638346
0.376644 0.797052 0.639799
0.416141 0.799226 0.644145
0.477609 0.803177 0.652041
0.554498 0.809053 0.663369
0.642101 0.816669 0.675630
0.735981 0.825426 0.676491
0.835754 0.830509 0.649478
0.918647 0.834605 0.651925
0.390213 0.882263 0.670529
0.403027 0.882935 0.671847
0.438429 0.884935 0.675734
0.495045 0.888552 0.682607
0.567791 0.893890 0.692138
0.652028 0.900817 0.702505
0.743460 0.908983 0.707588
0.835876 0.916743 0.690737
0.925194 0.919643 0.664772
0.007230 0.195660 0.590940
0.129969 0.174224 0.623394
0.240737 0.178115 0.627721
0.346589 0.185331 0.633459
0.450442 0.196538 0.639742
0.553150 0.211722 0.646225
0.654981 0.230292 0.652798
0.752777 0.250758 0.659107
0.837228 0.270054 0.664478
0.039279 0.208934 0.625458
0.140384 0.210118 0.627098
0.245668 0.213499 0.631141
0.350146 0.219556 0.636627
0.453519 0.228798 0.642671
0.555944 0.241424 0.648907
0.657512 0.257209 0.655239
0.755078 0.275018 0.661292
0.839317 0.292171 0.666487
0.110290 0.285849 0.635374
0.167244 0.286854 0.636736
0.260027 0.289669 0.640257
0.360501 0.294419 0.645255
0.462342 0.301215 0.650831
0.563909 0.310273 0.656535
0.664774 0.321715 0.662230
0.761686 0.334980 0.667637
0.845381 0.348126 0.672309
0.168424 0.382226 0.649823
0.206531 0.383141 0.650987
0.284543 0.385704 0.654124
0.378394 0.389876 0.658812
0.477317 0.395368 0.664122
0.577365 0.402064 0.669288
0.677093 0.410136 0.674131
0.772928 0.419473 0.678657
0.855923 0.428704 0.682339
0.224127 0.487194 0.666753
0.251927 0.488107 0.667835
0.316851 0.490710 0.670861
0.402787 0.494999 0.675653
0.497834 0.500405 0.681253
0.595803 0.506148 0.686431
0.694031 0.512011 0.690574
0.788727 0.518174 0.693809
0.870774 0.524195 0.696285
0.276111 0.595154 0.683626
0.297802 0.596089 0.684667
0.352527 0.598826 0.687685
0.430688 0.603611 0.692854
0.521875 0.610173 0.699705
0.618776 0.617058 0.706470
0.715742 0.621879 0.710428
0.808694 0.625412 0.712289
0.889331 0.628726 0.713468
0.324664 0.701987 0.697708
0.342311 0.702855 0.698631
0.388967 0.705426 0.701351
0.459342 0.710057 0.706199
0.545205 0.716903 0.713248
0.640723 0.726009 0.722403
0.741674 0.736561 0.732684
0.831381 0.737141 0.732557
0.910127 0.738155 0.732532
0.370299 0.802654 0.709759
0.385115 0.803381 0.710693
0.425475 0.805528 0.713530
0.488693 0.809373 0.718942
0.567966 0.815013 0.727850
0.656564 0.822545 0.741653
0.749906 0.831972 0.758451
0.846343 0.839261 0.745966
0.927536 0.842575 0.748404
0.409900 0.887829 0.732935
0.422463 0.888478 0.734111
0.457301 0.890410 0.737662
0.513210 0.893925 0.744284
0.584890 0.899206 0.754480
0.667171 0.906331 0.768092
0.757308 0.915014 0.782230
0.848994 0.924033 0.782492
0.935826 0.928178 0.758825
0.003844 0.216750 0.684980
0.129913 0.197144 0.713853
0.240490 0.200182 0.717625
0.346474 0.205655 0.722853
0.450413 0.214177 0.728716
0.553011 0.226151 0.734858
0.654597 0.241522 0.741173
0.752176 0.259233 0.747247
0.836456 0.276543 0.752503
0.042229 0.226846 0.715562
0.140530 0.227818 0.716966
0.245398 0.230573 0.720550
0.349834 0.235431 0.725611
0.453215 0.242829 0.731334
0.555539 0.253175 0.737333
0.656930 0.266576 0.743471
0.754332 0.282249 0.749360
0.838462 0.297785 0.754457
0.111530 0.296564 0.724177
0.167533 0.297413 0.725391
0.259585 0.299806 0.728596
0.359672 0.303868 0.733306
0.461333 0.309721 0.738742
0.562812 0.317622 0.744428
0.663664 0.327795 0.750090
0.760551 0.339868 0.755519
0.844322 0.351996 0.760127
0.168884 0.387683 0.737491
0.206437 0.388463 0.738544
0.283635 0.390665 0.741419
0.376800 0.394322 0.745838
0.475341 0.399288 0.751038
0.575330 0.405518 0.756335
0.675196 0.413155 0.761462
0.771320 0.422018 0.766183
0.854608 0.430815 0.769947
0.224068 0.489397 0.753988
0.251478 0.490168 0.754948
0.315605 0.492367 0.757638
0.400612 0.496031 0.761941
0.494884 0.500843 0.767181
0.592681 0.506380 0.772472
0.691381 0.512406 0.777125
0.786731 0.518788 0.780900
0.869314 0.524923 0.783713
0.276929 0.596278 0.771647
0.298287 0.597080 0.772572
0.352235 0.599403 0.775228
0.429290 0.603383 0.779677
0.519049 0.608707 0.785396
0.614794 0.614568 0.791258
0.712351 0.620008 0.795977
0.806603 0.624693 0.799079
0.888147 0.628700 0.800957
0.328436 0.704219 0.787699
0.345789 0.705032 0.788584
0.391783 0.707431 0.791181
0.461330 0.711710 0.795759
0.546191 0.717881 0.802238
0.640049 0.725511 0.810020
0.737572 0.732775 0.817052
0.830702 0.736815 0.820286
0.910601 0.738911 0.821169
0.375586 0.806943 0.800257
0.390132 0.807703 0.801060
0.429862 0.809960 0.803439
0.492377 0.814047 0.807718
0.571397 0.820128 0.814024
0.661477 0.828268 0.822343
0.758984 0.838462 0.832570
0.856926 0.848871 0.842761
0.934095 0.848733 0.842174
0.413620 0.894258 0.809213
0.426328 0.894935 0.809952
0.461678 0.896942 0.812169
0.518795 0.900557 0.816297
0.592807 0.905874 0.822803
0.678580 0.912855 0.832549
0.771181 0.921488 0.847261
0.863158 0.931438 0.864943
0.946895 0.937758 0.854210
0.010705 0.233582 0.767061
0.130429 0.216582 0.792103
0.240324 0.219127 0.795487
0.346186 0.223598 0.800345
0.450128 0.230455 0.805917
0.552650 0.240214 0.811819
0.654082 0.253125 0.817878
0.751455 0.268517 0.823750
0.835588 0.283957 0.828850
0.046759 0.242824 0.793587
0.141027 0.243661 0.794829
0.245190 0.246025 0.798078
0.349412 0.250126 0.802815
0.452731 0.256294 0.808298
0.554965 0.264978 0.814117
0.656237 0.276480 0.820039
0.753465 0.290307 0.825782
0.837502 0.304286 0.830735
0.112716 0.306935 0.801285
0.167825 0.307681 0.802389
0.259175 0.309787 0.805353
0.358867 0.313363 0.809822
0.460317 0.318509 0.815113
0.561703 0.325485 0.820700
0.662487 0.334571 0.826296
0.759297 0.345535 0.831710
0.843115 0.356640 0.836216
0.168963 0.393529 0.813656
0.206119 0.394219 0.814630
0.282717 0.396177 0.817315
0.375381 0.399467 0.821503
0.473592 0.403998 0.826554
0.573422 0.409763 0.831866
0.673271 0.416906 0.837130
0.769572 0.425205 0.841920
0.853033 0.433505 0.845749
0.223385 0.492098 0.829496
0.250554 0.492777 0.830377
0.314167 0.494721 0.832856
0.398562 0.497993 0.836871
0.492300 0.502389 0.841886
0.589908 0.507618 0.847125
0.688735 0.513502 0.851984
0.784414 0.519829 0.856090
0.867341 0.525917 0.859188
0.276350 0.597190 0.847171
0.297500 0.597890 0.848005
0.350944 0.599912 0.850394
0.427285 0.603367 0.854380
0.516234 0.608017 0.859523
0.611361 0.613347 0.865000
0.708907 0.618781 0.869914
0.803702 0.623891 0.873658
0.885863 0.628326 0.876134
0.329469 0.705009 0.864293
0.346599 0.705737 0.865107
0.392040 0.707876 0.867483
0.460774 0.711636 0.871611
0.544530 0.716921 0.877290
0.636904 0.723225 0.883838
0.733275 0.729479 0.889951
0.827190 0.734377 0.894132
0.908317 0.737654 0.896237
0.379099 0.809038 0.878743
0.393459 0.809768 0.879528
0.432741 0.811931 0.881849
0.494675 0.815833 0.886008
0.573049 0.821589 0.892075
0.662315 0.829128 0.899895
0.758310 0.837940 0.908835
0.853237 0.845446 0.916161
0.933454 0.848396 0.918586
0.419160 0.897823 0.889145
0.431691 0.898512 0.889875
0.466593 0.900561 0.892043
0.523076 0.904282 0.895965
0.596370 0.909846 0.901794
0.681603 0.917330 0.909564
0.775153 0.926750 0.919228
0.871355 0.937687 0.930289
0.956620 0.946817 0.939381
