color-grading/luts/02_looks/BNC_L13_Airy.cube
TITLE "BNC L13 Airy"
# BNC Grade v1.0 — Bright, airy, lifted-shadow look with a soft top end and gentle overall desaturation.
# Input: Rec.709 Gamma 2.4 | Output: Rec.709 Gamma 2.4
LUT_3D_SIZE 9
DOMAIN_MIN 0.0 0.0 0.0
DOMAIN_MAX 1.0 1.0 1.0
0.059876 0.069349 0.074186
0.171651 0.080022 0.081967
0.282974 0.097406 0.093747
0.394760 0.117721 0.107664
0.506851 0.139253 0.122471
0.619078 0.161427 0.137770
0.731102 0.184143 0.153633
0.839084 0.206719 0.169808
0.911943 0.221479 0.180742
0.077280 0.180529 0.099060
0.174501 0.184878 0.098029
0.285693 0.190465 0.103857
0.397040 0.198882 0.115139
0.508708 0.209871 0.128161
0.620578 0.223065 0.142316
0.732303 0.238216 0.157476
0.840122 0.254456 0.173113
0.912969 0.265494 0.183651
0.118787 0.292425 0.133086
0.192624 0.294404 0.135923
0.291779 0.299481 0.125069
0.401984 0.303750 0.129714
0.512772 0.309675 0.140210
0.623908 0.317369 0.152520
0.735001 0.326836 0.166448
0.842687 0.337114 0.180676
0.915470 0.344372 0.190459
0.168150 0.404319 0.169615
0.222838 0.405471 0.171928
0.308244 0.408969 0.170588
0.409589 0.413837 0.153457
0.518885 0.417622 0.157493
0.628906 0.422596 0.168102
0.739609 0.428584 0.179977
0.847117 0.435172 0.192432
0.919795 0.439931 0.201080
0.218576 0.516322 0.207954
0.260064 0.517113 0.209745
0.333979 0.519388 0.211338
0.424234 0.523683 0.204121
0.527385 0.528132 0.183785
0.636650 0.531387 0.186966
0.746739 0.535277 0.196832
0.853931 0.539574 0.207021
0.926458 0.542711 0.214101
0.272825 0.627960 0.246953
0.305015 0.628527 0.248284
0.368087 0.630091 0.250179
0.449823 0.633160 0.248389
0.543470 0.637567 0.234837
0.648187 0.641308 0.212287
0.757366 0.643905 0.214596
0.863726 0.646779 0.222699
0.935750 0.648936 0.228535
0.333045 0.738732 0.284716
0.358318 0.739160 0.285655
0.411305 0.740310 0.287185
0.484333 0.742541 0.287013
0.570142 0.746064 0.279986
0.666261 0.750207 0.260364
0.771618 0.753261 0.236868
0.876511 0.755351 0.239093
0.947571 0.756943 0.244142
0.394368 0.845247 0.319888
0.414738 0.845596 0.320579
0.459389 0.846510 0.321792
0.524051 0.848250 0.322166
0.602595 0.851057 0.318515
0.691304 0.854831 0.305947
0.789123 0.858652 0.282007
0.890886 0.861234 0.260265
0.960755 0.862570 0.261068
0.435372 0.916915 0.343573
0.453243 0.917227 0.344161
0.493247 0.918038 0.345244
0.552724 0.919561 0.345847
0.626531 0.922021 0.343651
0.710728 0.925468 0.334824
0.803600 0.929423 0.315665
0.901078 0.932730 0.290167
0.969775 0.934350 0.278092
0.059586 0.071852 0.180547
0.172749 0.080345 0.184339
0.283832 0.096735 0.189566
0.395391 0.116895 0.195570
0.507325 0.138523 0.202459
0.619444 0.160832 0.210372
0.731391 0.183666 0.219476
0.839324 0.206320 0.229633
0.912167 0.221098 0.236904
0.064311 0.182702 0.187904
0.175581 0.184934 0.189798
0.286435 0.190213 0.193553
0.397602 0.198541 0.198742
0.509144 0.209510 0.205162
0.620922 0.222723 0.212798
0.732579 0.237909 0.221754
0.840358 0.254165 0.231755
0.913189 0.265207 0.238857
0.113680 0.293583 0.201725
0.194507 0.294385 0.205714
0.292504 0.299376 0.202714
0.402467 0.303607 0.205611
0.513151 0.309514 0.211366
0.624213 0.317201 0.218565
0.735253 0.326666 0.227289
0.842916 0.336931 0.236732
0.915682 0.344185 0.243521
0.168211 0.404630 0.225311
0.224368 0.405454 0.227999
0.309925 0.408602 0.229795
0.410058 0.413780 0.218306
0.519212 0.417546 0.221327
0.629180 0.422506 0.228141
0.739852 0.428479 0.236088
0.847335 0.435056 0.244790
0.920001 0.439807 0.251018
0.219371 0.516428 0.253318
0.261310 0.517096 0.255224
0.335506 0.519163 0.257798
0.425122 0.523464 0.253632
0.527741 0.528089 0.237992
0.636917 0.531328 0.240698
0.746975 0.535207 0.247751
0.854145 0.539496 0.255225
0.926658 0.542628 0.260528
0.273775 0.627986 0.284385
0.306122 0.628497 0.285770
0.369350 0.629951 0.288053
0.450909 0.632944 0.287610
0.544003 0.637441 0.276957
0.648487 0.641270 0.258541
0.757599 0.643857 0.260709
0.863932 0.646727 0.266922
0.935942 0.648882 0.271463
0.333995 0.738719 0.316286
0.359324 0.739119 0.317268
0.412378 0.740209 0.319010
0.485348 0.742378 0.319520
0.570865 0.745905 0.314070
0.666614 0.750138 0.297304
0.771867 0.753232 0.277505
0.876706 0.755318 0.279658
0.947749 0.756908 0.283728
0.395238 0.845220 0.347190
0.415630 0.845552 0.347915
0.460307 0.846431 0.349263
0.524944 0.848129 0.350028
0.603338 0.850917 0.347272
0.691773 0.854727 0.336400
0.789369 0.858617 0.315224
0.891085 0.861216 0.296512
0.960916 0.862550 0.297509
0.436169 0.916884 0.368500
0.454052 0.917185 0.369116
0.494071 0.917970 0.370300
0.553532 0.919462 0.371178
0.627242 0.921899 0.369599
0.711240 0.925359 0.361947
0.803887 0.929368 0.344757
0.901258 0.932718 0.321961
0.969939 0.934339 0.311524
0.056920 0.081329 0.287975
0.173693 0.086831 0.290755
0.285099 0.099813 0.294957
0.396523 0.117947 0.299512
0.508268 0.138623 0.304259
0.620219 0.160538 0.309383
0.732027 0.183235 0.315169
0.839868 0.205823 0.321675
0.912681 0.220535 0.326364
0.067354 0.184561 0.293346
0.176950 0.186452 0.294888
0.287626 0.191165 0.297821
0.398642 0.198964 0.301580
0.510024 0.209563 0.305905
0.621656 0.222559 0.310832
0.733188 0.237634 0.316552
0.840895 0.253794 0.322984
0.913696 0.264777 0.327588
0.094991 0.296548 0.300096
0.186726 0.297477 0.300981
0.293763 0.299787 0.302938
0.403416 0.303769 0.305868
0.513939 0.309539 0.309657
0.624875 0.317124 0.314314
0.735819 0.326510 0.319958
0.843440 0.336684 0.326082
0.916175 0.343899 0.330547
0.152948 0.407486 0.309865
0.218722 0.407591 0.311732
0.312746 0.408611 0.317022
0.411011 0.413875 0.313070
0.519916 0.417560 0.315763
0.629790 0.422455 0.320231
0.740407 0.428363 0.325438
0.847839 0.434890 0.331206
0.920484 0.439608 0.335362
0.215875 0.517606 0.329596
0.260610 0.517914 0.331589
0.337894 0.519177 0.335751
0.427430 0.523021 0.336767
0.528525 0.528090 0.325621
0.637527 0.531275 0.328170
0.747522 0.535117 0.332906
0.854645 0.539373 0.337958
0.927130 0.542487 0.341575
0.273876 0.628472 0.353117
0.307122 0.628819 0.354630
0.371562 0.629914 0.357688
0.453440 0.632551 0.359733
0.545347 0.637168 0.353397
0.649180 0.641230 0.339220
0.758148 0.643786 0.341403
0.864422 0.646640 0.345723
0.936397 0.648786 0.348908
0.335297 0.738904 0.378073
0.360941 0.739223 0.379164
0.414477 0.740132 0.381366
0.487651 0.742086 0.383209
0.572652 0.745551 0.380511
0.667477 0.749992 0.367762
0.772454 0.753191 0.352293
0.877170 0.755262 0.354470
0.948176 0.756848 0.357421
0.396839 0.845274 0.403065
0.417355 0.845561 0.403875
0.462236 0.846339 0.405527
0.526974 0.847906 0.407093
0.605134 0.850610 0.406028
0.692943 0.854488 0.398016
0.789965 0.858548 0.380802
0.891556 0.861190 0.366060
0.961302 0.862518 0.367376
0.437760 0.916896 0.420748
0.455714 0.917165 0.421433
0.495853 0.917880 0.422847
0.555378 0.919275 0.424306
0.628945 0.921635 0.423943
0.712506 0.925109 0.418429
0.804594 0.929244 0.404429
0.901690 0.932700 0.385524
0.970332 0.934326 0.377394
0.052111 0.096257 0.395577
0.174081 0.099584 0.397629
0.286347 0.108686 0.401152
0.397879 0.123342 0.405220
0.509516 0.141670 0.409435
0.621309 0.162163 0.413793
0.732960 0.184032 0.418478
0.840698 0.206071 0.423526
0.913483 0.220470 0.427045
0.068717 0.189122 0.399629
0.178047 0.190613 0.400976
0.288891 0.194539 0.403607
0.399918 0.201420 0.406996
0.511201 0.211198 0.410792
0.622694 0.223559 0.414926
0.734083 0.238183 0.419519
0.841721 0.253950 0.424468
0.914490 0.264714 0.427916
0.099243 0.298317 0.405455
0.188733 0.299141 0.406256
0.295193 0.301228 0.408012
0.404635 0.304913 0.410583
0.515016 0.310376 0.413799
0.625821 0.317686 0.417605
0.736668 0.326823 0.422048
0.844251 0.336749 0.426686
0.916948 0.343839 0.430023
0.136989 0.410356 0.411777
0.207367 0.410880 0.412330
0.306071 0.412193 0.413623
0.412260 0.414512 0.415693
0.520906 0.418015 0.418523
0.630694 0.422752 0.422031
0.741255 0.428504 0.426009
0.848633 0.434900 0.430339
0.921254 0.439532 0.433396
0.191524 0.521742 0.420182
0.244573 0.521809 0.421063
0.332487 0.521927 0.423792
0.430735 0.523069 0.429734
0.529670 0.528337 0.425140
0.638462 0.531410 0.427792
0.748382 0.535164 0.431335
0.855446 0.539344 0.435064
0.927893 0.542415 0.437712
0.265257 0.630700 0.436835
0.301644 0.630767 0.438183
0.370875 0.631111 0.441521
0.456530 0.632564 0.446336
0.547904 0.636772 0.445995
0.650257 0.641300 0.434949
0.759028 0.643790 0.437288
0.865215 0.646606 0.440473
0.937139 0.648730 0.442816
0.333544 0.739976 0.456991
0.360314 0.740131 0.458160
0.415777 0.740647 0.460834
0.490617 0.742024 0.464338
0.575720 0.745090 0.465256
0.668992 0.749796 0.456744
0.773393 0.753202 0.444341
0.877931 0.755241 0.446631
0.948878 0.756816 0.448831
0.397564 0.845797 0.477565
0.418533 0.845991 0.478485
0.464245 0.846554 0.480534
0.529763 0.847804 0.483171
0.608064 0.850230 0.484341
0.695019 0.854119 0.479733
0.790968 0.858475 0.466090
0.892321 0.861195 0.454446
0.961941 0.862512 0.456060
0.439137 0.917221 0.492225
0.457351 0.917427 0.493010
0.497985 0.917992 0.494749
0.557996 0.919166 0.497014
0.631685 0.921313 0.498292
0.714710 0.924730 0.495448
0.805830 0.929057 0.484790
0.902399 0.932712 0.469139
0.970971 0.934342 0.462981
0.045830 0.114520 0.503125
0.174034 0.116548 0.504677
0.287391 0.122598 0.507612
0.399259 0.133582 0.511275
0.510911 0.148749 0.515235
0.622597 0.166907 0.519360
0.734103 0.187162 0.523716
0.841769 0.207983 0.528224
0.914536 0.221717 0.531257
0.068811 0.196492 0.506228
0.178790 0.197627 0.507385
0.290049 0.200753 0.509740
0.401250 0.206546 0.512892
0.512528 0.215193 0.516491
0.623924 0.226541 0.520395
0.735181 0.240336 0.524642
0.842788 0.255313 0.529010
0.915534 0.265641 0.531973
0.102781 0.301704 0.511350
0.190570 0.302406 0.512103
0.296625 0.304222 0.513766
0.405953 0.307515 0.516215
0.516249 0.312533 0.519263
0.626951 0.319404 0.522816
0.737740 0.328085 0.526821
0.845308 0.337574 0.530849
0.917974 0.344419 0.533691
0.141105 0.412111 0.517215
0.209870 0.412588 0.517740
0.307759 0.413795 0.518964
0.413600 0.415953 0.520909
0.522061 0.419259 0.523532
0.631821 0.423730 0.526661
0.742347 0.429219 0.530136
0.849685 0.435379 0.533823
0.922289 0.439858 0.536350
0.180429 0.524221 0.523859
0.235000 0.524561 0.524258
0.323496 0.525405 0.525206
0.424771 0.526870 0.526741
0.531054 0.529040 0.528842
0.639667 0.531957 0.531472
0.749519 0.535564 0.534452
0.856524 0.539609 0.537531
0.928930 0.542597 0.539688
0.236998 0.635443 0.531222
0.279079 0.635498 0.531687
0.356614 0.635563 0.533008
0.452217 0.635533 0.536199
0.551746 0.636726 0.542277
0.651647 0.641620 0.536722
0.760217 0.644015 0.539100
0.866297 0.646762 0.541690
0.938159 0.648843 0.543580
0.320373 0.743156 0.544480
0.349898 0.743124 0.545369
0.410271 0.743104 0.547672
0.490598 0.743390 0.551817
0.579437 0.745039 0.556661
0.671482 0.749553 0.554218
0.774641 0.753358 0.544094
0.878981 0.755349 0.546391
0.949849 0.756903 0.548162
0.393038 0.847599 0.561538
0.415202 0.847650 0.562460
0.463221 0.847847 0.564686
0.531385 0.848474 0.568217
0.611538 0.850150 0.571886
0.698229 0.853686 0.571557
0.792442 0.858441 0.561452
0.893351 0.861299 0.551994
0.962828 0.862597 0.553739
0.437441 0.918448 0.574179
0.456358 0.918546 0.575025
0.498393 0.918850 0.577024
0.560057 0.919594 0.580087
0.634954 0.921225 0.583239
0.717952 0.924317 0.583636
0.807744 0.928822 0.576602
0.903379 0.932809 0.563318
0.971836 0.934440 0.558715
0.038504 0.134719 0.610569
0.173783 0.135997 0.611782
0.288213 0.139986 0.614238
0.400549 0.147902 0.617516
0.512334 0.159848 0.621243
0.623982 0.175209 0.625242
0.735373 0.193259 0.629502
0.843035 0.212207 0.633782
0.915798 0.224931 0.636616
0.068287 0.206492 0.613007
0.179273 0.207342 0.613992
0.291044 0.209761 0.616079
0.402530 0.214474 0.618993
0.513894 0.221859 0.622435
0.625251 0.231951 0.626241
0.736405 0.244609 0.630391
0.844052 0.258405 0.634499
0.916788 0.268080 0.637265
0.105610 0.306833 0.617494
0.192156 0.307416 0.618197
0.297957 0.308952 0.619772
0.407259 0.311818 0.622129
0.517534 0.316311 0.625102
0.628172 0.322625 0.628580
0.738985 0.330655 0.632398
0.846566 0.339532 0.636176
0.919222 0.346005 0.638799
0.144838 0.415008 0.623049
0.212226 0.415433 0.623560
0.309408 0.416516 0.624756
0.414961 0.418481 0.626660
0.523321 0.421521 0.629202
0.633111 0.425642 0.632162
0.743630 0.430775 0.635433
0.850959 0.436591 0.638828
0.923559 0.440847 0.641101
0.184655 0.525925 0.629370
0.238088 0.526236 0.629750
0.325707 0.527008 0.630651
0.426537 0.528359 0.632110
0.532593 0.530377 0.634098
0.641092 0.533111 0.636548
0.750892 0.536512 0.639261
0.857846 0.540363 0.642028
0.930213 0.543230 0.643944
0.231509 0.637486 0.635710
0.273531 0.637701 0.635991
0.350301 0.638231 0.636662
0.444579 0.639148 0.637758
0.546913 0.640503 0.639259
0.653262 0.642323 0.641112
0.761675 0.644611 0.643253
0.867639 0.647255 0.645548
0.939431 0.649269 0.647208
0.292486 0.748082 0.641580
0.325333 0.748125 0.641848
0.391166 0.748187 0.642566
0.478333 0.748146 0.644124
0.576801 0.747899 0.647721
0.675545 0.749415 0.653438
0.776121 0.753762 0.647430
0.880294 0.755698 0.649475
0.951069 0.757217 0.651018
0.375688 0.851634 0.651772
0.400081 0.851574 0.652372
0.452457 0.851441 0.653944
0.526210 0.851308 0.656948
0.612202 0.851585 0.661728
0.702284 0.853583 0.666399
0.794606 0.858438 0.661836
0.894583 0.861578 0.654082
0.963945 0.862857 0.655661
0.426942 0.921477 0.661921
0.447302 0.921453 0.662638
0.492285 0.921429 0.664441
0.557781 0.921541 0.667616
0.636499 0.922189 0.672085
0.721767 0.924245 0.676134
0.810631 0.928545 0.674088
0.904611 0.933054 0.662940
0.972872 0.934685 0.659699
0.030531 0.156026 0.717748
0.173519 0.156860 0.718728
0.288866 0.159525 0.720811
0.401701 0.165156 0.723745
0.513699 0.174303 0.727239
0.625375 0.186869 0.731119
0.736699 0.202434 0.735333
0.844455 0.219028 0.739451
0.917230 0.230481 0.742198
0.067703 0.218793 0.719723
0.179631 0.219424 0.720568
0.291887 0.221267 0.722413
0.403701 0.225011 0.725093
0.515218 0.231152 0.728373
0.626590 0.239893 0.732097
0.737737 0.251152 0.736175
0.845473 0.263514 0.740134
0.918212 0.272366 0.742819
0.107897 0.313694 0.723667
0.193505 0.314170 0.724317
0.299148 0.315445 0.725796
0.408487 0.317887 0.728056
0.518793 0.321830 0.730960
0.629422 0.327513 0.734396
0.740365 0.334734 0.738071
0.847984 0.342869 0.741737
0.920663 0.348854 0.744236
0.148064 0.419130 0.728932
0.214327 0.419501 0.729430
0.310927 0.420456 0.730602
0.416262 0.422212 0.732479
0.524666 0.424922 0.734929
0.634524 0.428641 0.737790
0.745062 0.433351 0.740973
0.852425 0.438732 0.744201
0.925033 0.442707 0.746342
0.188951 0.528477 0.735005
0.241286 0.528754 0.735374
0.328040 0.529445 0.736249
0.428435 0.530664 0.737668
0.534273 0.532504 0.739609
0.642701 0.535010 0.741947
0.752465 0.538160 0.744518
0.859380 0.541766 0.747130
0.931712 0.544475 0.748930
0.236590 0.639081 0.741014
0.277682 0.639277 0.741282
0.353437 0.639762 0.741921
0.447055 0.640604 0.742965
0.549001 0.641857 0.744393
0.655113 0.643554 0.746150
0.763366 0.645705 0.748172
0.869208 0.648214 0.750328
0.940925 0.650140 0.751879
0.291095 0.749825 0.746280
0.323396 0.749962 0.746476
0.388032 0.750302 0.746948
0.473281 0.750891 0.747734
0.569693 0.751771 0.748842
0.672138 0.752975 0.750258
0.777843 0.754530 0.751961
0.881835 0.756394 0.753868
0.952505 0.757864 0.755300
0.349860 0.856483 0.751079
0.376033 0.856529 0.751261
0.431575 0.856621 0.751725
0.509329 0.856694 0.752626
0.601274 0.856581 0.754405
0.701093 0.856234 0.758488
0.798277 0.858385 0.763440
0.896018 0.862124 0.757999
0.965260 0.863378 0.759451
0.402815 0.926509 0.756209
0.425096 0.926470 0.756545
0.473927 0.926364 0.757430
0.544630 0.926157 0.759189
0.629839 0.925878 0.762403
0.722368 0.926003 0.767725
0.814704 0.928436 0.772470
0.906105 0.933489 0.765354
0.974062 0.935153 0.763053
0.022717 0.177253 0.821146
0.173367 0.177820 0.821966
0.289397 0.179655 0.823772
0.402674 0.183711 0.826423
0.514914 0.190690 0.829704
0.626668 0.200834 0.833466
0.738056 0.213885 0.837579
0.845949 0.228074 0.841560
0.918748 0.238158 0.844258
0.067445 0.232530 0.822807
0.179955 0.233002 0.823542
0.292588 0.234406 0.825192
0.404707 0.237359 0.827665
0.516407 0.242402 0.830787
0.627836 0.249861 0.834427
0.739121 0.259589 0.838373
0.846968 0.270455 0.842222
0.919739 0.278384 0.844845
0.109747 0.321904 0.826322
0.194621 0.322291 0.826924
0.300158 0.323342 0.828312
0.409562 0.325404 0.830471
0.519933 0.328825 0.833302
0.630694 0.333811 0.836635
0.741805 0.340191 0.840184
0.849486 0.347524 0.843779
0.922222 0.352959 0.846171
0.150674 0.424299 0.831322
0.216069 0.424621 0.831807
0.312232 0.425453 0.832949
0.417539 0.426977 0.834746
0.526046 0.429346 0.837095
0.635988 0.432651 0.839876
0.746573 0.436904 0.842996
0.854007 0.441804 0.846092
0.926633 0.445467 0.848153
0.193194 0.531798 0.837114
0.244490 0.532041 0.837472
0.330406 0.532650 0.838326
0.430375 0.533732 0.839718
0.536036 0.535379 0.841607
0.644418 0.537641 0.843854
0.754158 0.540517 0.846332
0.861043 0.543851 0.848857
0.933344 0.546380 0.850600
0.241823 0.641256 0.842858
0.282001 0.641432 0.843117
0.356736 0.641868 0.843735
0.449681 0.642630 0.844746
0.551231 0.643772 0.846129
0.657103 0.645332 0.847835
0.765195 0.647329 0.849798
0.870914 0.649683 0.851893
0.942555 0.651506 0.853399
0.296439 0.751302 0.847874
0.328083 0.751428 0.848065
0.391794 0.751741 0.848525
0.476285 0.752286 0.849292
0.572172 0.753105 0.850372
0.674260 0.754233 0.851751
0.779711 0.755703 0.853408
0.883512 0.757480 0.855261
0.954072 0.758893 0.856647
0.351210 0.857950 0.852434
0.376839 0.858049 0.852593
0.431252 0.858293 0.852979
0.507298 0.858721 0.853634
0.596808 0.859369 0.854578
0.694277 0.860276 0.855823
0.796323 0.861482 0.857375
0.897576 0.862981 0.859180
0.966687 0.864203 0.860576
0.387068 0.929991 0.855718
0.409656 0.930081 0.855869
0.458849 0.930302 0.856239
0.529737 0.930664 0.856868
0.615482 0.931111 0.857799
0.711225 0.931436 0.859257
0.813623 0.931235 0.862750
0.908191 0.933966 0.865918
0.975345 0.935887 0.863967
0.017897 0.191771 0.890692
0.173349 0.192212 0.891431
0.289721 0.193653 0.893088
0.403255 0.196915 0.895576
0.515660 0.202718 0.898728
0.627484 0.211444 0.902411
0.739017 0.222816 0.906401
0.847010 0.235426 0.910297
0.919849 0.244547 0.912947
0.067528 0.242640 0.892195
0.180189 0.243028 0.892872
0.293011 0.244194 0.894409
0.405313 0.246696 0.896757
0.517139 0.251080 0.899779
0.628637 0.257716 0.903353
0.740103 0.266367 0.907165
0.848031 0.276213 0.910948
0.920850 0.283473 0.913508
0.110837 0.328256 0.895476
0.195282 0.328590 0.896048
0.300757 0.329508 0.897377
0.410211 0.331336 0.899470
0.520647 0.334420 0.902245
0.631597 0.338898 0.905457
0.742826 0.344706 0.908927
0.850576 0.351465 0.912455
0.923358 0.356506 0.914780
0.152178 0.428427 0.900308
0.217129 0.428714 0.900775
0.313133 0.429454 0.901867
0.418455 0.430817 0.903595
0.527026 0.432958 0.905875
0.637024 0.435980 0.908607
0.747670 0.439905 0.911661
0.855159 0.444464 0.914675
0.927800 0.447901 0.916693
0.196141 0.534519 0.905869
0.246735 0.534738 0.906221
0.332070 0.535291 0.907061
0.431748 0.536279 0.908431
0.537313 0.537789 0.910263
0.645663 0.539878 0.912450
0.755389 0.542560 0.914874
0.862255 0.545696 0.917355
0.934536 0.548092 0.919072
0.245530 0.643094 0.911424
0.285082 0.643256 0.911677
0.359107 0.643657 0.912282
0.451576 0.644362 0.913273
0.552844 0.645425 0.914632
0.658546 0.646886 0.916312
0.766525 0.648771 0.918251
0.872158 0.651010 0.920324
0.943744 0.652755 0.921816
0.300234 0.752587 0.916311
0.331427 0.752705 0.916500
0.394494 0.752999 0.916955
0.478451 0.753512 0.917715
0.573965 0.754285 0.918785
0.675799 0.755358 0.920154
0.781068 0.756764 0.921799
0.884733 0.758475 0.923639
0.955212 0.759844 0.925016
0.354632 0.858902 0.920803
0.379965 0.858996 0.920960
0.433887 0.859230 0.921344
0.509456 0.859639 0.921995
0.598590 0.860262 0.922934
0.695777 0.861138 0.924171
0.797612 0.862308 0.925712
0.898702 0.863771 0.927501
0.967719 0.864969 0.928884
0.390104 0.930792 0.924046
0.412473 0.930879 0.924196
0.461270 0.931095 0.924564
0.531576 0.931475 0.925193
0.616337 0.932055 0.926111
0.710132 0.932878 0.927342
0.809346 0.933991 0.928904
0.908414 0.935400 0.930755
0.976266 0.936567 0.932209
