color-grading/luts/02_looks/BNC_L10_Faded.cube
TITLE "BNC L10 Faded"
# BNC Grade v1.0 - Faded, lifted-black low-contrast look with a soft highlight shoulder, like a sun-faded print.
# Input: Rec.709 Gamma 2.4 | Output: Rec.709 Gamma 2.4
LUT_3D_SIZE 9
DOMAIN_MIN 0.0 0.0 0.0
DOMAIN_MAX 1.0 1.0 1.0
0.080566 0.062900 0.053219
0.183109 0.064427 0.053100
0.288257 0.078132 0.060158
0.392552 0.100900 0.076588
0.495879 0.127840 0.098896
0.598454 0.156217 0.123539
0.700548 0.184555 0.148389
0.798682 0.210823 0.171052
0.880857 0.230424 0.185796
0.133901 0.169136 0.019567
0.194266 0.175455 0.063477
0.294146 0.179972 0.073977
0.396335 0.188367 0.090040
0.498620 0.201072 0.110371
0.600643 0.217357 0.132919
0.702442 0.236028 0.155934
0.800501 0.254897 0.176733
0.882749 0.269609 0.189684
0.194886 0.275393 0.008397
0.234308 0.279566 0.046652
0.302102 0.289363 0.102757
0.402014 0.294746 0.117414
0.503484 0.301722 0.134384
0.605017 0.310821 0.153142
0.706544 0.321843 0.172535
0.804816 0.333212 0.188487
0.887300 0.342308 0.197650
0.251715 0.382025 0.008630
0.282017 0.384446 0.006607
0.338605 0.390912 0.098764
0.409085 0.402373 0.149649
0.508453 0.408516 0.165402
0.610454 0.414552 0.180344
0.712819 0.421041 0.193466
0.811909 0.427400 0.202723
0.894627 0.432685 0.207791
0.307802 0.487699 0.020120
0.331975 0.489305 0.016495
0.381302 0.493756 0.059038
0.444912 0.501733 0.145102
0.517813 0.513727 0.191153
0.617634 0.519686 0.203190
0.721514 0.524046 0.210372
0.821287 0.528039 0.215278
0.904100 0.531302 0.217687
0.374470 0.590404 0.025406
0.393443 0.591569 0.024424
0.433937 0.594685 0.026202
0.490959 0.601002 0.087476
0.556095 0.610584 0.171234
0.631842 0.622157 0.212284
0.731974 0.627398 0.220368
0.831952 0.630754 0.223485
0.914898 0.633218 0.224552
0.451182 0.690345 0.015361
0.465663 0.691335 0.014574
0.498105 0.693871 0.028929
0.545412 0.698762 0.020356
0.603650 0.707204 0.084914
0.669330 0.717913 0.181189
0.747481 0.728830 0.219914
0.843548 0.733404 0.225868
0.926259 0.735867 0.227166
0.526966 0.785312 0.025795
0.538424 0.786148 0.032264
0.564555 0.788470 0.017614
0.604767 0.792538 0.034617
0.655196 0.799109 0.019104
0.714096 0.809373 0.068619
0.781057 0.820714 0.184063
0.858284 0.830632 0.221294
0.937194 0.834494 0.227542
0.588715 0.863930 0.012289
0.598420 0.864718 0.031963
0.620746 0.866752 0.031680
0.655890 0.870436 0.038676
0.701314 0.876212 0.023256
0.754582 0.884510 0.038072
0.815734 0.896191 0.100235
0.882757 0.907438 0.196246
0.948683 0.915320 0.226853
0.083435 0.072330 0.154590
0.183995 0.072012 0.159185
0.288957 0.082068 0.165269
0.393165 0.102620 0.172955
0.496425 0.128559 0.183094
0.598944 0.156494 0.195816
0.700993 0.184629 0.210465
0.799099 0.210798 0.225225
0.881265 0.230359 0.235245
0.116169 0.176238 0.165217
0.196415 0.178203 0.168484
0.295399 0.181549 0.172771
0.397227 0.189300 0.179660
0.499325 0.201608 0.189334
0.601232 0.217645 0.201552
0.702953 0.236166 0.215570
0.800968 0.254940 0.229335
0.883196 0.269614 0.238159
0.177970 0.281746 0.154877
0.232243 0.282825 0.163940
0.303582 0.291237 0.187054
0.403541 0.295962 0.194383
0.504579 0.302465 0.203540
0.605847 0.311276 0.214692
0.707215 0.322124 0.227238
0.805403 0.333385 0.238014
0.887837 0.342436 0.244191
0.236041 0.387402 0.146840
0.275291 0.388297 0.155619
0.338866 0.392880 0.182571
0.409999 0.403965 0.213767
0.509920 0.409603 0.223783
0.611628 0.415318 0.233735
0.713755 0.421559 0.242593
0.812685 0.427771 0.248775
0.895296 0.432991 0.252017
0.292342 0.492640 0.134996
0.322450 0.493366 0.143955
0.379448 0.495946 0.168127
0.445611 0.503225 0.208086
0.518663 0.515076 0.241749
0.619010 0.520673 0.250274
0.722686 0.524837 0.255267
0.822258 0.528659 0.258436
0.904931 0.531815 0.259751
0.357069 0.595640 0.087713
0.380390 0.596223 0.101592
0.428460 0.598037 0.131964
0.490818 0.602577 0.176282
0.556882 0.611854 0.224973
0.632676 0.623355 0.256617
0.733202 0.628337 0.262525
0.833046 0.631569 0.264629
0.915866 0.633924 0.265066
0.436810 0.694186 0.023402
0.452835 0.695099 0.014360
0.488585 0.697640 0.016507
0.541638 0.701820 0.096689
0.604111 0.708472 0.174889
0.670053 0.719066 0.231493
0.748282 0.729918 0.261599
0.844646 0.734301 0.266003
0.927281 0.736694 0.266848
0.516639 0.788246 0.027094
0.528915 0.789023 0.031890
0.556863 0.791069 0.032825
0.599190 0.794849 0.025098
0.652707 0.801868 0.009441
0.714708 0.810482 0.169490
0.781710 0.821783 0.233150
0.859042 0.831636 0.261985
0.938191 0.835358 0.266757
0.580638 0.866320 0.034398
0.590623 0.867126 0.022389
0.614076 0.869056 0.018320
0.650740 0.872469 0.025515
0.698007 0.877875 0.036169
0.753627 0.886872 0.038992
0.816360 0.897211 0.181435
0.883365 0.908441 0.242031
0.949397 0.916265 0.266103
0.086798 0.088907 0.255663
0.184764 0.087686 0.260003
0.289405 0.092885 0.266484
0.393577 0.108420 0.273914
0.496907 0.131319 0.282114
0.599505 0.157705 0.291171
0.701613 0.185079 0.300990
0.799771 0.210863 0.310655
0.881991 0.230262 0.316921
0.117061 0.180321 0.266318
0.196252 0.181520 0.269316
0.295770 0.184661 0.274069
0.397824 0.191581 0.280007
0.500015 0.203059 0.287198
0.601963 0.218470 0.295548
0.703703 0.236573 0.304788
0.801749 0.255072 0.313671
0.884007 0.269630 0.319063
0.148988 0.288875 0.280507
0.212906 0.290784 0.283180
0.306821 0.294855 0.288530
0.405516 0.298044 0.292681
0.506050 0.303784 0.298388
0.607080 0.312135 0.305459
0.708319 0.322666 0.313445
0.806457 0.333715 0.320051
0.888858 0.342677 0.323500
0.199212 0.396185 0.277778
0.251063 0.396712 0.277698
0.335471 0.398082 0.284305
0.412324 0.407243 0.307564
0.512760 0.411871 0.313719
0.613818 0.416821 0.319665
0.715527 0.422564 0.324758
0.814201 0.428498 0.327970
0.896639 0.433606 0.329330
0.267077 0.499875 0.267557
0.303600 0.500243 0.269336
0.371484 0.501505 0.277187
0.446937 0.506605 0.300005
0.520755 0.518020 0.326119
0.622008 0.522874 0.331299
0.725192 0.526552 0.333917
0.824319 0.529985 0.335094
0.906703 0.532914 0.335101
0.340790 0.601510 0.247513
0.367204 0.601865 0.250160
0.421041 0.603014 0.258737
0.489638 0.606362 0.278838
0.558852 0.614706 0.310925
0.634709 0.626066 0.335009
0.736003 0.630499 0.338523
0.835520 0.633426 0.339370
0.918043 0.635520 0.338952
0.418890 0.701262 0.206354
0.438421 0.701656 0.210375
0.480712 0.702809 0.221481
0.539574 0.705541 0.243412
0.605069 0.711451 0.277260
0.671859 0.721718 0.314792
0.750229 0.732440 0.337040
0.847208 0.736407 0.339646
0.929660 0.738626 0.339896
0.492722 0.796381 0.123688
0.507964 0.796796 0.132290
0.542191 0.797939 0.152479
0.592584 0.800355 0.184720
0.652607 0.805019 0.227163
0.716184 0.813090 0.274368
0.783320 0.824287 0.315399
0.860885 0.833997 0.336188
0.940548 0.837409 0.339247
0.557848 0.873254 0.028179
0.569536 0.873951 0.033026
0.596278 0.875825 0.012705
0.638377 0.878947 0.067078
0.693617 0.882980 0.158822
0.754371 0.889710 0.225005
0.817899 0.899620 0.281443
0.884850 0.910819 0.321298
0.951134 0.918508 0.338629
0.090390 0.108130 0.357363
0.185217 0.107087 0.361001
0.289487 0.109304 0.367051
0.393546 0.119504 0.374293
0.496902 0.137704 0.382131
0.599632 0.161028 0.390251
0.701913 0.186633 0.398428
0.800266 0.211428 0.405887
0.882666 0.230372 0.410241
0.117098 0.187067 0.366410
0.195513 0.187809 0.369181
0.295095 0.190245 0.374122
0.397515 0.196015 0.380191
0.500000 0.206149 0.386998
0.602185 0.220383 0.394293
0.704123 0.237614 0.401800
0.802377 0.255507 0.408446
0.884797 0.269777 0.412036
0.149514 0.291526 0.381036
0.212747 0.292927 0.383312
0.305608 0.295823 0.387649
0.405434 0.299683 0.392447
0.506458 0.305277 0.397588
0.607731 0.313259 0.403327
0.709139 0.323406 0.409363
0.807442 0.334159 0.413843
0.889937 0.342992 0.415765
0.177173 0.400961 0.396250
0.230247 0.402462 0.398191
0.316854 0.406053 0.402666
0.416310 0.411751 0.409353
0.515336 0.414322 0.412507
0.615805 0.418395 0.416142
0.717302 0.423665 0.419114
0.815867 0.429340 0.420564
0.898204 0.434353 0.420765
0.216843 0.508876 0.399364
0.262031 0.509753 0.399009
0.344204 0.511396 0.397928
0.442935 0.513183 0.401799
0.524283 0.522312 0.423655
0.626123 0.526041 0.426476
0.728433 0.528839 0.427149
0.826967 0.531724 0.426789
0.909009 0.534372 0.425797
0.304491 0.610743 0.377280
0.336589 0.611030 0.377186
0.401045 0.611657 0.378257
0.483043 0.613167 0.385753
0.561950 0.619086 0.407947
0.638140 0.630169 0.429002
0.740217 0.633831 0.430786
0.839149 0.636201 0.430480
0.921192 0.637866 0.429233
0.396163 0.709369 0.346119
0.418613 0.709604 0.347182
0.466836 0.710268 0.350880
0.533340 0.711938 0.360813
0.605750 0.716343 0.381673
0.675043 0.725805 0.410918
0.753516 0.736375 0.429022
0.851230 0.739756 0.430302
0.933359 0.741667 0.429984
0.477701 0.803447 0.307232
0.494542 0.803734 0.309249
0.532180 0.804530 0.314972
0.587199 0.806294 0.327103
0.651911 0.810027 0.348705
0.718553 0.817271 0.379654
0.786114 0.828254 0.411178
0.864000 0.837764 0.427227
0.944339 0.840734 0.429051
0.540644 0.881548 0.264798
0.554432 0.881874 0.267723
0.585928 0.882748 0.275447
0.633598 0.884537 0.290241
0.692279 0.887927 0.314260
0.755814 0.893979 0.347551
0.820538 0.903495 0.385225
0.887383 0.914660 0.415450
0.954069 0.922139 0.428484
0.093228 0.128052 0.459280
0.185190 0.127406 0.462297
0.289082 0.128343 0.467729
0.393114 0.134676 0.474491
0.496463 0.148088 0.481950
0.599265 0.167378 0.489638
0.701709 0.190170 0.497164
0.800335 0.213164 0.503594
0.883005 0.231196 0.506979
0.116625 0.196353 0.466778
0.194485 0.196850 0.469257
0.293974 0.198613 0.473971
0.396603 0.203103 0.479942
0.499331 0.211542 0.486586
0.601759 0.224074 0.493522
0.703952 0.239882 0.500384
0.802546 0.256697 0.505956
0.885238 0.270395 0.508638
0.148048 0.294977 0.480406
0.211120 0.295999 0.482374
0.303692 0.298299 0.486337
0.403878 0.301951 0.491332
0.505560 0.307344 0.496676
0.607360 0.314907 0.502185
0.709214 0.324539 0.507476
0.807907 0.334864 0.510954
0.890640 0.343490 0.512142
0.177864 0.402928 0.496223
0.230502 0.404183 0.497954
0.316349 0.407034 0.501749
0.414207 0.410999 0.506708
0.514930 0.414964 0.511076
0.616221 0.419308 0.514447
0.718165 0.424508 0.516660
0.816978 0.430086 0.517338
0.899403 0.435077 0.517013
0.206141 0.512236 0.510262
0.251102 0.513441 0.511633
0.330418 0.516329 0.514819
0.426032 0.521103 0.519773
0.529292 0.527647 0.525945
0.629622 0.528899 0.525771
0.731104 0.530829 0.525037
0.829270 0.533328 0.523763
0.911123 0.535795 0.522191
0.255077 0.619200 0.509436
0.292149 0.620025 0.509170
0.364216 0.621829 0.508052
0.458671 0.624002 0.505484
0.561379 0.626016 0.509690
0.643052 0.635372 0.529453
0.745241 0.637970 0.529811
0.843214 0.639411 0.528266
0.924650 0.640522 0.526235
0.354209 0.719881 0.478415
0.380900 0.720182 0.477954
0.437586 0.720808 0.477310
0.515955 0.721704 0.478591
0.602341 0.723796 0.488090
0.679692 0.731090 0.511507
0.758248 0.741488 0.528334
0.856417 0.744180 0.528666
0.938015 0.745580 0.527718
0.449389 0.813352 0.443586
0.468771 0.813549 0.443995
0.511849 0.814046 0.445589
0.574524 0.815063 0.450434
0.647836 0.817397 0.462397
0.721211 0.823032 0.484887
0.790292 0.833479 0.512322
0.868484 0.842777 0.525983
0.949408 0.845247 0.526999
0.519899 0.890648 0.413165
0.535336 0.890873 0.414230
0.570465 0.891464 0.417329
0.623371 0.892676 0.424245
0.688048 0.895111 0.437741
0.756911 0.899993 0.460277
0.824332 0.908722 0.490076
0.891080 0.919841 0.516034
0.958290 0.927056 0.526545
0.094692 0.147849 0.561167
0.184588 0.147546 0.563688
0.288112 0.148084 0.568513
0.392231 0.152085 0.574708
0.495655 0.161640 0.581651
0.598522 0.176841 0.588875
0.701081 0.196214 0.595932
0.800002 0.216705 0.601612
0.882961 0.233336 0.604376
0.115359 0.207419 0.567398
0.193017 0.207809 0.569578
0.292459 0.209137 0.573914
0.395269 0.212563 0.579577
0.498214 0.219326 0.585932
0.600849 0.229914 0.592548
0.703267 0.243877 0.599011
0.802251 0.259166 0.603827
0.885256 0.271964 0.605954
0.145482 0.299937 0.579618
0.208889 0.300741 0.581378
0.301516 0.302628 0.585046
0.401866 0.305812 0.589926
0.503941 0.310675 0.595298
0.606199 0.317585 0.600755
0.708584 0.326477 0.605614
0.807763 0.336177 0.608543
0.890793 0.344472 0.609399
0.176139 0.404796 0.594914
0.228759 0.405781 0.596401
0.314247 0.408012 0.599636
0.411701 0.411315 0.604041
0.512883 0.415330 0.608563
0.615141 0.419955 0.612129
0.717881 0.425240 0.614268
0.817197 0.430823 0.614793
0.899882 0.435829 0.614367
0.208111 0.513842 0.609480
0.252548 0.514911 0.610713
0.331196 0.517425 0.613512
0.425892 0.521332 0.617565
0.527092 0.525748 0.621514
0.629583 0.529038 0.623206
0.731870 0.531636 0.622948
0.830368 0.534339 0.621675
0.912368 0.536875 0.620014
0.251396 0.622342 0.616793
0.287616 0.623318 0.617694
0.357192 0.625669 0.619827
0.446149 0.629579 0.623260
0.545304 0.635089 0.627860
0.649433 0.641341 0.632560
0.749422 0.641600 0.630454
0.846421 0.642096 0.627808
0.927438 0.642818 0.625272
0.308859 0.728239 0.611007
0.338160 0.728965 0.610867
0.398967 0.730641 0.610226
0.482982 0.733074 0.608263
0.582772 0.735320 0.605273
0.683170 0.738084 0.613568
0.764550 0.747474 0.630995
0.862187 0.749289 0.630424
0.942910 0.749846 0.628604
0.403962 0.824690 0.578275
0.426398 0.825019 0.577787
0.475839 0.825734 0.576766
0.547812 0.826711 0.575946
0.633730 0.827933 0.578335
0.721065 0.830897 0.590832
0.796028 0.839675 0.615457
0.874424 0.848774 0.628471
0.955439 0.850755 0.628952
0.484494 0.902059 0.548491
0.502210 0.902268 0.548512
0.542347 0.902756 0.548877
0.602645 0.903576 0.550703
0.676565 0.904995 0.556586
0.755116 0.908106 0.570689
0.828900 0.915200 0.595066
0.896043 0.926129 0.619651
0.963846 0.933049 0.628748
0.094382 0.167159 0.662861
0.183313 0.167110 0.664990
0.286590 0.167620 0.669259
0.390864 0.170355 0.674895
0.494477 0.177178 0.681276
0.597473 0.188856 0.687955
0.700159 0.204760 0.694485
0.799411 0.222404 0.699330
0.882645 0.237269 0.701539
0.112999 0.219634 0.668082
0.190999 0.219994 0.669987
0.290534 0.221093 0.673908
0.393551 0.223771 0.679169
0.496744 0.229125 0.685130
0.599597 0.237834 0.691343
0.702276 0.249778 0.697283
0.801647 0.263290 0.701367
0.884938 0.274938 0.703043
0.141948 0.306243 0.678854
0.206120 0.306911 0.680433
0.299059 0.308501 0.683801
0.399601 0.311236 0.688427
0.501964 0.315480 0.693636
0.604588 0.321596 0.698923
0.707515 0.329586 0.703259
0.807172 0.338478 0.705732
0.890456 0.346312 0.706435
0.173076 0.407436 0.693072
0.226099 0.408245 0.694385
0.311691 0.410100 0.697271
0.409082 0.412960 0.701323
0.510541 0.416691 0.705572
0.613401 0.421197 0.709057
0.716833 0.426379 0.711159
0.816631 0.431902 0.711778
0.899623 0.436868 0.711452
0.207982 0.514895 0.707133
0.252132 0.515781 0.708168
0.330263 0.517833 0.710474
0.424226 0.520961 0.713701
0.524824 0.524676 0.716899
0.627712 0.528312 0.718998
0.730900 0.531661 0.719572
0.830083 0.534848 0.718844
0.912481 0.537625 0.717470
0.255254 0.624009 0.715353
0.290798 0.624911 0.716202
0.359453 0.627065 0.718191
0.447510 0.630566 0.721299
0.545475 0.635159 0.725088
0.647630 0.639624 0.728092
0.749674 0.642014 0.728128
0.847389 0.643209 0.726164
0.928657 0.644157 0.723850
0.307337 0.731663 0.717822
0.335876 0.732487 0.718529
0.394776 0.734479 0.720223
0.474923 0.737819 0.723009
0.567776 0.742562 0.726856
0.668225 0.748664 0.731613
0.771610 0.754201 0.735275
0.867001 0.753801 0.732526
0.946714 0.753397 0.729756
0.363355 0.832879 0.710676
0.387079 0.833536 0.710687
0.438560 0.835092 0.710532
0.512803 0.837543 0.709656
0.603753 0.840454 0.707246
0.706588 0.842753 0.705162
0.802360 0.846915 0.718595
0.881579 0.855598 0.732959
0.961910 0.856892 0.732796
0.436088 0.913505 0.685150
0.455964 0.913906 0.684764
0.500633 0.914822 0.683827
0.567572 0.916165 0.682399
0.651028 0.917670 0.681456
0.743427 0.919343 0.684825
0.831778 0.923357 0.700278
0.902449 0.933250 0.724596
0.970747 0.939885 0.733219
0.092136 0.185143 0.760480
0.181381 0.185269 0.762304
0.284650 0.185878 0.766090
0.389115 0.188002 0.771216
0.492991 0.193090 0.777062
0.596202 0.202111 0.783185
0.699138 0.215011 0.788992
0.798731 0.229963 0.792962
0.882421 0.243313 0.794874
0.109444 0.232041 0.764916
0.188474 0.232407 0.766585
0.288301 0.233415 0.770112
0.391560 0.235639 0.774954
0.495033 0.239962 0.780490
0.598140 0.247105 0.786257
0.701185 0.257201 0.791451
0.800926 0.268965 0.794789
0.884416 0.279426 0.796091
0.137634 0.313322 0.774376
0.202966 0.313906 0.775793
0.296429 0.315298 0.778868
0.397228 0.317688 0.783185
0.499855 0.321384 0.788125
0.602884 0.326749 0.792977
0.706302 0.333850 0.796721
0.806370 0.341881 0.798740
0.889811 0.349180 0.799363
0.169292 0.410863 0.787345
0.223014 0.411556 0.788524
0.308995 0.413163 0.791133
0.406589 0.415706 0.794754
0.508313 0.419126 0.798581
0.611576 0.423351 0.801788
0.715489 0.428272 0.803751
0.815608 0.433614 0.804491
0.898847 0.438447 0.804301
0.207020 0.516192 0.800156
0.251064 0.516944 0.801030
0.328929 0.518685 0.802969
0.422519 0.521363 0.805672
0.522779 0.524678 0.808457
0.625628 0.528255 0.810618
0.729203 0.531860 0.811636
0.828896 0.535355 0.811424
0.911686 0.538339 0.810442
0.257009 0.624823 0.808566
0.292026 0.625601 0.809308
0.359853 0.627439 0.811018
0.446944 0.630349 0.813598
0.543749 0.634035 0.816562
0.645017 0.637814 0.818992
0.747626 0.640893 0.819875
0.846327 0.643067 0.819045
0.928207 0.644575 0.817415
0.311441 0.733578 0.812845
0.339510 0.734362 0.813538
0.397668 0.736251 0.815193
0.477072 0.739393 0.817888
0.569176 0.743760 0.821508
0.668524 0.749006 0.825593
0.770618 0.753444 0.828320
0.867619 0.754754 0.827365
0.947798 0.754848 0.825154
0.363266 0.836450 0.813190
0.386406 0.837170 0.813813
0.436482 0.838917 0.815319
0.508077 0.841864 0.817840
0.594076 0.846083 0.821406
0.689295 0.851571 0.825976
0.791562 0.858055 0.829366
0.888748 0.862786 0.834528
0.967183 0.862213 0.832577
0.405843 0.920392 0.809465
0.426068 0.921023 0.809739
0.471048 0.922545 0.810300
0.537656 0.925060 0.810869
0.620641 0.928462 0.810715
0.716463 0.932176 0.808850
0.821909 0.934945 0.808159
0.910080 0.940683 0.825399
0.978068 0.947263 0.835203
0.088751 0.200019 0.841731
0.179228 0.199852 0.843053
0.282723 0.200572 0.846474
0.387386 0.202452 0.851196
0.491516 0.206591 0.856614
0.594964 0.213933 0.862276
0.698285 0.224824 0.867309
0.799128 0.238973 0.871473
0.883768 0.251926 0.873782
0.105386 0.242630 0.845328
0.185928 0.243014 0.846824
0.286188 0.244003 0.850038
0.389688 0.246001 0.854528
0.493418 0.249698 0.859697
0.596800 0.255782 0.865021
0.700247 0.264561 0.869434
0.800306 0.274947 0.872125
0.884746 0.285440 0.874009
0.133368 0.319796 0.853786
0.200011 0.320335 0.855077
0.294070 0.321614 0.857911
0.395137 0.323786 0.861947
0.498016 0.327111 0.866579
0.601457 0.331957 0.870864
0.705267 0.338368 0.874074
0.805593 0.345708 0.875756
0.889124 0.352508 0.876304
0.165746 0.414338 0.865636
0.220263 0.414967 0.866689
0.306779 0.416439 0.869001
0.404632 0.418789 0.872226
0.506569 0.421975 0.875663
0.610107 0.425938 0.878550
0.714261 0.430599 0.880388
0.814558 0.435712 0.881181
0.897947 0.440363 0.881087
0.206142 0.517752 0.877029
0.250137 0.518422 0.877792
0.327853 0.519980 0.879480
0.421206 0.522396 0.881855
0.521175 0.525462 0.884415
0.623905 0.528904 0.886540
0.727590 0.532522 0.887747
0.827535 0.536109 0.887853
0.910568 0.539181 0.887171
0.257614 0.625419 0.885209
0.292282 0.626106 0.885866
0.359541 0.627718 0.887371
0.445986 0.630258 0.889617
0.542127 0.633487 0.892187
0.642915 0.636950 0.894407
0.745538 0.640148 0.895572
0.844656 0.642758 0.895377
0.926958 0.644653 0.894311
0.313331 0.734380 0.890534
0.341056 0.735091 0.891174
0.398607 0.736794 0.892688
0.477278 0.739576 0.895101
0.568479 0.743318 0.898202
0.666624 0.747574 0.901424
0.767880 0.751378 0.903667
0.865733 0.753675 0.903872
0.946762 0.754659 0.902687
0.366757 0.838388 0.892730
0.389630 0.839091 0.893359
0.439238 0.840798 0.894881
0.510336 0.843673 0.897422
0.595884 0.847774 0.901004
0.690661 0.853059 0.905540
0.791146 0.859197 0.910660
0.889060 0.863521 0.913701
0.968154 0.863673 0.912550
0.408055 0.923405 0.892995
0.427910 0.924061 0.893599
0.472042 0.925659 0.895068
0.537170 0.928365 0.897553
0.617479 0.932264 0.901126
0.708050 0.937375 0.905805
0.805559 0.943656 0.911407
0.908224 0.949499 0.912249
0.984196 0.953730 0.920558
