color-grading/luts/02_looks/BNC_L02_Print2383.cube
TITLE "BNC L02 Print2383"
# BNC Grade v1.0 - Kodak 2383 print-stock emulation: punchy contrast, a crushed toe, cool-leaning shadows against warm highlights, and an overall desaturated, filmic roll-off.
# Input: Rec.709 Gamma 2.4 | Output: Rec.709 Gamma 2.4
LUT_3D_SIZE 9
DOMAIN_MIN 0.0 0.0 0.0
DOMAIN_MAX 1.0 1.0 1.0
0.000551 0.000553 0.000553
0.042312 0.017474 0.013287
0.174654 0.073275 0.054541
0.310548 0.109017 0.082156
0.436989 0.134947 0.102700
0.559714 0.153705 0.118016
0.675715 0.172288 0.134148
0.771162 0.190190 0.149881
0.801588 0.196040 0.154980
0.014817 0.045959 0.028695
0.039522 0.049929 0.021858
0.175354 0.082361 0.056210
0.311012 0.114164 0.083011
0.437346 0.138612 0.103250
0.560002 0.156634 0.118419
0.676022 0.174535 0.134345
0.771434 0.192065 0.150045
0.801850 0.197816 0.155137
0.061220 0.191674 0.098566
0.061562 0.193039 0.095550
0.194385 0.199434 0.075966
0.324644 0.209142 0.090312
0.451038 0.215355 0.106533
0.569959 0.224699 0.125472
0.684744 0.233476 0.140392
0.779421 0.243423 0.155180
0.809602 0.246972 0.160024
0.104029 0.328298 0.133315
0.104186 0.328975 0.130777
0.196126 0.335332 0.119627
0.352775 0.335296 0.117390
0.464178 0.345964 0.129115
0.585466 0.344947 0.141713
0.700565 0.345590 0.155831
0.795916 0.347637 0.168210
0.825847 0.348966 0.172906
0.142525 0.451720 0.150984
0.142623 0.452162 0.148695
0.214050 0.456311 0.146798
0.354685 0.460973 0.145114
0.497534 0.459508 0.154615
0.598818 0.472223 0.165673
0.715347 0.471427 0.178490
0.809471 0.468699 0.189699
0.839559 0.468313 0.193580
0.179676 0.568383 0.165386
0.181887 0.568480 0.165458
0.239192 0.571426 0.167673
0.354983 0.577889 0.173824
0.499099 0.580310 0.182909
0.633744 0.579908 0.193618
0.729976 0.592643 0.205725
0.822973 0.596658 0.216432
0.854425 0.595795 0.219789
0.238491 0.676290 0.197305
0.239902 0.676375 0.197361
0.280109 0.678979 0.199116
0.370699 0.685711 0.204064
0.494915 0.692976 0.212020
0.636723 0.694775 0.221832
0.764453 0.695712 0.232657
0.847362 0.705654 0.242784
0.876977 0.714050 0.247622
0.294184 0.768352 0.224719
0.295152 0.768359 0.224746
0.323887 0.768573 0.225583
0.396831 0.774913 0.229759
0.501579 0.783742 0.236712
0.632418 0.790717 0.246021
0.769275 0.791897 0.256219
0.889034 0.806835 0.270082
0.923293 0.843902 0.488374
0.316605 0.804436 0.235494
0.317477 0.804443 0.235519
0.343619 0.804652 0.236304
0.408013 0.805276 0.238600
0.506006 0.813534 0.245000
0.631709 0.821808 0.254082
0.768060 0.824611 0.264223
0.902137 0.851392 0.344022
0.938340 0.894207 0.613476
0.006044 0.017544 0.029592
0.043275 0.016723 0.046406
0.175212 0.072648 0.066985
0.310687 0.108933 0.089456
0.437069 0.134944 0.107863
0.559773 0.153726 0.122070
0.675783 0.172275 0.137328
0.771223 0.190181 0.152480
0.801647 0.196034 0.157423
0.015703 0.047125 0.046771
0.035178 0.051719 0.051038
0.175408 0.082473 0.068885
0.311097 0.114199 0.090336
0.437414 0.138647 0.108418
0.560057 0.156672 0.122474
0.676982 0.172512 0.135742
0.772203 0.190380 0.151186
0.802570 0.196223 0.156209
0.061476 0.192054 0.103956
0.061824 0.193417 0.101308
0.194931 0.199627 0.076052
0.327265 0.207974 0.090398
0.450840 0.215892 0.112736
0.569895 0.225047 0.129827
0.686250 0.231402 0.140415
0.780663 0.241470 0.155197
0.810771 0.245067 0.160040
0.104183 0.328557 0.136844
0.104341 0.329234 0.134421
0.194699 0.335684 0.120979
0.352986 0.335359 0.117419
0.465285 0.345803 0.129191
0.586680 0.344416 0.141767
0.701744 0.344848 0.155878
0.796976 0.346782 0.168249
0.826863 0.348091 0.172941
0.142637 0.451928 0.153822
0.142736 0.452369 0.151600
0.214178 0.456502 0.149919
0.354066 0.461175 0.145126
0.497658 0.459545 0.154633
0.599398 0.472296 0.165749
0.716087 0.471253 0.178543
0.810230 0.468407 0.189745
0.840323 0.467996 0.193626
0.179050 0.568634 0.167062
0.179596 0.568906 0.165534
0.237797 0.571840 0.167750
0.354158 0.578025 0.173822
0.498835 0.580425 0.182920
0.633827 0.579933 0.193631
0.730345 0.592768 0.205790
0.823485 0.596643 0.216485
0.854946 0.595748 0.219838
0.237119 0.676621 0.197368
0.238513 0.676709 0.197424
0.279060 0.679308 0.199180
0.369975 0.685854 0.204074
0.494479 0.693067 0.212020
0.636596 0.694845 0.221840
0.764513 0.695731 0.232667
0.847463 0.705647 0.242792
0.877197 0.714116 0.247659
0.293200 0.768490 0.224733
0.294126 0.768502 0.224760
0.323039 0.768759 0.225612
0.396303 0.775164 0.229809
0.501120 0.783801 0.236706
0.632175 0.790783 0.246022
0.769222 0.791942 0.256225
0.889150 0.806910 0.270110
0.923343 0.843977 0.488744
0.315734 0.804563 0.235507
0.316557 0.804576 0.235532
0.342814 0.804782 0.236318
0.407440 0.805397 0.238613
0.505552 0.813584 0.244992
0.631442 0.821868 0.254081
0.767973 0.824660 0.264228
0.902176 0.851455 0.344371
0.938377 0.894271 0.613759
0.026326 0.076747 0.113131
0.024848 0.072160 0.133152
0.176519 0.068740 0.191332
0.313212 0.099584 0.194554
0.439437 0.126264 0.198431
0.560805 0.150003 0.203447
0.676234 0.171681 0.209575
0.772014 0.189781 0.215966
0.802508 0.195688 0.218288
0.028451 0.082908 0.123204
0.027473 0.079727 0.139244
0.180007 0.073301 0.195108
0.316666 0.100346 0.194846
0.441773 0.126740 0.197873
0.562471 0.150328 0.202705
0.677490 0.171924 0.208822
0.773034 0.189985 0.215250
0.803465 0.195882 0.217588
0.066104 0.198348 0.197139
0.066489 0.199500 0.198343
0.190903 0.212178 0.210376
0.326596 0.214907 0.209959
0.450462 0.221260 0.211385
0.570824 0.228068 0.213254
0.687793 0.232921 0.214240
0.786700 0.234512 0.213652
0.818540 0.234386 0.213048
0.108210 0.335014 0.216159
0.108394 0.335695 0.215376
0.201376 0.342307 0.218038
0.356161 0.344807 0.205481
0.476470 0.349099 0.210806
0.597151 0.345770 0.215196
0.709068 0.346578 0.223650
0.804967 0.345478 0.224795
0.836080 0.344619 0.224024
0.145942 0.457873 0.223472
0.146051 0.458320 0.222330
0.222150 0.461976 0.226281
0.352015 0.468740 0.222864
0.503744 0.466140 0.194098
0.611115 0.476230 0.209940
0.735724 0.467054 0.198150
0.835022 0.458173 0.193424
0.865687 0.456447 0.195498
0.182002 0.573972 0.228426
0.183396 0.574160 0.228000
0.243315 0.576957 0.231669
0.354943 0.584050 0.236361
0.493895 0.587719 0.198685
0.640247 0.584108 0.195192
0.742629 0.596615 0.207888
0.840293 0.595712 0.218169
0.871993 0.593743 0.221397
0.228758 0.682734 0.236589
0.228849 0.682982 0.235503
0.260930 0.687204 0.224927
0.361033 0.693649 0.230813
0.484501 0.700995 0.216888
0.633237 0.698323 0.222461
0.768222 0.697891 0.233510
0.856088 0.709684 0.244553
0.884464 0.716192 0.248871
0.270854 0.773770 0.238935
0.270936 0.773974 0.237912
0.294462 0.777755 0.227386
0.378785 0.783907 0.231614
0.490188 0.791619 0.238297
0.625582 0.794901 0.246672
0.767390 0.793413 0.256441
0.892888 0.809321 0.271033
0.924931 0.846406 0.500593
0.287366 0.808406 0.239512
0.287411 0.808529 0.238488
0.314403 0.809080 0.236749
0.390213 0.813102 0.240148
0.494691 0.821273 0.246578
0.624444 0.826216 0.254794
0.764983 0.826257 0.264399
0.903389 0.853471 0.355296
0.939564 0.896314 0.622852
0.044788 0.130211 0.204957
0.044519 0.129287 0.211703
0.168611 0.081652 0.319612
0.308202 0.103125 0.319816
0.433695 0.126160 0.320444
0.553245 0.148282 0.320001
0.669197 0.169633 0.320564
0.766755 0.187958 0.321815
0.797866 0.193974 0.322334
0.045696 0.132827 0.210124
0.045407 0.131855 0.216739
0.170215 0.082739 0.325543
0.310663 0.103738 0.322377
0.435762 0.126568 0.321282
0.554854 0.148579 0.320160
0.670488 0.169873 0.320465
0.767827 0.188164 0.321611
0.798877 0.194172 0.322108
0.070714 0.206595 0.292497
0.070741 0.206564 0.295244
0.169779 0.206199 0.342202
0.328644 0.205755 0.339761
0.459626 0.203606 0.333590
0.583342 0.199840 0.325415
0.698223 0.205178 0.320381
0.794696 0.210961 0.317426
0.825840 0.212338 0.316394
0.114223 0.342719 0.340797
0.114418 0.343301 0.341409
0.197426 0.352443 0.350738
0.357991 0.365964 0.363993
0.479554 0.360588 0.357778
0.597327 0.356433 0.351635
0.711276 0.353172 0.345819
0.807865 0.349971 0.339860
0.839050 0.348683 0.337563
0.152676 0.468752 0.345216
0.152805 0.469203 0.344973
0.226962 0.474307 0.348467
0.362627 0.483570 0.362456
0.508872 0.486759 0.352416
0.625342 0.488784 0.353511
0.741555 0.480909 0.350268
0.834641 0.477213 0.350270
0.864888 0.475640 0.348932
0.190842 0.585957 0.343479
0.193254 0.586052 0.343613
0.254963 0.589004 0.347736
0.368765 0.596947 0.357688
0.498408 0.605653 0.353703
0.649805 0.602959 0.329672
0.754378 0.612245 0.338104
0.861081 0.602794 0.325409
0.893954 0.598296 0.319645
0.236450 0.694869 0.340580
0.236549 0.695122 0.340016
0.274937 0.698749 0.338589
0.375449 0.705571 0.346012
0.493459 0.715160 0.350195
0.636976 0.718358 0.312907
0.785658 0.714240 0.287248
0.874373 0.723782 0.305391
0.901530 0.726072 0.303432
0.278144 0.785541 0.335689
0.278230 0.785749 0.335106
0.291082 0.791099 0.321590
0.382320 0.797169 0.327821
0.492855 0.806386 0.334032
0.623609 0.814207 0.315080
0.774349 0.811430 0.261437
0.900626 0.816652 0.305021
0.929393 0.853491 0.533851
0.292354 0.815643 0.333647
0.292436 0.815839 0.333062
0.295987 0.821923 0.313583
0.384479 0.827779 0.319587
0.492805 0.836813 0.326163
0.620126 0.845455 0.312022
0.767730 0.844665 0.269214
0.906573 0.859163 0.383108
0.942892 0.902191 0.648793
0.061430 0.178382 0.293283
0.061189 0.177624 0.297428
0.146116 0.100890 0.439983
0.301444 0.113289 0.432949
0.426459 0.130735 0.433312
0.546613 0.149859 0.432281
0.661130 0.169263 0.430060
0.755956 0.186252 0.427660
0.790674 0.192776 0.429264
0.061955 0.179898 0.296528
0.061708 0.179124 0.300637
0.146502 0.101728 0.444280
0.302885 0.113832 0.435878
0.428048 0.131100 0.434944
0.548039 0.150128 0.433072
0.662326 0.169480 0.430403
0.756983 0.186444 0.427799
0.791327 0.192899 0.429186
0.078324 0.227533 0.367442
0.078157 0.226992 0.370270
0.140766 0.202287 0.464308
0.318726 0.198002 0.462773
0.452015 0.196518 0.458180
0.579050 0.189607 0.450315
0.700107 0.176328 0.439606
0.789602 0.192591 0.431020
0.818745 0.198155 0.429141
0.116771 0.342892 0.448225
0.116823 0.342994 0.449287
0.171704 0.349512 0.472652
0.334737 0.353971 0.484351
0.478699 0.349967 0.480036
0.604482 0.341223 0.469731
0.723216 0.329077 0.456291
0.819845 0.322655 0.445484
0.850592 0.321228 0.442220
0.158739 0.476289 0.473564
0.158869 0.476679 0.473975
0.215023 0.484030 0.481564
0.362460 0.495927 0.493415
0.515746 0.513246 0.509999
0.631067 0.503261 0.499122
0.743408 0.493305 0.486890
0.838471 0.484923 0.475653
0.869140 0.482138 0.471796
0.199778 0.597744 0.469886
0.199909 0.598072 0.469839
0.243433 0.604124 0.471347
0.374833 0.613030 0.482169
0.512850 0.625933 0.498719
0.659659 0.629921 0.487888
0.773801 0.630228 0.485320
0.873454 0.619486 0.476812
0.902219 0.617051 0.476091
0.246498 0.709757 0.460777
0.246608 0.710018 0.460546
0.281318 0.714552 0.460143
0.388968 0.721954 0.469222
0.511967 0.733211 0.481824
0.646002 0.743333 0.476773
0.797503 0.740347 0.454327
0.885552 0.748715 0.461433
0.915852 0.747430 0.457757
0.288395 0.801645 0.450343
0.288488 0.801860 0.450039
0.305149 0.806997 0.444684
0.398706 0.813501 0.452100
0.512070 0.823648 0.462518
0.636559 0.835391 0.466580
0.784284 0.837161 0.427880
0.910200 0.833707 0.414563
0.936310 0.865320 0.585990
0.302505 0.831949 0.446559
0.302592 0.832151 0.446240
0.311610 0.837791 0.437975
0.401432 0.844041 0.444966
0.511982 0.853865 0.454889
0.633963 0.865707 0.460508
0.776982 0.870042 0.427495
0.910367 0.867719 0.415866
0.948021 0.911666 0.690352
0.077264 0.224250 0.381212
0.077039 0.223578 0.384102
0.109550 0.121649 0.550264
0.289268 0.128295 0.543876
0.417842 0.140004 0.540063
0.537167 0.155031 0.538962
0.651904 0.171796 0.536607
0.757242 0.189290 0.540375
0.791982 0.195464 0.541875
0.077609 0.225247 0.383479
0.077381 0.224568 0.386354
0.109501 0.122280 0.553373
0.290018 0.128781 0.546513
0.418944 0.140348 0.541913
0.538318 0.155286 0.540136
0.652969 0.172000 0.537300
0.757873 0.189407 0.540572
0.792587 0.195577 0.542019
0.088728 0.257507 0.441349
0.088507 0.256854 0.443727
0.096212 0.197361 0.582582
0.300582 0.190226 0.585657
0.441817 0.185090 0.578464
0.569409 0.177492 0.571544
0.686691 0.178461 0.558584
0.778768 0.193293 0.546819
0.811804 0.199173 0.546030
0.119952 0.349278 0.528029
0.119913 0.349120 0.529289
0.118130 0.342852 0.584135
0.307523 0.342497 0.601229
0.463727 0.336973 0.597882
0.593257 0.331373 0.591121
0.715509 0.320429 0.579725
0.817441 0.306220 0.566749
0.850083 0.300415 0.561942
0.160679 0.473461 0.589832
0.160719 0.473550 0.590432
0.201554 0.479580 0.605517
0.340584 0.490441 0.612832
0.488326 0.496179 0.625904
0.627699 0.490498 0.619392
0.748762 0.478041 0.604771
0.848690 0.463350 0.588239
0.880149 0.458611 0.582555
0.207434 0.605850 0.599843
0.207559 0.606143 0.600137
0.233170 0.613529 0.607439
0.368315 0.624083 0.616968
0.515053 0.640746 0.631727
0.671818 0.661922 0.649785
0.782677 0.647858 0.634541
0.877114 0.634760 0.619470
0.905917 0.630436 0.614359
0.256247 0.722494 0.588468
0.256362 0.722750 0.588489
0.260002 0.730870 0.588818
0.380969 0.739605 0.596733
0.520887 0.752637 0.610726
0.665051 0.768796 0.629682
0.812589 0.773204 0.618664
0.907217 0.773672 0.616083
0.934557 0.769212 0.611233
0.299396 0.817962 0.575134
0.299495 0.818182 0.575036
0.302622 0.825153 0.571568
0.403561 0.832554 0.579074
0.527377 0.843882 0.592216
0.659073 0.858515 0.608368
0.797113 0.869315 0.601687
0.923852 0.866422 0.585269
0.945227 0.882160 0.656147
0.313727 0.849234 0.570219
0.313820 0.849442 0.570094
0.316754 0.856038 0.565783
0.409549 0.863379 0.572533
0.528570 0.874222 0.585130
0.656885 0.888094 0.600530
0.791090 0.899635 0.599156
0.922195 0.896580 0.569168
0.954522 0.924357 0.746779
0.092378 0.268084 0.468225
0.092166 0.267476 0.470382
0.056069 0.190423 0.598932
0.269066 0.145859 0.650647
0.407573 0.152752 0.641988
0.530978 0.164812 0.644926
0.652920 0.180026 0.649490
0.758803 0.195629 0.653728
0.793494 0.201243 0.655118
0.092621 0.268792 0.469913
0.092409 0.268180 0.472064
0.056851 0.191924 0.599333
0.269453 0.146278 0.652827
0.408198 0.153045 0.643611
0.531557 0.164988 0.645898
0.653503 0.180158 0.650106
0.759352 0.195741 0.654114
0.794029 0.201350 0.655442
0.100574 0.291884 0.516646
0.100352 0.291256 0.518565
0.078542 0.239102 0.613474
0.276567 0.179681 0.704320
0.428778 0.168002 0.697037
0.554506 0.171800 0.682725
0.671844 0.184330 0.669492
0.776786 0.199300 0.666112
0.811046 0.204771 0.665460
0.124966 0.362823 0.601451
0.124855 0.362480 0.602732
0.118584 0.344597 0.649392
0.277521 0.330582 0.714941
0.441873 0.323519 0.714591
0.578190 0.316982 0.706872
0.702201 0.307344 0.697587
0.805804 0.294026 0.686104
0.838988 0.288471 0.681733
0.161782 0.472437 0.674292
0.161777 0.472395 0.674982
0.161878 0.471732 0.700966
0.296805 0.478141 0.726306
0.457316 0.478888 0.737941
0.608154 0.472963 0.732997
0.734144 0.465320 0.723261
0.837603 0.453689 0.709697
0.870504 0.448970 0.704473
0.209737 0.602358 0.718312
0.209819 0.602530 0.718803
0.225451 0.608690 0.733471
0.357458 0.618335 0.740071
0.492435 0.633154 0.749221
0.639884 0.640505 0.762472
0.776864 0.633159 0.753355
0.879747 0.619430 0.737546
0.910033 0.613898 0.731340
0.264437 0.731513 0.717475
0.264549 0.731747 0.717703
0.268080 0.739151 0.724914
0.377722 0.749695 0.734207
0.517601 0.764884 0.747198
0.669684 0.785831 0.765024
0.829798 0.810270 0.785627
0.918733 0.794933 0.769738
0.941208 0.789466 0.763896
0.309135 0.831072 0.703498
0.309235 0.831286 0.703565
0.312381 0.838047 0.705544
0.385124 0.850202 0.711760
0.520516 0.863265 0.723506
0.669023 0.880609 0.741254
0.818935 0.899282 0.764221
0.937997 0.903211 0.755622
0.955426 0.905912 0.758737
0.323817 0.863586 0.698082
0.323911 0.863791 0.698112
0.326897 0.870293 0.698906
0.393544 0.882094 0.703713
0.525286 0.893951 0.715679
0.669636 0.909099 0.733856
0.814741 0.924865 0.756163
0.935162 0.929550 0.743396
0.961670 0.939039 0.815832
0.105341 0.305736 0.544851
0.105142 0.305176 0.546573
0.089739 0.265821 0.608926
0.254036 0.165909 0.758235
0.403469 0.169783 0.749569
0.532668 0.178165 0.746637
0.654556 0.190636 0.751065
0.760293 0.204239 0.755192
0.794959 0.209282 0.756457
0.105527 0.306280 0.546195
0.105328 0.305718 0.547913
0.089940 0.266406 0.610133
0.254141 0.166213 0.759783
0.403773 0.170024 0.750891
0.533104 0.178342 0.747631
0.655027 0.190771 0.751778
0.760762 0.204352 0.755694
0.795423 0.209390 0.756898
0.111647 0.324089 0.584990
0.111438 0.323506 0.586577
0.097566 0.287899 0.644377
0.255278 0.175803 0.808503
0.412282 0.177697 0.792830
0.546417 0.183990 0.779325
0.669788 0.195071 0.774457
0.775611 0.207947 0.771577
0.810141 0.212828 0.770832
0.131080 0.380400 0.664279
0.130932 0.379973 0.665476
0.123575 0.359825 0.707793
0.247929 0.318030 0.813886
0.418448 0.310373 0.816655
0.562982 0.300816 0.807771
0.688124 0.291263 0.799168
0.794966 0.280697 0.791080
0.831680 0.278629 0.789918
0.163646 0.475962 0.740288
0.163601 0.475807 0.741025
0.161583 0.469285 0.765771
0.257218 0.464042 0.824926
0.428230 0.463283 0.835543
0.585039 0.456400 0.832737
0.716780 0.449482 0.823411
0.822387 0.439987 0.812294
0.856029 0.435904 0.807786
0.209733 0.596934 0.798418
0.209746 0.596939 0.798840
0.210976 0.598984 0.815454
0.310782 0.608531 0.835863
0.452561 0.618689 0.847669
0.608044 0.620542 0.859290
0.755528 0.614145 0.852250
0.863518 0.605412 0.841255
0.896587 0.601277 0.836359
0.266756 0.729399 0.823534
0.266854 0.729594 0.823914
0.269938 0.735719 0.836144
0.373074 0.745499 0.847768
0.509811 0.759288 0.858325
0.650487 0.777944 0.869733
0.797816 0.787770 0.883663
0.912557 0.780065 0.874705
0.938704 0.775411 0.869577
0.316221 0.839470 0.818126
0.316317 0.839669 0.818321
0.319343 0.845983 0.824483
0.388223 0.858182 0.835775
0.521580 0.872247 0.847969
0.668062 0.891579 0.865344
0.824538 0.914307 0.887468
0.949741 0.933725 0.908382
0.964483 0.929886 0.904400
0.331686 0.873983 0.813553
0.331777 0.874176 0.813701
0.334670 0.880257 0.818367
0.389711 0.892835 0.828515
0.521125 0.905425 0.840286
0.665619 0.921820 0.857138
0.820239 0.939672 0.878821
0.946502 0.953181 0.902060
0.965571 0.954220 0.914941
0.109848 0.318839 0.571834
0.109654 0.318294 0.573434
0.096686 0.284879 0.631339
0.247922 0.173366 0.796796
0.400980 0.176401 0.788420
0.532981 0.183536 0.783334
0.655141 0.195061 0.787301
0.760839 0.207962 0.791357
0.795497 0.212803 0.792579
0.110019 0.319339 0.573081
0.109824 0.318792 0.574677
0.096855 0.285379 0.632453
0.247999 0.173656 0.798256
0.401237 0.176638 0.789698
0.533369 0.183714 0.784329
0.655575 0.195197 0.788033
0.761280 0.208076 0.791888
0.795934 0.212912 0.793051
0.115634 0.335694 0.609453
0.115430 0.335128 0.610940
0.103177 0.303492 0.664496
0.248409 0.182802 0.844301
0.408351 0.184169 0.830250
0.545175 0.189389 0.816052
0.669172 0.199547 0.811340
0.775212 0.211713 0.808756
0.809816 0.216385 0.808031
0.133582 0.387681 0.686293
0.133427 0.387239 0.687450
0.125968 0.366982 0.727999
0.236581 0.312823 0.848540
0.409639 0.305036 0.852291
0.556491 0.294493 0.843825
0.683014 0.284527 0.834832
0.794933 0.279404 0.831770
0.831629 0.277410 0.830601
0.164556 0.478207 0.762674
0.164497 0.478017 0.763417
0.162012 0.470295 0.788316
0.242142 0.458574 0.859364
0.417591 0.457523 0.869752
0.575779 0.450456 0.867904
0.710166 0.443110 0.858193
0.816238 0.434172 0.847787
0.850066 0.430265 0.843507
0.209914 0.595910 0.822840
0.209916 0.595891 0.823275
0.210034 0.595338 0.838020
0.290298 0.603914 0.869973
0.438826 0.612505 0.881974
0.596440 0.613432 0.892564
0.746781 0.606771 0.886274
0.856266 0.599092 0.876465
0.890137 0.595375 0.872037
0.266399 0.726362 0.857728
0.266461 0.726482 0.858077
0.269329 0.732082 0.871400
0.365464 0.741907 0.883561
0.498760 0.755576 0.891732
0.635385 0.772762 0.902528
0.785128 0.779196 0.914609
0.905177 0.772610 0.907822
0.933470 0.768914 0.904013
0.317569 0.840085 0.857006
0.317662 0.840277 0.857241
0.320598 0.846337 0.864737
0.388350 0.858258 0.877629
0.521412 0.872141 0.889494
0.667413 0.891110 0.905516
0.822579 0.912886 0.923818
0.942705 0.927327 0.935990
0.963566 0.925209 0.933888
0.333635 0.875952 0.853570
0.333725 0.876139 0.853758
0.336562 0.882033 0.859697
0.391669 0.894293 0.871826
0.522844 0.906886 0.883683
0.667414 0.923327 0.900122
0.822012 0.941468 0.919898
0.948032 0.956693 0.938265
0.966249 0.962138 0.956043
