color-grading/luts/02_looks/BNC_L07_Eterna.cube
TITLE "BNC L07 Eterna"
# BNC Grade v1.0 — Fujifilm Eterna-style flat, low-contrast cinema stock emulation with soft highlights and gentle desaturation.
# Input: Rec.709 Gamma 2.4 | Output: Rec.709 Gamma 2.4
LUT_3D_SIZE 33
DOMAIN_MIN 0.0 0.0 0.0
DOMAIN_MAX 1.0 1.0 1.0
0.031468 0.037310 0.039257
0.056615 0.041247 0.043114
0.081266 0.047709 0.048730
0.106270 0.055530 0.055117
0.132246 0.063353 0.061038
0.158502 0.071232 0.066951
0.184756 0.079236 0.073049
0.211002 0.087277 0.079236
0.237234 0.095301 0.085447
0.263447 0.103278 0.091642
0.289637 0.111189 0.097795
0.315798 0.119023 0.103889
0.341927 0.126773 0.109914
0.368021 0.134437 0.115865
0.394077 0.142014 0.121739
0.420091 0.149504 0.127536
0.446060 0.156911 0.133259
0.471981 0.164237 0.138910
0.497852 0.171486 0.144494
0.523669 0.178663 0.150015
0.549429 0.185774 0.155480
0.575131 0.192823 0.160895
0.600770 0.199816 0.166266
0.626345 0.206761 0.171602
0.651845 0.213661 0.176908
0.677145 0.220491 0.182169
0.702046 0.227205 0.187350
0.726360 0.233760 0.192422
0.749922 0.240118 0.197355
0.772604 0.246227 0.202084
0.794300 0.252058 0.206580
0.814927 0.257595 0.210839
0.834431 0.262831 0.214857
0.020303 0.065517 0.053723
0.053441 0.067846 0.051800
0.080441 0.071194 0.055512
0.106826 0.075440 0.059947
0.133153 0.080445 0.064787
0.159384 0.086130 0.070102
0.185583 0.092311 0.075724
0.211769 0.098841 0.081530
0.237943 0.105611 0.087435
0.264103 0.112540 0.093383
0.290244 0.119568 0.099333
0.316363 0.126652 0.105259
0.342454 0.133760 0.111144
0.368514 0.140871 0.116977
0.394539 0.147967 0.122751
0.420526 0.155037 0.128463
0.446469 0.162073 0.134112
0.472368 0.169071 0.139700
0.498218 0.176028 0.145228
0.524015 0.182944 0.150701
0.549758 0.189819 0.156123
0.575444 0.196655 0.161500
0.601068 0.203455 0.166838
0.626629 0.210224 0.172145
0.652115 0.216963 0.177425
0.677403 0.223646 0.182662
0.702292 0.230226 0.187823
0.726596 0.236660 0.192877
0.750148 0.242908 0.197794
0.772823 0.248917 0.202505
0.794512 0.254657 0.206987
0.815131 0.260114 0.211233
0.834629 0.265278 0.215240
0.001619 0.093294 0.069511
0.048453 0.095091 0.069409
0.080213 0.097251 0.063946
0.107914 0.099898 0.066656
0.134495 0.103253 0.070753
0.160786 0.107193 0.075330
0.186959 0.111678 0.080290
0.213083 0.116628 0.085528
0.239183 0.121959 0.090954
0.265267 0.127593 0.096499
0.291335 0.133463 0.102110
0.317385 0.139516 0.107750
0.343414 0.145705 0.113393
0.369416 0.151996 0.119020
0.395388 0.158360 0.124617
0.421326 0.164774 0.130176
0.447226 0.171222 0.135693
0.473084 0.177689 0.141165
0.498896 0.184167 0.146592
0.524660 0.190648 0.151977
0.550371 0.197127 0.157321
0.576026 0.203603 0.162629
0.601623 0.210073 0.167907
0.627157 0.216538 0.173159
0.652619 0.222998 0.178392
0.677885 0.229425 0.183587
0.702753 0.235770 0.188710
0.727036 0.241990 0.193731
0.750572 0.248043 0.198615
0.773232 0.253873 0.203295
0.794907 0.259453 0.207749
0.815514 0.264765 0.211970
0.835000 0.269799 0.215957
0.003699 0.121034 0.084478
0.047497 0.122407 0.084437
0.078160 0.124151 0.082826
0.108683 0.126067 0.075856
0.136115 0.128402 0.078101
0.162542 0.131320 0.082071
0.188761 0.134643 0.086401
0.214864 0.138372 0.091032
0.240906 0.142483 0.095902
0.266916 0.146935 0.100953
0.292903 0.151682 0.106132
0.318872 0.156681 0.111395
0.344822 0.161889 0.116711
0.370749 0.167271 0.122053
0.396650 0.172795 0.127402
0.422522 0.178436 0.132745
0.448360 0.184171 0.138072
0.474161 0.189982 0.143378
0.499920 0.195855 0.148659
0.525633 0.201779 0.153914
0.551297 0.207744 0.159144
0.576909 0.213743 0.164350
0.602465 0.219772 0.169538
0.627961 0.225828 0.174710
0.653387 0.231908 0.179871
0.678618 0.237982 0.185002
0.703455 0.244002 0.190069
0.727709 0.249925 0.195041
0.751219 0.255702 0.199875
0.773857 0.261280 0.204506
0.795512 0.266632 0.208918
0.816100 0.271740 0.213103
0.835569 0.276589 0.217058
0.003929 0.148917 0.099203
0.048970 0.149843 0.099365
0.079082 0.151079 0.099451
0.107311 0.152985 0.095697
0.137325 0.154672 0.087959
0.164604 0.156780 0.089687
0.190866 0.159415 0.093525
0.216991 0.162342 0.097644
0.243015 0.165569 0.101998
0.268975 0.169095 0.106552
0.294894 0.172908 0.111269
0.320785 0.176984 0.116112
0.346652 0.181295 0.121050
0.372497 0.185815 0.126054
0.398318 0.190517 0.131103
0.424112 0.195378 0.136179
0.449876 0.200376 0.141270
0.475606 0.205493 0.146365
0.501298 0.210713 0.151459
0.526948 0.216023 0.156547
0.552553 0.221411 0.161628
0.578108 0.226869 0.166702
0.603611 0.232390 0.171771
0.629057 0.237969 0.176837
0.654435 0.243600 0.181903
0.679621 0.249254 0.186950
0.704415 0.254883 0.191942
0.728630 0.260444 0.196848
0.752108 0.265883 0.201610
0.774716 0.271151 0.206177
0.796343 0.276221 0.210532
0.816906 0.281072 0.214668
0.836351 0.285690 0.218581
0.016300 0.176753 0.113753
0.053366 0.177250 0.114316
0.081657 0.178193 0.114825
0.108774 0.179685 0.113796
0.136407 0.181602 0.108189
0.166095 0.183102 0.100031
0.193289 0.185026 0.101224
0.219390 0.187460 0.104941
0.245411 0.190113 0.108883
0.271350 0.192989 0.113012
0.297227 0.196096 0.117305
0.323057 0.199436 0.121739
0.348853 0.203000 0.126291
0.374619 0.206774 0.130939
0.400359 0.210743 0.135661
0.426072 0.214888 0.140441
0.451755 0.219193 0.145262
0.477406 0.223643 0.150115
0.503023 0.228222 0.154991
0.528600 0.232918 0.159882
0.554135 0.237721 0.164786
0.579623 0.242621 0.169701
0.605062 0.247610 0.174627
0.630448 0.252683 0.179564
0.655768 0.257832 0.184514
0.680899 0.263030 0.189456
0.705641 0.268231 0.194356
0.729808 0.273390 0.199177
0.753246 0.278449 0.203847
0.775817 0.283369 0.208332
0.797409 0.288120 0.212617
0.817940 0.292679 0.216693
0.837356 0.297032 0.220553
0.036214 0.204184 0.128755
0.060357 0.204587 0.129234
0.085888 0.205344 0.129834
0.111797 0.206528 0.129830
0.138001 0.208184 0.127467
0.165521 0.210029 0.120383
0.194953 0.211376 0.111981
0.222106 0.213144 0.112629
0.248058 0.215428 0.116242
0.273969 0.217879 0.120038
0.299819 0.220498 0.123985
0.325611 0.223296 0.128066
0.351353 0.226279 0.132267
0.377055 0.229450 0.136574
0.402722 0.232803 0.140973
0.428358 0.236331 0.145450
0.453962 0.240024 0.149991
0.479533 0.243869 0.154586
0.505070 0.247858 0.159224
0.530570 0.251979 0.163900
0.556028 0.256224 0.168607
0.581443 0.260584 0.173343
0.606811 0.265052 0.178105
0.632127 0.269621 0.182895
0.657381 0.274287 0.187711
0.682449 0.279022 0.192533
0.707131 0.283783 0.197326
0.731245 0.288522 0.202037
0.754636 0.293185 0.206598
0.777163 0.297738 0.210988
0.798714 0.302150 0.215190
0.819207 0.306399 0.219193
0.838587 0.310467 0.222991
0.051383 0.231501 0.143668
0.069241 0.231837 0.144079
0.091719 0.232467 0.144671
0.116045 0.233443 0.145053
0.141202 0.234814 0.144280
0.167096 0.236556 0.140545
0.194651 0.238290 0.132330
0.223867 0.239513 0.123775
0.251007 0.241142 0.123876
0.276820 0.243310 0.127401
0.302621 0.245607 0.131078
0.328379 0.248032 0.134879
0.354083 0.250595 0.138790
0.379737 0.253306 0.142803
0.405347 0.256171 0.146909
0.430917 0.259192 0.151101
0.456449 0.262367 0.155370
0.481945 0.265691 0.159708
0.507405 0.269159 0.164106
0.532826 0.272764 0.168558
0.558207 0.276500 0.173059
0.583545 0.280360 0.177604
0.608836 0.284339 0.182193
0.634079 0.288432 0.186823
0.659260 0.292634 0.191493
0.684259 0.296920 0.196183
0.708875 0.301249 0.200852
0.732934 0.305569 0.205427
0.756272 0.309837 0.209868
0.778750 0.314021 0.214151
0.800254 0.318090 0.218259
0.820703 0.322023 0.222181
0.840043 0.325799 0.225907
0.065466 0.258709 0.158473
0.079370 0.258997 0.158831
0.098945 0.259535 0.159386
0.121453 0.260364 0.159914
0.145450 0.261521 0.159870
0.170311 0.263031 0.158169
0.196151 0.264797 0.153136
0.223776 0.266408 0.144066
0.252803 0.267527 0.135410
0.279951 0.269030 0.134964
0.305634 0.271106 0.138418
0.331327 0.273283 0.142000
0.356989 0.275558 0.145687
0.382605 0.277941 0.149464
0.408171 0.280440 0.153327
0.433688 0.283065 0.157273
0.459161 0.285822 0.161298
0.484591 0.288714 0.165397
0.509981 0.291739 0.169566
0.535328 0.294897 0.173800
0.560634 0.298184 0.178096
0.585895 0.301598 0.182450
0.611111 0.305134 0.186860
0.636277 0.308789 0.191325
0.661384 0.312560 0.195843
0.686308 0.316425 0.200394
0.710860 0.320340 0.204912
0.734861 0.324258 0.209340
0.758143 0.328146 0.213649
0.780567 0.331972 0.217816
0.802020 0.335707 0.221823
0.822421 0.339329 0.225656
0.841715 0.342818 0.229306
0.079061 0.285817 0.173172
0.090277 0.286067 0.173486
0.107298 0.286536 0.173999
0.127919 0.287256 0.174572
0.150612 0.288256 0.174873
0.174513 0.289562 0.174244
0.199277 0.291166 0.171540
0.225181 0.292912 0.165335
0.252874 0.294400 0.155626
0.281729 0.295432 0.146903
0.308899 0.296820 0.145912
0.334462 0.298821 0.149310
0.360047 0.300903 0.152819
0.385613 0.303062 0.156417
0.411139 0.305303 0.160093
0.436615 0.307638 0.163842
0.462041 0.310074 0.167663
0.487418 0.312622 0.171557
0.512747 0.315285 0.175523
0.538030 0.318069 0.179558
0.563266 0.320973 0.183662
0.588456 0.323998 0.187833
0.613598 0.327143 0.192070
0.638690 0.330408 0.196372
0.663721 0.333790 0.200738
0.688577 0.337265 0.205129
0.713067 0.340792 0.209479
0.737007 0.344338 0.213755
0.760230 0.347870 0.217929
0.782597 0.351358 0.221976
0.803996 0.354776 0.225877
0.824345 0.358100 0.229617
0.843591 0.361313 0.233186
0.092350 0.312830 0.187770
0.101648 0.313052 0.188050
0.116504 0.313466 0.188521
0.135297 0.314103 0.189097
0.156605 0.314983 0.189565
0.179481 0.316130 0.189505
0.203375 0.317554 0.188178
0.228152 0.319213 0.184457
0.254172 0.320910 0.177228
0.281915 0.322282 0.167046
0.310615 0.323241 0.158278
0.337811 0.324526 0.156760
0.363266 0.326465 0.160104
0.388747 0.328471 0.163561
0.414216 0.330538 0.167095
0.439650 0.332670 0.170696
0.465036 0.334875 0.174362
0.490369 0.337163 0.178092
0.515650 0.339545 0.181890
0.540879 0.342027 0.185755
0.566056 0.344614 0.189690
0.591182 0.347312 0.193696
0.616256 0.350122 0.197774
0.641278 0.353047 0.201923
0.666242 0.356081 0.206128
0.691038 0.359200 0.210340
0.715468 0.362378 0.214525
0.739347 0.365584 0.218650
0.762511 0.368788 0.222688
0.784819 0.371965 0.226615
0.806162 0.375087 0.230409
0.826458 0.378134 0.234055
0.845656 0.381082 0.237533
0.105387 0.339756 0.202281
0.113266 0.339955 0.202532
0.126318 0.340326 0.202966
0.143414 0.340896 0.203526
0.163328 0.341683 0.204072
0.185118 0.342705 0.204323
0.208153 0.343976 0.203794
0.232092 0.345490 0.201701
0.256943 0.347172 0.196995
0.283098 0.348803 0.188891
0.310872 0.350070 0.178362
0.339429 0.350969 0.169569
0.366631 0.352167 0.167592
0.392013 0.354047 0.170837
0.417391 0.355995 0.174259
0.442764 0.357990 0.177751
0.468104 0.360036 0.181304
0.493399 0.362141 0.184914
0.518639 0.364314 0.188584
0.543824 0.366565 0.192316
0.568952 0.368902 0.196113
0.594024 0.371334 0.199980
0.619039 0.373865 0.203920
0.644005 0.376496 0.207913
0.668918 0.379221 0.211941
0.693659 0.382030 0.215985
0.718031 0.384899 0.220012
0.741851 0.387801 0.223994
0.764956 0.390712 0.227902
0.787207 0.393605 0.231711
0.808493 0.396457 0.235401
0.828738 0.399245 0.238947
0.847906 0.401927 0.242295
0.118180 0.366601 0.216720
0.124977 0.366781 0.216949
0.136535 0.367117 0.217349
0.152098 0.367633 0.217887
0.170659 0.368345 0.218464
0.191338 0.369269 0.218889
0.213483 0.370416 0.218830
0.236661 0.371790 0.217751
0.260675 0.373368 0.214861
0.285638 0.375049 0.209230
0.311928 0.376605 0.200390
0.339715 0.377780 0.189615
0.368140 0.378628 0.180814
0.395332 0.379756 0.178443
0.420668 0.381579 0.181546
0.445945 0.383481 0.184953
0.471221 0.385422 0.188424
0.496469 0.387404 0.191952
0.521670 0.389432 0.195533
0.546817 0.391516 0.199169
0.571905 0.393666 0.202865
0.596934 0.395890 0.206621
0.621911 0.398191 0.210418
0.646838 0.400573 0.214251
0.671707 0.403041 0.218123
0.696399 0.405585 0.222017
0.720719 0.408186 0.225903
0.744485 0.410823 0.229753
0.767534 0.413474 0.233541
0.789729 0.416114 0.237241
0.810966 0.418719 0.240822
0.831181 0.421248 0.244225
0.850324 0.423684 0.247436
0.130707 0.393372 0.231107
0.136661 0.393536 0.231317
0.146980 0.393843 0.231688
0.161182 0.394314 0.232200
0.178466 0.394966 0.232786
0.198044 0.395809 0.233307
0.219277 0.396855 0.233533
0.241696 0.398110 0.233087
0.265006 0.399569 0.231403
0.289120 0.401190 0.227714
0.314213 0.402851 0.221235
0.340628 0.404330 0.211787
0.368414 0.405425 0.200845
0.396716 0.406232 0.192055
0.423887 0.407304 0.189347
0.449197 0.409073 0.192278
0.474376 0.410943 0.195687
0.499556 0.412844 0.199157
0.524709 0.414778 0.202681
0.549817 0.416750 0.206256
0.574877 0.418764 0.209866
0.599884 0.420827 0.213503
0.624837 0.422948 0.217173
0.649735 0.425134 0.220878
0.674568 0.427393 0.224621
0.699219 0.429718 0.228390
0.723493 0.432095 0.232155
0.747210 0.434506 0.235892
0.770208 0.436931 0.239574
0.792360 0.439342 0.243158
0.813574 0.441704 0.246586
0.833768 0.443998 0.249843
0.852889 0.446210 0.252919
0.142936 0.420074 0.245462
0.148219 0.420225 0.245655
0.157506 0.420508 0.246001
0.170514 0.420943 0.246488
0.186617 0.421543 0.247069
0.205129 0.422320 0.247644
0.225447 0.423284 0.248044
0.247098 0.424439 0.248003
0.269740 0.425789 0.247111
0.293178 0.427315 0.244790
0.317408 0.428960 0.240322
0.342640 0.430588 0.233083
0.369166 0.431993 0.223141
0.396938 0.433020 0.212098
0.425124 0.433796 0.203337
0.452266 0.434823 0.200344
0.477567 0.436542 0.203079
0.502651 0.438390 0.206506
0.527743 0.440261 0.209975
0.552817 0.442154 0.213474
0.577855 0.444073 0.216999
0.602843 0.446024 0.220550
0.627777 0.448015 0.224129
0.652651 0.450056 0.227740
0.677456 0.452154 0.231387
0.702074 0.454306 0.235058
0.726311 0.456501 0.238729
0.749986 0.458724 0.242373
0.772957 0.460944 0.245930
0.795097 0.463135 0.249358
0.816297 0.465281 0.252638
0.836476 0.467366 0.255757
0.855579 0.469378 0.258706
0.154824 0.446715 0.259804
0.159564 0.446855 0.259984
0.167989 0.447117 0.260308
0.179954 0.447520 0.260772
0.194979 0.448078 0.261341
0.212479 0.448800 0.261943
0.231900 0.449694 0.262453
0.252780 0.450767 0.262674
0.274760 0.452021 0.262309
0.297590 0.453451 0.260929
0.321156 0.455030 0.257960
0.345512 0.456685 0.252751
0.370884 0.458273 0.244843
0.397506 0.459608 0.234507
0.425257 0.460579 0.223418
0.453340 0.461330 0.214694
0.480458 0.462319 0.211438
0.505781 0.463985 0.213914
0.530794 0.465810 0.217315
0.555814 0.467653 0.220755
0.580816 0.469512 0.224225
0.605780 0.471392 0.227720
0.630693 0.473298 0.231241
0.655547 0.475238 0.234792
0.680330 0.477219 0.238376
0.704922 0.479242 0.241981
0.729134 0.481291 0.245572
0.752806 0.483341 0.249087
0.775779 0.485375 0.252498
0.797916 0.487379 0.255785
0.819109 0.489339 0.258931
0.839279 0.491242 0.261923
0.858372 0.493077 0.264752
0.166320 0.473300 0.274156
0.170616 0.473431 0.274325
0.178314 0.473676 0.274630
0.189372 0.474052 0.275072
0.203425 0.474573 0.275628
0.219981 0.475248 0.276241
0.238538 0.476084 0.276819
0.258656 0.477087 0.277215
0.279975 0.478260 0.277206
0.302222 0.479603 0.276474
0.325222 0.481102 0.274575
0.348923 0.482718 0.270955
0.373422 0.484368 0.265044
0.398943 0.485910 0.256532
0.425664 0.487177 0.245859
0.453406 0.488095 0.234724
0.481408 0.488822 0.226012
0.508505 0.489777 0.222505
0.533861 0.491390 0.224694
0.558801 0.493202 0.228090
0.583746 0.495028 0.231523
0.608670 0.496867 0.234988
0.633555 0.498722 0.238480
0.658388 0.500599 0.242001
0.683153 0.502502 0.245548
0.707747 0.504419 0.249074
0.731977 0.506337 0.252544
0.755664 0.508243 0.255935
0.778647 0.510126 0.259221
0.800789 0.511975 0.262386
0.821985 0.513779 0.265413
0.842153 0.515526 0.268292
0.861241 0.517210 0.271014
0.177389 0.499834 0.288531
0.181318 0.499957 0.288689
0.188405 0.500187 0.288977
0.198676 0.500540 0.289398
0.211862 0.501029 0.289935
0.227551 0.501663 0.290546
0.245294 0.502448 0.291160
0.264680 0.503391 0.291664
0.285358 0.504493 0.291889
0.307045 0.505756 0.291593
0.329533 0.507173 0.290440
0.352703 0.508726 0.287986
0.376550 0.510365 0.283710
0.401201 0.511999 0.277132
0.426866 0.513490 0.268083
0.453669 0.514695 0.257138
0.481390 0.515569 0.245991
0.509308 0.516279 0.237304
0.536375 0.517210 0.233588
0.561769 0.518775 0.235485
0.586631 0.520583 0.238896
0.611496 0.522402 0.242347
0.636343 0.524231 0.245826
0.661168 0.526062 0.249302
0.685953 0.527896 0.252765
0.710572 0.529729 0.256198
0.734828 0.531548 0.259571
0.758537 0.533346 0.262861
0.781537 0.535112 0.266046
0.803694 0.536837 0.269109
0.824899 0.538513 0.272036
0.845073 0.540132 0.274818
0.864163 0.541688 0.277447
0.188171 0.526311 0.302858
0.191789 0.526426 0.303006
0.198351 0.526643 0.303277
0.207931 0.526976 0.303676
0.220336 0.527437 0.304192
0.235222 0.528034 0.304793
0.252194 0.528775 0.305424
0.270870 0.529665 0.305997
0.290911 0.530706 0.306382
0.312036 0.531899 0.306393
0.334021 0.533242 0.305771
0.356710 0.534726 0.304171
0.380032 0.536321 0.301157
0.404020 0.537974 0.296252
0.428815 0.539586 0.289066
0.454607 0.541027 0.279558
0.481473 0.542177 0.268406
0.509163 0.543018 0.257280
0.536997 0.543719 0.248638
0.564028 0.544634 0.244753
0.589473 0.546153 0.246338
0.614285 0.547951 0.249738
0.639118 0.549748 0.253147
0.663948 0.551542 0.256552
0.688749 0.553330 0.259946
0.713391 0.555107 0.263307
0.737672 0.556859 0.266606
0.761407 0.558580 0.269819
0.784431 0.560259 0.272925
0.806607 0.561890 0.275907
0.827829 0.563466 0.278754
0.848015 0.564982 0.281455
0.867115 0.566434 0.284007
0.198626 0.552733 0.317142
0.201978 0.552842 0.317282
0.208084 0.553047 0.317539
0.217053 0.553363 0.317919
0.228752 0.553799 0.318416
0.242897 0.554365 0.319005
0.259140 0.555068 0.319644
0.277131 0.555911 0.320262
0.296548 0.556899 0.320759
0.317114 0.558032 0.320990
0.338600 0.559309 0.320753
0.360832 0.560726 0.319778
0.383696 0.562266 0.317717
0.407159 0.563897 0.314150
0.431282 0.565555 0.308651
0.456212 0.567142 0.300919
0.482120 0.568536 0.291023
0.509049 0.569636 0.279708
0.536732 0.570443 0.268597
0.564526 0.571126 0.259958
0.591573 0.572008 0.255850
0.617125 0.573458 0.257036
0.641923 0.575233 0.260378
0.666739 0.577003 0.263724
0.691543 0.578764 0.267062
0.716199 0.580506 0.270368
0.740502 0.582217 0.273612
0.764262 0.583885 0.276768
0.787311 0.585505 0.279815
0.809512 0.587068 0.282737
0.830754 0.588571 0.285523
0.850959 0.590009 0.288163
0.870074 0.591380 0.290654
0.208657 0.579109 0.331417
0.211781 0.579213 0.331550
0.217492 0.579407 0.331795
0.225923 0.579707 0.332159
0.236989 0.580122 0.332638
0.250456 0.580661 0.333215
0.266019 0.581329 0.333855
0.283359 0.582133 0.334504
0.302172 0.583074 0.335081
0.322190 0.584154 0.335472
0.343185 0.585374 0.335518
0.364977 0.586729 0.335004
0.387431 0.588211 0.333650
0.410472 0.589797 0.331108
0.434098 0.591448 0.326981
0.458391 0.593096 0.320892
0.483500 0.594643 0.312624
0.509566 0.595977 0.302343
0.536588 0.597018 0.290853
0.564286 0.597783 0.279727
0.592056 0.598441 0.271062
0.619116 0.599291 0.266738
0.644775 0.600671 0.267513
0.669556 0.602426 0.270804
0.694344 0.604170 0.274095
0.719002 0.605893 0.277358
0.743317 0.607580 0.280561
0.767096 0.609218 0.283677
0.790169 0.610800 0.286684
0.812394 0.612319 0.289565
0.833661 0.613771 0.292307
0.853887 0.615153 0.294903
0.873021 0.616464 0.297350
0.218232 0.605440 0.345698
0.221162 0.605539 0.345824
0.226534 0.605724 0.346056
0.234499 0.606010 0.346403
0.245007 0.606405 0.346864
0.257869 0.606918 0.347423
0.272819 0.607555 0.348054
0.289566 0.608321 0.348713
0.307826 0.609217 0.349334
0.327341 0.610247 0.349825
0.347889 0.611410 0.350058
0.369281 0.612703 0.349865
0.391371 0.614122 0.349020
0.414054 0.615652 0.347241
0.437286 0.617268 0.344187
0.461088 0.618924 0.339490
0.485558 0.620550 0.332827
0.510837 0.622050 0.324060
0.537040 0.623323 0.313436
0.564137 0.624307 0.301797
0.591839 0.625034 0.290658
0.619580 0.625668 0.281963
0.646647 0.626487 0.277439
0.672401 0.627801 0.277819
0.697165 0.629532 0.281038
0.721806 0.631245 0.284266
0.746120 0.632921 0.287439
0.769909 0.634544 0.290527
0.793000 0.636106 0.293508
0.815247 0.637599 0.296362
0.836536 0.639020 0.299077
0.856786 0.640366 0.301646
0.875941 0.641637 0.304064
0.227806 0.631697 0.359857
0.230564 0.631791 0.359976
0.235633 0.631968 0.360195
0.243177 0.632239 0.360525
0.253176 0.632616 0.360963
0.265476 0.633105 0.361501
0.279847 0.633712 0.362117
0.296025 0.634442 0.362773
0.313744 0.635298 0.363418
0.332759 0.636281 0.363976
0.352852 0.637392 0.364345
0.373836 0.638629 0.364388
0.395555 0.639989 0.363925
0.417892 0.641461 0.362726
0.440772 0.643031 0.360506
0.464173 0.644666 0.356938
0.488139 0.646319 0.351684
0.512771 0.647916 0.344478
0.538203 0.649365 0.335254
0.564525 0.650579 0.324326
0.591681 0.651510 0.312560
0.619379 0.652200 0.301410
0.647089 0.652811 0.292684
0.674155 0.653601 0.287972
0.699981 0.654855 0.287986
0.724624 0.656548 0.291087
0.748920 0.658220 0.294236
0.772706 0.659839 0.297306
0.795804 0.661394 0.300271
0.818066 0.662876 0.303111
0.839375 0.664282 0.305813
0.859646 0.665608 0.308368
0.878823 0.666855 0.310771
0.237465 0.657874 0.373873
0.240066 0.657964 0.373986
0.244857 0.658132 0.374194
0.252010 0.658391 0.374507
0.261531 0.658751 0.374926
0.273297 0.659218 0.375443
0.287109 0.659798 0.376041
0.302731 0.660496 0.376691
0.319915 0.661315 0.377349
0.338428 0.662256 0.377954
0.358061 0.663320 0.378421
0.378626 0.664505 0.378640
0.399968 0.665810 0.378464
0.421959 0.667227 0.377707
0.444506 0.668746 0.376133
0.467558 0.670346 0.373462
0.491114 0.671993 0.369382
0.515230 0.673634 0.363590
0.540013 0.675196 0.355874
0.565583 0.676593 0.346232
0.592007 0.677749 0.335035
0.619207 0.678629 0.323162
0.646895 0.679286 0.312005
0.674571 0.679875 0.303249
0.701623 0.680636 0.298364
0.727389 0.681828 0.298026
0.751727 0.683467 0.300954
0.775494 0.685088 0.304010
0.798587 0.686644 0.306966
0.820854 0.688126 0.309801
0.842175 0.689528 0.312500
0.862462 0.690848 0.315052
0.881658 0.692084 0.317452
0.247182 0.683965 0.387754
0.249639 0.684051 0.387860
0.254174 0.684212 0.388058
0.260966 0.684460 0.388356
0.270038 0.684804 0.388757
0.281297 0.685251 0.389255
0.294574 0.685807 0.389836
0.309654 0.686475 0.390477
0.326312 0.687260 0.391140
0.344326 0.688162 0.391775
0.363495 0.689183 0.392314
0.383636 0.690321 0.392665
0.404593 0.691575 0.392708
0.426233 0.692940 0.392289
0.448454 0.694409 0.391216
0.471182 0.695966 0.389253
0.494387 0.697589 0.386125
0.518085 0.699239 0.381541
0.542342 0.700861 0.375232
0.567264 0.702385 0.367037
0.592958 0.703730 0.357015
0.619469 0.704829 0.345583
0.646703 0.705662 0.333620
0.674374 0.706287 0.322461
0.702004 0.706855 0.313679
0.728912 0.707587 0.308649
0.754412 0.708708 0.307956
0.778281 0.710273 0.310639
0.801354 0.711836 0.313591
0.823614 0.713324 0.316427
0.844937 0.714732 0.319130
0.865233 0.716054 0.321687
0.884443 0.717291 0.324094
0.256883 0.709848 0.401445
0.259210 0.709930 0.401547
0.263511 0.710085 0.401735
0.269969 0.710322 0.402020
0.278624 0.710652 0.402404
0.289407 0.711081 0.402884
0.302173 0.711614 0.403449
0.316732 0.712256 0.404077
0.332877 0.713010 0.404741
0.350400 0.713877 0.405397
0.369107 0.714858 0.405987
0.388822 0.715954 0.406437
0.409390 0.717162 0.406646
0.430675 0.718479 0.406489
0.452570 0.719899 0.405805
0.474988 0.721412 0.404397
0.497877 0.723000 0.402030
0.521222 0.724638 0.398441
0.545054 0.726284 0.393357
0.569445 0.727883 0.386548
0.594498 0.729365 0.377901
0.620307 0.730656 0.367529
0.646895 0.731700 0.355886
0.674156 0.732488 0.343852
0.701797 0.733083 0.332708
0.729249 0.733629 0.323953
0.755798 0.734326 0.318820
0.780839 0.735370 0.317769
0.804099 0.736842 0.320121
0.826338 0.738341 0.322962
0.847652 0.739759 0.325673
0.867948 0.741091 0.328242
0.887164 0.742336 0.330662
0.266467 0.735323 0.414855
0.268676 0.735402 0.414952
0.272764 0.735551 0.415132
0.278916 0.735779 0.415405
0.287186 0.736096 0.415775
0.297525 0.736509 0.416238
0.309810 0.737022 0.416786
0.323874 0.737639 0.417403
0.339525 0.738365 0.418063
0.356571 0.739200 0.418731
0.374826 0.740146 0.419359
0.394119 0.741202 0.419882
0.414298 0.742368 0.420219
0.435228 0.743641 0.420262
0.456797 0.745015 0.419881
0.478911 0.746484 0.418908
0.501505 0.748036 0.417145
0.524541 0.749649 0.414359
0.548020 0.751296 0.410298
0.571983 0.752932 0.404714
