color-grading/luts/02_looks/BNC_L09_Nocturne.cube
TITLE "BNC L09 Nocturne"
# BNC Grade v1.0 - Cool, blue-leaning night grade with deep, protected shadows.
# Input: Rec.709 Gamma 2.4 | Output: Rec.709 Gamma 2.4
LUT_3D_SIZE 5
DOMAIN_MIN 0.0 0.0 0.0
DOMAIN_MAX 1.0 1.0 1.0
0.001297 0.001315 0.001329
0.176694 0.081332 0.102743
0.440242 0.127535 0.136742
0.694119 0.121658 0.116432
0.868743 0.075557 0.058545
0.089308 0.208012 0.152876
0.177822 0.224696 0.150789
0.451311 0.233586 0.138811
0.701258 0.226129 0.115227
0.872810 0.213415 0.074704
0.218086 0.465277 0.221551
0.265285 0.469567 0.215873
0.468150 0.484224 0.152880
0.721564 0.484698 0.137419
0.892045 0.478393 0.130964
0.348940 0.706048 0.300023
0.379392 0.708217 0.302647
0.519709 0.720792 0.299225
0.729603 0.733642 0.190208
0.907526 0.736228 0.171871
0.438011 0.855392 0.356872
0.459835 0.857154 0.358712
0.572518 0.867677 0.361141
0.748189 0.883854 0.307419
0.911001 0.894132 0.290376
0.025676 0.080569 0.151982
0.177097 0.051692 0.256354
0.440760 0.120310 0.253237
0.695055 0.120270 0.231729
0.869636 0.078191 0.209069
0.066865 0.213773 0.241602
0.175750 0.226355 0.264220
0.451686 0.234938 0.256679
0.702408 0.227401 0.232909
0.875106 0.210678 0.211160
0.218495 0.469902 0.284476
0.271532 0.473829 0.285561
0.474241 0.489678 0.256173
0.733199 0.481591 0.215290
0.904478 0.467808 0.197730
0.340254 0.710069 0.333039
0.372957 0.712188 0.335923
0.519368 0.724619 0.335364
0.733287 0.736324 0.233875
0.914966 0.735406 0.204653
0.415737 0.858842 0.363521
0.439989 0.860559 0.365442
0.561788 0.870784 0.368176
0.745349 0.886016 0.310950
0.914612 0.897894 0.343925
0.046228 0.166823 0.368614
0.171772 0.066954 0.490629
0.436445 0.089010 0.500469
0.692153 0.102358 0.480900
0.868150 0.070626 0.465710
0.062233 0.228519 0.449955
0.172350 0.208913 0.509757
0.446615 0.222339 0.503539
0.700676 0.221756 0.484418
0.874855 0.209468 0.469371
0.139803 0.487980 0.503447
0.230020 0.491969 0.507422
0.497078 0.510596 0.523587
0.738836 0.497151 0.506384
0.906620 0.482699 0.488110
0.329526 0.729151 0.511194
0.371909 0.731032 0.515634
0.547759 0.742983 0.539698
0.757644 0.760025 0.505272
0.934417 0.755974 0.492963
0.428208 0.875941 0.531629
0.455284 0.877657 0.534979
0.587690 0.888310 0.551272
0.770524 0.906572 0.537896
0.933370 0.917999 0.555136
0.050873 0.233278 0.597997
0.168815 0.045961 0.732222
0.430240 0.057667 0.738635
0.682339 0.047617 0.725964
0.862318 0.000717 0.718387
0.050021 0.254517 0.670316
0.171017 0.192100 0.747573
0.437386 0.205797 0.743522
0.689499 0.206270 0.730047
0.864385 0.194993 0.719022
0.118654 0.477603 0.751093
0.220992 0.479363 0.754083
0.473724 0.487040 0.760814
0.726435 0.486338 0.757136
0.900252 0.476954 0.743593
0.241132 0.750660 0.758754
0.300491 0.753159 0.761122
0.521149 0.768221 0.775394
0.795071 0.796625 0.802016
0.950665 0.778099 0.781234
0.338049 0.905365 0.745290
0.380374 0.907128 0.747724
0.570827 0.917259 0.764463
0.815377 0.934918 0.804269
0.958724 0.947549 0.823242
0.043750 0.259678 0.731219
0.171380 0.000911 0.871445
0.429419 0.000921 0.872902
0.682207 0.009645 0.866911
0.862911 0.000913 0.862261
0.034455 0.265354 0.798982
0.173526 0.188780 0.876603
0.432289 0.193470 0.874420
0.683023 0.195711 0.865461
0.863761 0.193527 0.861934
0.095786 0.466451 0.883575
0.210431 0.468019 0.885047
0.460576 0.474120 0.890754
0.713318 0.474853 0.889015
0.889715 0.467784 0.878463
0.238928 0.747342 0.901116
0.297882 0.749505 0.903180
0.515381 0.761820 0.914583
0.774965 0.776795 0.926928
0.945523 0.771489 0.920408
0.307634 0.914885 0.896085
0.352327 0.916851 0.898137
0.544573 0.928486 0.910587
0.802109 0.948678 0.933521
0.969436 0.962201 0.954563
