color-grading/luts/02_looks/BNC_L08_Bleach.cube
TITLE "BNC L08 Bleach"
# BNC Grade v1.0 — Bleach-bypass emulation: heavy contrast, a crushed toe, and cool-leaning desaturation.
# Input: Rec.709 Gamma 2.4 | Output: Rec.709 Gamma 2.4
LUT_3D_SIZE 33
DOMAIN_MIN 0.0 0.0 0.0
DOMAIN_MAX 1.0 1.0 1.0
0.000176 0.000176 0.000176
0.000543 0.000318 0.000296
0.002004 0.001091 0.000969
0.007193 0.003939 0.003506
0.022198 0.012540 0.011335
0.047732 0.028257 0.026126
0.076762 0.046748 0.043811
0.109077 0.065963 0.061667
0.144051 0.084674 0.078205
0.178927 0.103049 0.094350
0.212358 0.120453 0.109575
0.243463 0.136483 0.123546
0.274044 0.152103 0.137117
0.304495 0.167531 0.150483
0.334812 0.182776 0.163657
0.364991 0.197846 0.176652
0.395028 0.212751 0.189477
0.424920 0.227496 0.202144
0.454663 0.242090 0.214662
0.484254 0.256538 0.227041
0.513690 0.270848 0.239291
0.542966 0.285025 0.251419
0.572079 0.299076 0.263434
0.601027 0.313006 0.275345
0.629806 0.326820 0.287158
0.658143 0.340396 0.298772
0.683585 0.352566 0.309190
0.703775 0.362204 0.317405
0.718279 0.369111 0.323256
0.727965 0.373718 0.327141
0.734122 0.376643 0.329602
0.737915 0.378445 0.331114
0.740206 0.379532 0.332026
0.000424 0.000619 0.000411
0.000649 0.000656 0.000462
0.002027 0.001193 0.001013
0.007197 0.003958 0.003514
0.022199 0.012543 0.011336
0.047733 0.028258 0.026127
0.076762 0.046749 0.043811
0.109077 0.065963 0.061667
0.144051 0.084675 0.078205
0.178927 0.103049 0.094350
0.212358 0.120453 0.109575
0.243463 0.136483 0.123546
0.274044 0.152103 0.137118
0.304495 0.167531 0.150484
0.334812 0.182776 0.163658
0.364991 0.197847 0.176652
0.395028 0.212751 0.189477
0.424920 0.227496 0.202144
0.454663 0.242090 0.214662
0.484254 0.256538 0.227041
0.513690 0.270848 0.239291
0.542966 0.285025 0.251419
0.572079 0.299076 0.263434
0.601027 0.313006 0.275345
0.629806 0.326820 0.287158
0.658143 0.340396 0.298772
0.683585 0.352566 0.309190
0.703775 0.362204 0.317405
0.718279 0.369111 0.323256
0.727965 0.373718 0.327141
0.734122 0.376643 0.329602
0.737915 0.378445 0.331114
0.740206 0.379532 0.332026
0.001522 0.002314 0.001480
0.001574 0.002320 0.001489
0.002420 0.002460 0.001688
0.007284 0.004360 0.003695
0.022214 0.012631 0.011377
0.047736 0.028287 0.026141
0.076764 0.046763 0.043818
0.109078 0.065971 0.061671
0.144053 0.084680 0.078208
0.178928 0.103054 0.094352
0.212359 0.120457 0.109577
0.243464 0.136486 0.123548
0.274045 0.152106 0.137119
0.304496 0.167533 0.150484
0.334812 0.182778 0.163658
0.364991 0.197848 0.176652
0.395029 0.212752 0.189477
0.424921 0.227497 0.202144
0.454664 0.242091 0.214663
0.484255 0.256539 0.227042
0.513690 0.270849 0.239291
0.542966 0.285026 0.251419
0.572080 0.299077 0.263435
0.601028 0.313006 0.275345
0.629807 0.326821 0.287159
0.658144 0.340397 0.298773
0.683585 0.352567 0.309190
0.703776 0.362205 0.317405
0.718279 0.369112 0.323256
0.727965 0.373718 0.327141
0.734123 0.376644 0.329602
0.737915 0.378445 0.331114
0.740206 0.379533 0.332027
0.005302 0.008373 0.005423
0.005311 0.008374 0.005425
0.005522 0.008399 0.005463
0.008578 0.008921 0.006207
0.022530 0.014357 0.012219
0.047821 0.028905 0.026455
0.076806 0.047072 0.043977
0.109116 0.066155 0.061756
0.144082 0.084807 0.078265
0.178951 0.103149 0.094394
0.212377 0.120532 0.109610
0.243479 0.136549 0.123575
0.274058 0.152159 0.137142
0.304508 0.167580 0.150504
0.334823 0.182819 0.163676
0.365001 0.197885 0.176668
0.395037 0.212785 0.189491
0.424929 0.227527 0.202157
0.454671 0.242118 0.214674
0.484262 0.256564 0.227052
0.513696 0.270872 0.239301
0.542972 0.285047 0.251428
0.572085 0.299096 0.263443
0.601033 0.313025 0.275353
0.629811 0.326838 0.287166
0.658148 0.340413 0.298780
0.683590 0.352583 0.309197
0.703780 0.362219 0.317412
0.718283 0.369126 0.323262
0.727969 0.373732 0.327147
0.734127 0.376658 0.329608
0.737919 0.378459 0.331120
0.740210 0.379547 0.332032
0.014761 0.026462 0.017855
0.014763 0.026462 0.017855
0.014812 0.026468 0.017864
0.015805 0.026588 0.018048
0.025421 0.028334 0.020562
0.048905 0.036740 0.030750
0.077419 0.051485 0.046291
0.109687 0.068869 0.063027
0.144517 0.086711 0.079126
0.179293 0.104586 0.095034
0.212658 0.121680 0.110114
0.243719 0.137505 0.123992
0.274267 0.152976 0.137495
0.304692 0.168288 0.150810
0.334988 0.183442 0.163943
0.365150 0.198439 0.176905
0.395173 0.213282 0.189703
0.425052 0.227977 0.202348
0.454785 0.242528 0.214848
0.484367 0.256941 0.227212
0.513794 0.271219 0.239448
0.543063 0.285369 0.251565
0.572171 0.299396 0.263570
0.601113 0.313305 0.275472
0.629887 0.327101 0.287278
0.658219 0.340660 0.298885
0.683657 0.352817 0.309297
0.703845 0.362444 0.317507
0.718347 0.369345 0.323355
0.728032 0.373947 0.327237
0.734188 0.376870 0.329697
0.737981 0.378670 0.331209
0.740272 0.379756 0.332121
0.027141 0.058757 0.041274
0.027142 0.058757 0.041274
0.027161 0.058759 0.041277
0.027576 0.058802 0.041341
0.033037 0.059446 0.042294
0.052887 0.063095 0.047382
0.080728 0.071146 0.057322
0.112935 0.082904 0.069883
0.147026 0.097259 0.084063
0.181302 0.112822 0.098785
0.214328 0.128375 0.113109
0.245154 0.143148 0.126485
0.275522 0.157827 0.139618
0.305804 0.172519 0.152647
0.335983 0.187177 0.165555
0.366049 0.201770 0.178336
0.395991 0.216280 0.190986
0.425802 0.230696 0.203508
0.455476 0.245010 0.215905
0.485006 0.259219 0.228181
0.514388 0.273322 0.240342
0.543617 0.287319 0.252393
0.572689 0.301212 0.264342
0.601600 0.315002 0.276194
0.630345 0.328693 0.287956
0.658651 0.342158 0.299525
0.684068 0.354239 0.309905
0.704241 0.363810 0.318087
0.718733 0.370672 0.323916
0.728411 0.375250 0.327787
0.734564 0.378158 0.330239
0.738354 0.379948 0.331747
0.740643 0.381029 0.332656
0.046373 0.095524 0.066251
0.046374 0.095524 0.066251
0.046383 0.095525 0.066253
0.046593 0.095545 0.066281
0.049644 0.095857 0.066707
0.064216 0.097699 0.069184
0.089418 0.102221 0.075010
0.120017 0.109688 0.084033
0.152859 0.119724 0.095301
0.186178 0.131611 0.107806
0.218492 0.144314 0.120541
0.248790 0.156950 0.132789
0.278739 0.169918 0.145054
0.308677 0.183211 0.157395
0.338572 0.196713 0.169749
0.368398 0.210343 0.182077
0.398137 0.224042 0.194353
0.427773 0.237767 0.206561
0.457296 0.251490 0.218692
0.486694 0.265188 0.230741
0.515959 0.278845 0.242707
0.545084 0.292452 0.254589
0.574063 0.306000 0.266389
0.602890 0.319484 0.278111
0.631560 0.332901 0.289758
0.659799 0.346124 0.301226
0.685160 0.358006 0.311520
0.705295 0.367430 0.319629
0.719761 0.374192 0.325409
0.729422 0.378705 0.329249
0.735564 0.381573 0.331682
0.739347 0.383340 0.333178
0.741633 0.384406 0.334080
0.072429 0.134364 0.090615
0.072429 0.134364 0.090615
0.072434 0.134365 0.090616
0.072550 0.134377 0.090633
0.074278 0.134568 0.090895
0.083744 0.135715 0.092458
0.103532 0.138649 0.096376
0.130878 0.143811 0.103034
0.162010 0.151028 0.111926
0.194168 0.159803 0.122175
0.225559 0.169551 0.132973
0.255121 0.179647 0.143676
0.284445 0.190378 0.154658
0.313847 0.201708 0.165923
0.343281 0.213499 0.177377
0.372708 0.225641 0.188946
0.402101 0.238043 0.200580
0.431434 0.250638 0.212241
0.460690 0.263369 0.223902
0.489852 0.276194 0.235546
0.518908 0.289080 0.247158
0.547845 0.302002 0.258732
0.576655 0.314939 0.270262
0.605328 0.327877 0.281744
0.633859 0.340803 0.293179
0.661972 0.353587 0.304458
0.687232 0.365105 0.314585
0.707296 0.374259 0.322558
0.721712 0.380839 0.328247
0.731341 0.385234 0.332028
0.737464 0.388029 0.334426
0.741235 0.389751 0.335900
0.743513 0.390791 0.336789
0.099299 0.174248 0.115232
0.099299 0.174248 0.115232
0.099302 0.174248 0.115232
0.099377 0.174257 0.115244
0.100513 0.174389 0.115426
0.107065 0.175190 0.116517
0.122239 0.177273 0.119331
0.145506 0.181064 0.124353
0.174020 0.186594 0.131480
0.204694 0.193470 0.140054
0.235108 0.201134 0.149256
0.263897 0.209141 0.158499
0.292533 0.217800 0.168127
0.321309 0.227138 0.178163
0.350178 0.237066 0.188522
0.379097 0.247493 0.199125
0.408033 0.258333 0.209911
0.436957 0.269512 0.220829
0.465844 0.280965 0.231838
0.494674 0.292636 0.242908
0.523429 0.304480 0.254014
0.552094 0.316460 0.265140
0.580656 0.328544 0.276271
0.609104 0.340708 0.287399
0.637427 0.352930 0.298516
0.665351 0.365078 0.309513
0.690466 0.376065 0.319367
0.710421 0.384823 0.327135
0.724763 0.391132 0.332685
0.734344 0.395354 0.336379
0.740436 0.398041 0.338721
0.744189 0.399697 0.340162
0.746456 0.400698 0.341032
0.126046 0.213686 0.139242
0.126046 0.213686 0.139242
0.126049 0.213686 0.139242
0.126103 0.213692 0.139251
0.126925 0.213792 0.139387
0.131775 0.214397 0.140210
0.143627 0.215986 0.142359
0.163110 0.218928 0.146293
0.188518 0.223336 0.152089
0.217134 0.228983 0.159359
0.246322 0.235376 0.167397
0.274321 0.242046 0.175566
0.302310 0.249231 0.184115
0.330494 0.256995 0.193072
0.358804 0.265318 0.202388
0.387198 0.274164 0.212011
0.415643 0.283483 0.221892
0.444111 0.293220 0.231984
0.472576 0.303321 0.242245
0.501016 0.313732 0.252640
0.529412 0.324409 0.263138
0.557745 0.335309 0.273715
0.586001 0.346397 0.284353
0.614165 0.357641 0.295035
0.642226 0.369015 0.305749
0.669917 0.380383 0.316356
0.694847 0.390711 0.325847
0.714662 0.398977 0.333349
0.728906 0.404949 0.338720
0.738424 0.408951 0.342299
0.744476 0.411502 0.344571
0.748205 0.413075 0.345969
0.750458 0.414027 0.346813
0.151646 0.251244 0.161847
0.151646 0.251244 0.161847
0.151648 0.251245 0.161847
0.151690 0.251250 0.161855
0.152328 0.251330 0.161963
0.156134 0.251816 0.162621
0.165708 0.253098 0.164351
0.182153 0.255494 0.167562
0.204608 0.259143 0.172399
0.230901 0.263917 0.178638
0.258523 0.269437 0.185740
0.285548 0.275265 0.193112
0.312864 0.281540 0.200902
0.340513 0.288275 0.209082
0.368342 0.295458 0.217593
0.396275 0.303090 0.226403
0.424273 0.311160 0.235483
0.452310 0.319650 0.244806
0.480362 0.328529 0.254341
0.508410 0.337761 0.264057
0.536434 0.347311 0.273927
0.564417 0.357141 0.283925
0.592344 0.367219 0.294031
0.620199 0.377513 0.304224
0.647974 0.387993 0.314478
0.675418 0.398524 0.324596
0.700138 0.408142 0.333678
0.719793 0.415872 0.340879
0.733926 0.421472 0.346046
0.743371 0.425234 0.349493
0.749378 0.427634 0.351684
0.753079 0.429116 0.353032
0.755314 0.430012 0.353847
0.175398 0.286003 0.182573
0.175398 0.286003 0.182573
0.175399 0.286004 0.182573
0.175434 0.286008 0.182579
0.175955 0.286075 0.182670
0.179086 0.286484 0.183221
0.187095 0.287565 0.184674
0.201235 0.289597 0.187395
0.221178 0.292722 0.191548
0.245249 0.296865 0.197002
0.271178 0.301736 0.203341
0.297041 0.306956 0.210056
0.323552 0.312628 0.217262
0.350634 0.318721 0.224893
0.378024 0.325183 0.232849
0.405573 0.332000 0.241076
0.433206 0.339175 0.249550
0.460882 0.346714 0.258254
0.488577 0.354614 0.267174
0.516274 0.362861 0.276292
0.543957 0.371436 0.285588
0.571611 0.380315 0.295042
0.599221 0.389472 0.304636
0.626776 0.398879 0.314341
0.654286 0.408505 0.324063
0.681483 0.418228 0.333682
0.705988 0.427152 0.342348
0.725478 0.434353 0.349240
0.739496 0.439585 0.354196
0.748864 0.443106 0.357508
0.754823 0.445356 0.359614
0.758494 0.446745 0.360911
0.760713 0.447586 0.361695
0.198650 0.320024 0.202706
0.198650 0.320024 0.202706
0.198652 0.320024 0.202706
0.198680 0.320028 0.202711
0.199119 0.320086 0.202789
0.201761 0.320438 0.203261
0.208592 0.321371 0.204512
0.220886 0.323134 0.206866
0.238648 0.325861 0.210491
0.260618 0.329512 0.215312
0.284799 0.333856 0.221001
0.309347 0.338573 0.227128
0.334874 0.343760 0.233807
0.361244 0.349376 0.240971
0.388126 0.355342 0.248497
0.415290 0.361607 0.256297
0.442594 0.368155 0.264322
0.469962 0.374992 0.272551
0.497352 0.382126 0.280972
0.524742 0.389565 0.289580
0.552117 0.397307 0.298367
0.579465 0.405345 0.307322
0.606779 0.413663 0.316411
0.634067 0.422237 0.325556
0.661319 0.431049 0.334737
0.688267 0.439992 0.343855
0.712552 0.448236 0.352099
0.731871 0.454912 0.358674
0.745767 0.459776 0.363412
0.755056 0.463055 0.366583
0.760964 0.465152 0.368601
0.764605 0.466449 0.369845
0.766804 0.467234 0.370597
0.221669 0.353769 0.222552
0.221669 0.353769 0.222552
0.221670 0.353769 0.222552
0.221695 0.353772 0.222556
0.222071 0.353823 0.222624
0.224341 0.354132 0.223037
0.230255 0.354952 0.224131
0.241043 0.356504 0.226199
0.256920 0.358919 0.229405
0.276951 0.362175 0.233708
0.299406 0.366083 0.238844
0.322564 0.370371 0.244445
0.346967 0.375137 0.250634
0.372469 0.380352 0.257360
0.398710 0.385930 0.264504
0.425410 0.391801 0.271960
0.452366 0.397918 0.279652
0.479446 0.404263 0.287532
0.506572 0.410838 0.295580
0.533702 0.417656 0.303788
0.560812 0.424727 0.312154
0.587906 0.432053 0.320626
0.614980 0.439633 0.329172
0.642025 0.447460 0.337784
0.669032 0.455526 0.346453
0.695736 0.463738 0.355087
0.719804 0.471334 0.362918
0.738951 0.477504 0.369178
0.752725 0.482009 0.373699
0.761935 0.485050 0.376724
0.767796 0.486995 0.378649
0.771409 0.488198 0.379835
0.773592 0.488926 0.380552
0.244414 0.387252 0.242147
0.244414 0.387252 0.242147
0.244415 0.387252 0.242147
0.244436 0.387255 0.242151
0.244763 0.387301 0.242211
0.246743 0.387575 0.242577
0.251928 0.388305 0.243548
0.261482 0.389692 0.245390
0.275741 0.391855 0.248258
0.294019 0.394789 0.252135
0.314830 0.398334 0.256801
0.336590 0.402255 0.261940
0.359797 0.406654 0.267679
0.384312 0.411511 0.273989
0.409778 0.416754 0.280768
0.435897 0.422308 0.287911
0.462428 0.428110 0.295328
0.489190 0.434115 0.302949
0.516060 0.440306 0.310729
0.542973 0.446677 0.318615
0.569893 0.453239 0.326568
0.596796 0.460002 0.334587
0.623668 0.466978 0.342671
0.650501 0.474173 0.350821
0.677288 0.481588 0.359033
0.703769 0.489147 0.367225
0.727630 0.496150 0.374670
0.746624 0.501844 0.380621
0.760300 0.506001 0.384909
0.769448 0.508809 0.387778
0.775270 0.510606 0.389605
0.778858 0.511718 0.390730
0.781027 0.512391 0.391411
0.266844 0.420489 0.261528
0.266844 0.420489 0.261528
0.266845 0.420489 0.261528
0.266864 0.420492 0.261531
0.267153 0.420532 0.261585
0.268901 0.420780 0.261914
0.273497 0.421438 0.262787
0.282029 0.422689 0.264445
0.294901 0.424648 0.267038
0.311614 0.427315 0.270560
0.330894 0.430556 0.274828
0.351294 0.434163 0.279564
0.373285 0.438238 0.284899
0.396744 0.442775 0.290820
0.421333 0.447715 0.297245
0.446755 0.452988 0.304083
0.472757 0.458530 0.311241
0.499141 0.464280 0.318604
0.525751 0.470196 0.326092
0.552471 0.476258 0.333661
0.579227 0.482462 0.341287
0.605972 0.488816 0.348963
0.632680 0.495332 0.356686
0.659339 0.502024 0.364462
0.685939 0.508901 0.372293
0.712232 0.515899 0.380098
0.735946 0.522368 0.387162
0.754829 0.527622 0.392801
0.768423 0.531462 0.396868
0.777516 0.534055 0.399591
0.783302 0.535717 0.401325
0.786869 0.536745 0.402394
0.789024 0.537367 0.403040
0.288922 0.453492 0.280728
0.288922 0.453492 0.280728
0.288923 0.453492 0.280728
0.288940 0.453494 0.280731
0.289197 0.453531 0.280780
0.290757 0.453756 0.281078
0.294869 0.454355 0.281870
0.302546 0.455495 0.283379
0.314228 0.457285 0.285743
0.329553 0.459730 0.288969
0.347426 0.462713 0.292898
0.366532 0.466049 0.297285
0.387325 0.469841 0.302259
0.409702 0.474091 0.307822
0.433359 0.478750 0.313889
0.458017 0.483761 0.320368
0.483423 0.489062 0.327174
0.509359 0.494592 0.334220
0.535641 0.500299 0.341432
0.562124 0.506145 0.348749
0.588700 0.512108 0.356133
0.615296 0.518182 0.363560
0.641867 0.524373 0.371022
0.668387 0.530691 0.378515
0.694868 0.537139 0.386018
0.721057 0.543663 0.393458
0.744669 0.549676 0.400184
0.763463 0.554555 0.405552
0.776991 0.558117 0.409423
0.786037 0.560523 0.412015
0.791794 0.562064 0.413666
0.795342 0.563018 0.414684
0.797486 0.563595 0.415299
0.310606 0.486273 0.299780
0.310606 0.486273 0.299780
0.310607 0.486273 0.299780
0.310622 0.486275 0.299783
0.310854 0.486309 0.299828
0.312258 0.486515 0.300100
0.315967 0.487065 0.300826
0.322923 0.488113 0.302210
0.333579 0.489760 0.304384
0.347681 0.492017 0.307353
0.364280 0.494779 0.310975
0.382189 0.497880 0.315026
0.401847 0.501421 0.319628
0.423178 0.505409 0.324788
0.445898 0.509808 0.330450
0.469744 0.514571 0.336547
0.494472 0.519645 0.343006
0.519863 0.524974 0.349750
0.545725 0.530502 0.356705
0.571897 0.536181 0.363805
0.598246 0.541976 0.370997
0.624677 0.547864 0.378240
0.651142 0.553827 0.385490
0.677598 0.559866 0.392731
0.704020 0.565990 0.399961
0.730142 0.572150 0.407113
0.753684 0.577803 0.413568
0.772416 0.582375 0.418712
0.785895 0.585707 0.422419
0.794907 0.587955 0.424901
0.800641 0.589394 0.426481
0.804174 0.590284 0.427456
0.806309 0.590823 0.428045
0.331940 0.518838 0.318570
0.331940 0.518838 0.318570
0.331941 0.518838 0.318571
0.331955 0.518840 0.318573
0.332165 0.518871 0.318614
0.333440 0.519062 0.318862
0.336815 0.519569 0.319522
0.343167 0.520538 0.320781
0.352950 0.522063 0.322759
0.365986 0.524156 0.325469
0.381448 0.526726 0.328788
0.398254 0.529622 0.332515
0.416835 0.532939 0.336771
0.437138 0.536694 0.341569
0.458908 0.540856 0.346867
0.481899 0.545390 0.352613
0.505884 0.550249 0.358746
0.530650 0.555385 0.365201
0.556007 0.560746 0.371909
0.581795 0.566277 0.378796
0.607886 0.571929 0.385787
0.634161 0.577667 0.392830
0.660530 0.583466 0.399888
0.686926 0.589316 0.406939
0.713303 0.595216 0.413969
0.739386 0.601116 0.420910
0.762887 0.606501 0.427160
0.781581 0.610837 0.432133
0.795028 0.613988 0.435712
0.804018 0.616110 0.438105
0.809737 0.617467 0.439629
0.813261 0.618306 0.440568
0.815390 0.618814 0.441136
0.353015 0.551186 0.336895
0.353015 0.551186 0.336895
0.353016 0.551186 0.336895
0.353028 0.551188 0.336898
0.353220 0.551217 0.336935
0.354386 0.551394 0.337162
0.357475 0.551866 0.337766
0.363305 0.552767 0.338918
0.372323 0.554187 0.340734
0.384407 0.556140 0.343226
0.398832 0.558543 0.346287
0.414613 0.561259 0.349737
0.432172 0.564380 0.353694
0.451477 0.567926 0.358175
0.472300 0.571874 0.363150
0.494419 0.576195 0.368579
0.517626 0.580851 0.374406
0.541735 0.585794 0.380565
0.566565 0.590977 0.386991
0.591947 0.596349 0.393620
0.617734 0.601863 0.400390
0.643794 0.607476 0.407247
0.670022 0.613156 0.414143
0.696331 0.618878 0.421046
0.722658 0.624631 0.427932
0.748709 0.630358 0.434725
0.772188 0.635557 0.440832
0.790863 0.639724 0.445683
0.804295 0.642743 0.449169
0.813272 0.644771 0.451499
0.818983 0.646066 0.452980
0.822501 0.646865 0.453894
0.824627 0.647349 0.454445
0.373772 0.583331 0.354817
0.373772 0.583331 0.354817
0.373773 0.583331 0.354817
0.373784 0.583332 0.354820
0.373961 0.583360 0.354854
0.375032 0.583525 0.355063
0.377873 0.583966 0.355620
0.383248 0.584808 0.356684
0.391592 0.586138 0.358362
0.402825 0.587969 0.360670
0.416308 0.590227 0.363513
0.431141 0.592785 0.366727
0.447742 0.595732 0.370421
0.466104 0.599087 0.374615
0.486031 0.602834 0.379283
0.507323 0.606948 0.384388
0.529787 0.611397 0.389890
0.553238 0.616144 0.395738
0.577500 0.621147 0.401878
0.602411 0.626361 0.408253
0.627823 0.631740 0.414805
0.653601 0.637239 0.421480
0.679629 0.642819 0.428227
0.705806 0.648448 0.435005
0.732054 0.654104 0.441782
0.758063 0.659720 0.448473
0.781522 0.664800 0.454487
0.800187 0.668856 0.459258
0.813612 0.671784 0.462684
0.822586 0.673747 0.464971
0.828293 0.674999 0.466426
0.831810 0.675771 0.467321
0.833934 0.676237 0.467862
0.394188 0.615276 0.372382
0.394188 0.615276 0.372382
0.394188 0.615276 0.372382
0.394199 0.615278 0.372384
0.394362 0.615303 0.372416
0.395352 0.615458 0.372609
0.397982 0.615872 0.373124
0.402966 0.616662 0.374109
0.410727 0.617911 0.375662
0.421220 0.619631 0.377800
0.433876 0.621756 0.380436
0.447872 0.624166 0.383420
0.463616 0.626948 0.386858
0.481115 0.630124 0.390774
0.500196 0.633681 0.395148
0.520682 0.637600 0.399952
0.542394 0.641855 0.405154
0.565159 0.646415 0.410712
0.588814 0.651243 0.416579
0.613203 0.656299 0.422708
0.638179 0.661540 0.429045
0.663610 0.666925 0.435538
0.689373 0.672411 0.442139
0.715363 0.677962 0.448801
0.741488 0.683548 0.455487
0.767424 0.689094 0.462105
0.790849 0.694102 0.468060
0.809502 0.698091 0.472786
0.822923 0.700964 0.476177
0.831894 0.702885 0.478441
0.837601 0.704109 0.479880
0.841118 0.704863 0.480766
0.843243 0.705319 0.481301
0.414479 0.646987 0.389492
0.414479 0.646987 0.389492
0.414479 0.646987 0.389492
0.414489 0.646989 0.389494
0.414641 0.647013 0.389524
0.415561 0.647158 0.389703
0.418008 0.647547 0.390180
0.422652 0.648290 0.391091
0.429902 0.649465 0.392532
0.439737 0.651086 0.394517
0.451646 0.653090 0.396969
0.464871 0.655367 0.399751
0.479810 0.658001 0.402963
0.496488 0.661015 0.406633
0.514753 0.664400 0.410745
0.534447 0.668139 0.415279
0.555407 0.672212 0.420207
0.577476 0.676593 0.425496
0.600497 0.681251 0.431108
0.624323 0.686150 0.437000
0.648815 0.691254 0.443127
0.673842 0.696521 0.449440
0.699282 0.701911 0.455894
0.725025 0.707387 0.462442
0.750973 0.712914 0.469045
0.776794 0.718410 0.475604
0.800157 0.723375 0.481521
0.818781 0.727327 0.486223
0.832191 0.730168 0.489599
0.841159 0.732067 0.491854
0.846864 0.733275 0.493286
0.850380 0.734019 0.494168
0.852504 0.734468 0.494701
0.434673 0.678460 0.406163
0.434673 0.678460 0.406163
0.434673 0.678460 0.406163
0.434683 0.678462 0.406165
0.434824 0.678484 0.406192
0.435683 0.678622 0.406359
0.437967 0.678988 0.406803
0.442308 0.679690 0.407652
0.449099 0.680799 0.408994
0.458338 0.682331 0.410847
0.469564 0.684228 0.413139
0.482076 0.686386 0.415744
0.496263 0.688886 0.418759
0.512162 0.691752 0.422210
0.529644 0.694978 0.426090
0.548568 0.698551 0.430381
0.568786 0.702455 0.435061
0.590153 0.706667 0.440105
0.612525 0.711161 0.445479
0.635763 0.715907 0.451148
0.659733 0.720872 0.457072
0.684309 0.726018 0.463208
0.709373 0.731309 0.469515
0.734813 0.736706 0.475949
0.760530 0.742174 0.482468
0.786186 0.747628 0.488973
0.809447 0.752563 0.494863
0.828019 0.756494 0.499554
0.841403 0.759320 0.502927
0.850360 0.761208 0.505181
0.856056 0.762409 0.506614
0.859560 0.763148 0.507496
0.861672 0.763595 0.508029
0.454748 0.709700 0.422439
0.454748 0.709700 0.422439
0.454748 0.709700 0.422439
0.454757 0.709701 0.422440
0.454889 0.709722 0.422466
0.455693 0.709852 0.422622
0.457832 0.710199 0.423037
0.461902 0.710863 0.423832
0.468280 0.711914 0.425090
0.476978 0.713366 0.426828
0.487578 0.715166 0.428980
0.499431 0.717217 0.431430
0.512915 0.719596 0.434271
0.528080 0.722328 0.437530
0.544814 0.725409 0.441203
0.562993 0.728829 0.445277
0.582484 0.732574 0.449734
0.603155 0.736627 0.454554
0.624871 0.740965 0.459709
0.647503 0.745562 0.465169
0.670924 0.750389 0.470901
0.695014 0.755412 0.476868
0.719657 0.760598 0.483030
0.744745 0.765911 0.489347
0.770178 0.771315 0.495782
0.795618 0.776726 0.502233
0.818735 0.781636 0.508098
0.837223 0.785553 0.512784
0.850563 0.788372 0.516161
0.859483 0.790256 0.518419
0.865132 0.791453 0.519856
0.868594 0.792191 0.520741
0.870676 0.792637 0.521276
0.474494 0.740418 0.438215
0.474494 0.740418 0.438216
0.474494 0.740418 0.438216
0.474502 0.740419 0.438217
0.474626 0.740439 0.438241
0.475381 0.740563 0.438388
0.477392 0.740892 0.438779
0.481219 0.741523 0.439527
0.487228 0.742522 0.440711
0.495438 0.743903 0.442350
0.505470 0.745616 0.444381
0.516719 0.747570 0.446696
0.529554 0.749840 0.449386
0.544034 0.752451 0.452478
0.560062 0.755399 0.455969
0.577531 0.758679 0.459850
0.596321 0.762279 0.464109
0.616312 0.766184 0.468728
0.637379 0.770374 0.473686
0.659402 0.774829 0.478955
0.682262 0.779521 0.484509
0.705843 0.784422 0.490315
0.730035 0.789501 0.496338
0.754734 0.794725 0.502542
0.779840 0.800060 0.508891
0.805018 0.805422 0.515288
0.827949 0.810304 0.521127
0.846321 0.814208 0.525809
0.859582 0.817022 0.529191
0.868398 0.818904 0.531456
0.873951 0.820102 0.532898
0.877343 0.820839 0.533788
0.879380 0.821285 0.534325
0.492188 0.767967 0.452204
0.492188 0.767967 0.452204
0.492188 0.767967 0.452204
0.492196 0.767969 0.452205
0.492314 0.767988 0.452228
0.493029 0.768106 0.452367
0.494933 0.768421 0.452739
0.498563 0.769025 0.453450
0.504266 0.769980 0.454577
0.512074 0.771303 0.456136
0.521632 0.772945 0.458071
0.532374 0.774819 0.460280
0.544660 0.776999 0.462848
0.558556 0.779509 0.465805
0.573978 0.782347 0.469150
0.590830 0.785510 0.472876
0.609007 0.788987 0.476974
0.628395 0.792765 0.481429
0.648882 0.796830 0.486223
0.670353 0.801160 0.491335
0.692696 0.805734 0.496739
